M109 S250 ; extruder temperature Abs-250 PLA-200
M190 S110 ; bed temperature Abs-110 PLA-60
M82        ;set extruder to absolute mode
M107       ;start with the fan off

G28 X0 Y0  ;move X/Y to min endstops
G28 Z0     ;move Z to min endstops

G1 Z15.0 F2000 ;move the platform down 15mm

G92 E0                  ;zero the extruded length
G1 F200 E3              ;extrude 3mm of feed stock
G92 E0                  ;zero the extruded length again
G1 F2000
;Put printing message on LCD screen
M117 Run2...


		; Part number: 1
		; PartParams(extrusionFactor=0.98, printSpeed=2000, shiftX=10.0, shiftY=10.0, shiftZ=0.0, numLayers=8, designType=0, pathWidth=0.5, brims=0, horizontalExpansion=0.25, randomStartLocation=0)

		; Layer: 1
		; LayerParams(infillAngleDegrees=90.0, layerHeight=0.4, infillShiftX=0.0, infillShiftY=0.0, numShells=0, infillOverlap=0.0002)
		; T11
		; M6
		TPWRITE "Layer 1 of 8";
		MoveL Offs(pZero, 10.25, 10.0, 3.4), v4000, z0, tNozzle, \Wobj := wobjPlatform;
		MoveL Offs(pZero, 10.25, 10.0, 0.4), v2000, z0, tNozzle, \Wobj := wobjPlatform;
		WaitRob \InPos;
		SetDO DO5_Program_Feed, 1;
		MoveL Offs(pZero, 10.25, 29.0, 0.4), v2000, z0, tNozzle, \Wobj := wobjPlatform;
		WaitRob \InPos;
		SetDO DO5_Program_Feed, 0;
		MoveL Offs(pZero, 10.75, 29.0, 0.4), v4000, z0, tNozzle, \Wobj := wobjPlatform;
		WaitRob \InPos;
		SetDO DO5_Program_Feed, 1;
		MoveL Offs(pZero, 10.75, 10.0, 0.4), v2000, z0, tNozzle, \Wobj := wobjPlatform;
		WaitRob \InPos;
		SetDO DO5_Program_Feed, 0;
		MoveL Offs(pZero, 11.25, 10.0, 0.4), v4000, z0, tNozzle, \Wobj := wobjPlatform;
		WaitRob \InPos;
		SetDO DO5_Program_Feed, 1;
		MoveL Offs(pZero, 11.25, 29.0, 0.4), v2000, z0, tNozzle, \Wobj := wobjPlatform;
		WaitRob \InPos;
		SetDO DO5_Program_Feed, 0;
		MoveL Offs(pZero, 11.75, 29.0, 0.4), v4000, z0, tNozzle, \Wobj := wobjPlatform;
		WaitRob \InPos;
		SetDO DO5_Program_Feed, 1;
		MoveL Offs(pZero, 11.75, 10.0, 0.4), v2000, z0, tNozzle, \Wobj := wobjPlatform;
		WaitRob \InPos;
		SetDO DO5_Program_Feed, 0;
		MoveL Offs(pZero, 12.25, 10.0, 0.4), v4000, z0, tNozzle, \Wobj := wobjPlatform;
		WaitRob \InPos;
		SetDO DO5_Program_Feed, 1;
		MoveL Offs(pZero, 12.25, 29.0, 0.4), v2000, z0, tNozzle, \Wobj := wobjPlatform;
		WaitRob \InPos;
		SetDO DO5_Program_Feed, 0;
		MoveL Offs(pZero, 12.75, 29.0, 0.4), v4000, z0, tNozzle, \Wobj := wobjPlatform;
		WaitRob \InPos;
		SetDO DO5_Program_Feed, 1;
		MoveL Offs(pZero, 12.75, 10.0, 0.4), v2000, z0, tNozzle, \Wobj := wobjPlatform;
		WaitRob \InPos;
		SetDO DO5_Program_Feed, 0;
		MoveL Offs(pZero, 13.25, 10.0, 0.4), v4000, z0, tNozzle, \Wobj := wobjPlatform;
		WaitRob \InPos;
		SetDO DO5_Program_Feed, 1;
		MoveL Offs(pZero, 13.25, 29.0, 0.4), v2000, z0, tNozzle, \Wobj := wobjPlatform;
		WaitRob \InPos;
		SetDO DO5_Program_Feed, 0;
		MoveL Offs(pZero, 13.75, 29.0, 0.4), v4000, z0, tNozzle, \Wobj := wobjPlatform;
		WaitRob \InPos;
		SetDO DO5_Program_Feed, 1;
		MoveL Offs(pZero, 13.75, 10.0, 0.4), v2000, z0, tNozzle, \Wobj := wobjPlatform;
		WaitRob \InPos;
		SetDO DO5_Program_Feed, 0;
		MoveL Offs(pZero, 14.25, 10.0, 0.4), v4000, z0, tNozzle, \Wobj := wobjPlatform;
		WaitRob \InPos;
		SetDO DO5_Program_Feed, 1;
		MoveL Offs(pZero, 14.25, 29.0, 0.4), v2000, z0, tNozzle, \Wobj := wobjPlatform;
		WaitRob \InPos;
		SetDO DO5_Program_Feed, 0;
		MoveL Offs(pZero, 14.75, 29.0, 0.4), v4000, z0, tNozzle, \Wobj := wobjPlatform;
		WaitRob \InPos;
		SetDO DO5_Program_Feed, 1;
		MoveL Offs(pZero, 14.75, 10.0, 0.4), v2000, z0, tNozzle, \Wobj := wobjPlatform;
		WaitRob \InPos;
		SetDO DO5_Program_Feed, 0;
		MoveL Offs(pZero, 15.25, 10.0, 0.4), v4000, z0, tNozzle, \Wobj := wobjPlatform;
		WaitRob \InPos;
		SetDO DO5_Program_Feed, 1;
		MoveL Offs(pZero, 15.25, 29.0, 0.4), v2000, z0, tNozzle, \Wobj := wobjPlatform;
		WaitRob \InPos;
		SetDO DO5_Program_Feed, 0;
		MoveL Offs(pZero, 15.75, 29.0, 0.4), v4000, z0, tNozzle, \Wobj := wobjPlatform;
		WaitRob \InPos;
		SetDO DO5_Program_Feed, 1;
		MoveL Offs(pZero, 15.75, 10.0, 0.4), v2000, z0, tNozzle, \Wobj := wobjPlatform;
		WaitRob \InPos;
		SetDO DO5_Program_Feed, 0;
		MoveL Offs(pZero, 16.25, 10.0, 0.4), v4000, z0, tNozzle, \Wobj := wobjPlatform;
		WaitRob \InPos;
		SetDO DO5_Program_Feed, 1;
		MoveL Offs(pZero, 16.25, 29.0, 0.4), v2000, z0, tNozzle, \Wobj := wobjPlatform;
		WaitRob \InPos;
		SetDO DO5_Program_Feed, 0;
		MoveL Offs(pZero, 16.75, 29.0, 0.4), v4000, z0, tNozzle, \Wobj := wobjPlatform;
		WaitRob \InPos;
		SetDO DO5_Program_Feed, 1;
		MoveL Offs(pZero, 16.75, 10.0, 0.4), v2000, z0, tNozzle, \Wobj := wobjPlatform;
		WaitRob \InPos;
		SetDO DO5_Program_Feed, 0;
		MoveL Offs(pZero, 17.25, 10.0, 0.4), v4000, z0, tNozzle, \Wobj := wobjPlatform;
		WaitRob \InPos;
		SetDO DO5_Program_Feed, 1;
		MoveL Offs(pZero, 17.25, 29.0, 0.4), v2000, z0, tNozzle, \Wobj := wobjPlatform;
		WaitRob \InPos;
		SetDO DO5_Program_Feed, 0;
		MoveL Offs(pZero, 17.75, 29.0, 0.4), v4000, z0, tNozzle, \Wobj := wobjPlatform;
		WaitRob \InPos;
		SetDO DO5_Program_Feed, 1;
		MoveL Offs(pZero, 17.75, 10.0, 0.4), v2000, z0, tNozzle, \Wobj := wobjPlatform;
		WaitRob \InPos;
		SetDO DO5_Program_Feed, 0;
		MoveL Offs(pZero, 18.25, 10.0, 0.4), v4000, z0, tNozzle, \Wobj := wobjPlatform;
		WaitRob \InPos;
		SetDO DO5_Program_Feed, 1;
		MoveL Offs(pZero, 18.25, 29.0, 0.4), v2000, z0, tNozzle, \Wobj := wobjPlatform;
		WaitRob \InPos;
		SetDO DO5_Program_Feed, 0;
		MoveL Offs(pZero, 18.75, 29.0, 0.4), v4000, z0, tNozzle, \Wobj := wobjPlatform;
		WaitRob \InPos;
		SetDO DO5_Program_Feed, 1;
		MoveL Offs(pZero, 18.75, 10.0, 0.4), v2000, z0, tNozzle, \Wobj := wobjPlatform;
		WaitRob \InPos;
		SetDO DO5_Program_Feed, 0;
		MoveL Offs(pZero, 19.25, 10.0, 0.4), v4000, z0, tNozzle, \Wobj := wobjPlatform;
		WaitRob \InPos;
		SetDO DO5_Program_Feed, 1;
		MoveL Offs(pZero, 19.25, 29.0, 0.4), v2000, z0, tNozzle, \Wobj := wobjPlatform;
		WaitRob \InPos;
		SetDO DO5_Program_Feed, 0;
		MoveL Offs(pZero, 19.75, 29.0, 0.4), v4000, z0, tNozzle, \Wobj := wobjPlatform;
		WaitRob \InPos;
		SetDO DO5_Program_Feed, 1;
		MoveL Offs(pZero, 19.75, 10.0, 0.4), v2000, z0, tNozzle, \Wobj := wobjPlatform;
		WaitRob \InPos;
		SetDO DO5_Program_Feed, 0;
		MoveL Offs(pZero, 20.25, 10.0, 0.4), v4000, z0, tNozzle, \Wobj := wobjPlatform;
		WaitRob \InPos;
		SetDO DO5_Program_Feed, 1;
		MoveL Offs(pZero, 20.25, 29.0, 0.4), v2000, z0, tNozzle, \Wobj := wobjPlatform;
		WaitRob \InPos;
		SetDO DO5_Program_Feed, 0;
		MoveL Offs(pZero, 20.75, 29.0, 0.4), v4000, z0, tNozzle, \Wobj := wobjPlatform;
		WaitRob \InPos;
		SetDO DO5_Program_Feed, 1;
		MoveL Offs(pZero, 20.75, 10.0, 0.4), v2000, z0, tNozzle, \Wobj := wobjPlatform;
		WaitRob \InPos;
		SetDO DO5_Program_Feed, 0;
		MoveL Offs(pZero, 21.25, 10.0, 0.4), v4000, z0, tNozzle, \Wobj := wobjPlatform;
		WaitRob \InPos;
		SetDO DO5_Program_Feed, 1;
		MoveL Offs(pZero, 21.25, 29.0, 0.4), v2000, z0, tNozzle, \Wobj := wobjPlatform;
		WaitRob \InPos;
		SetDO DO5_Program_Feed, 0;
		MoveL Offs(pZero, 21.75, 29.0, 0.4), v4000, z0, tNozzle, \Wobj := wobjPlatform;
		WaitRob \InPos;
		SetDO DO5_Program_Feed, 1;
		MoveL Offs(pZero, 21.75, 10.0, 0.4), v2000, z0, tNozzle, \Wobj := wobjPlatform;
		WaitRob \InPos;
		SetDO DO5_Program_Feed, 0;
		MoveL Offs(pZero, 22.25, 10.0, 0.4), v4000, z0, tNozzle, \Wobj := wobjPlatform;
		WaitRob \InPos;
		SetDO DO5_Program_Feed, 1;
		MoveL Offs(pZero, 22.25, 29.0, 0.4), v2000, z0, tNozzle, \Wobj := wobjPlatform;
		WaitRob \InPos;
		SetDO DO5_Program_Feed, 0;
		MoveL Offs(pZero, 22.75, 29.0, 0.4), v4000, z0, tNozzle, \Wobj := wobjPlatform;
		WaitRob \InPos;
		SetDO DO5_Program_Feed, 1;
		MoveL Offs(pZero, 22.75, 10.0, 0.4), v2000, z0, tNozzle, \Wobj := wobjPlatform;
		WaitRob \InPos;
		SetDO DO5_Program_Feed, 0;
		MoveL Offs(pZero, 23.25, 10.0, 0.4), v4000, z0, tNozzle, \Wobj := wobjPlatform;
		WaitRob \InPos;
		SetDO DO5_Program_Feed, 1;
		MoveL Offs(pZero, 23.25, 29.0, 0.4), v2000, z0, tNozzle, \Wobj := wobjPlatform;
		WaitRob \InPos;
		SetDO DO5_Program_Feed, 0;
		MoveL Offs(pZero, 23.75, 29.0, 0.4), v4000, z0, tNozzle, \Wobj := wobjPlatform;
		WaitRob \InPos;
		SetDO DO5_Program_Feed, 1;
		MoveL Offs(pZero, 23.75, 10.0, 0.4), v2000, z0, tNozzle, \Wobj := wobjPlatform;
		WaitRob \InPos;
		SetDO DO5_Program_Feed, 0;
		MoveL Offs(pZero, 24.25, 10.0, 0.4), v4000, z0, tNozzle, \Wobj := wobjPlatform;
		WaitRob \InPos;
		SetDO DO5_Program_Feed, 1;
		MoveL Offs(pZero, 24.25, 29.0, 0.4), v2000, z0, tNozzle, \Wobj := wobjPlatform;
		WaitRob \InPos;
		SetDO DO5_Program_Feed, 0;
		MoveL Offs(pZero, 24.75, 29.0, 0.4), v4000, z0, tNozzle, \Wobj := wobjPlatform;
		WaitRob \InPos;
		SetDO DO5_Program_Feed, 1;
		MoveL Offs(pZero, 24.75, 10.0, 0.4), v2000, z0, tNozzle, \Wobj := wobjPlatform;
		WaitRob \InPos;
		SetDO DO5_Program_Feed, 0;
		MoveL Offs(pZero, 25.25, 10.0, 0.4), v4000, z0, tNozzle, \Wobj := wobjPlatform;
		WaitRob \InPos;
		SetDO DO5_Program_Feed, 1;
		MoveL Offs(pZero, 25.25, 29.0, 0.4), v2000, z0, tNozzle, \Wobj := wobjPlatform;
		WaitRob \InPos;
		SetDO DO5_Program_Feed, 0;
		MoveL Offs(pZero, 25.75, 29.0, 0.4), v4000, z0, tNozzle, \Wobj := wobjPlatform;
		WaitRob \InPos;
		SetDO DO5_Program_Feed, 1;
		MoveL Offs(pZero, 25.75, 10.0, 0.4), v2000, z0, tNozzle, \Wobj := wobjPlatform;
		WaitRob \InPos;
		SetDO DO5_Program_Feed, 0;
		MoveL Offs(pZero, 26.25, 10.0, 0.4), v4000, z0, tNozzle, \Wobj := wobjPlatform;
		WaitRob \InPos;
		SetDO DO5_Program_Feed, 1;
		MoveL Offs(pZero, 26.25, 29.0, 0.4), v2000, z0, tNozzle, \Wobj := wobjPlatform;
		WaitRob \InPos;
		SetDO DO5_Program_Feed, 0;
		MoveL Offs(pZero, 26.75, 29.0, 0.4), v4000, z0, tNozzle, \Wobj := wobjPlatform;
		WaitRob \InPos;
		SetDO DO5_Program_Feed, 1;
		MoveL Offs(pZero, 26.75, 10.0, 0.4), v2000, z0, tNozzle, \Wobj := wobjPlatform;
		WaitRob \InPos;
		SetDO DO5_Program_Feed, 0;
		MoveL Offs(pZero, 27.25, 10.0, 0.4), v4000, z0, tNozzle, \Wobj := wobjPlatform;
		WaitRob \InPos;
		SetDO DO5_Program_Feed, 1;
		MoveL Offs(pZero, 27.25, 29.0, 0.4), v2000, z0, tNozzle, \Wobj := wobjPlatform;
		WaitRob \InPos;
		SetDO DO5_Program_Feed, 0;
		MoveL Offs(pZero, 27.75, 29.0, 0.4), v4000, z0, tNozzle, \Wobj := wobjPlatform;
		WaitRob \InPos;
		SetDO DO5_Program_Feed, 1;
		MoveL Offs(pZero, 27.75, 10.0, 0.4), v2000, z0, tNozzle, \Wobj := wobjPlatform;
		WaitRob \InPos;
		SetDO DO5_Program_Feed, 0;
		MoveL Offs(pZero, 28.25, 10.0, 0.4), v4000, z0, tNozzle, \Wobj := wobjPlatform;
		WaitRob \InPos;
		SetDO DO5_Program_Feed, 1;
		MoveL Offs(pZero, 28.25, 29.0, 0.4), v2000, z0, tNozzle, \Wobj := wobjPlatform;
		WaitRob \InPos;
		SetDO DO5_Program_Feed, 0;
		MoveL Offs(pZero, 28.75, 29.0, 0.4), v4000, z0, tNozzle, \Wobj := wobjPlatform;
		WaitRob \InPos;
		SetDO DO5_Program_Feed, 1;
		MoveL Offs(pZero, 28.75, 10.0, 0.4), v2000, z0, tNozzle, \Wobj := wobjPlatform;
		WaitRob \InPos;
		SetDO DO5_Program_Feed, 0;
		MoveL Offs(pZero, 29.25, 10.0, 0.4), v4000, z0, tNozzle, \Wobj := wobjPlatform;
		WaitRob \InPos;
		SetDO DO5_Program_Feed, 1;
		MoveL Offs(pZero, 29.25, 29.0, 0.4), v2000, z0, tNozzle, \Wobj := wobjPlatform;
		WaitRob \InPos;
		SetDO DO5_Program_Feed, 0;
		MoveL Offs(pZero, 29.75, 29.0, 0.4), v4000, z0, tNozzle, \Wobj := wobjPlatform;
		WaitRob \InPos;
		SetDO DO5_Program_Feed, 1;
		MoveL Offs(pZero, 29.75, 10.0, 0.4), v2000, z0, tNozzle, \Wobj := wobjPlatform;
		WaitRob \InPos;
		SetDO DO5_Program_Feed, 0;
		MoveL Offs(pZero, 30.25, 10.0, 0.4), v4000, z0, tNozzle, \Wobj := wobjPlatform;
		WaitRob \InPos;
		SetDO DO5_Program_Feed, 1;
		MoveL Offs(pZero, 30.25, 29.0, 0.4), v2000, z0, tNozzle, \Wobj := wobjPlatform;
		WaitRob \InPos;
		SetDO DO5_Program_Feed, 0;
		MoveL Offs(pZero, 30.75, 29.0, 0.4), v4000, z0, tNozzle, \Wobj := wobjPlatform;
		WaitRob \InPos;
		SetDO DO5_Program_Feed, 1;
		MoveL Offs(pZero, 30.75, 10.0, 0.4), v2000, z0, tNozzle, \Wobj := wobjPlatform;
		WaitRob \InPos;
		SetDO DO5_Program_Feed, 0;
		MoveL Offs(pZero, 31.25, 10.0, 0.4), v4000, z0, tNozzle, \Wobj := wobjPlatform;
		WaitRob \InPos;
		SetDO DO5_Program_Feed, 1;
		MoveL Offs(pZero, 31.25, 29.0, 0.4), v2000, z0, tNozzle, \Wobj := wobjPlatform;
		WaitRob \InPos;
		SetDO DO5_Program_Feed, 0;
		MoveL Offs(pZero, 31.75, 29.0, 0.4), v4000, z0, tNozzle, \Wobj := wobjPlatform;
		WaitRob \InPos;
		SetDO DO5_Program_Feed, 1;
		MoveL Offs(pZero, 31.75, 10.0, 0.4), v2000, z0, tNozzle, \Wobj := wobjPlatform;
		WaitRob \InPos;
		SetDO DO5_Program_Feed, 0;
		MoveL Offs(pZero, 32.25, 10.0, 0.4), v4000, z0, tNozzle, \Wobj := wobjPlatform;
		WaitRob \InPos;
		SetDO DO5_Program_Feed, 1;
		MoveL Offs(pZero, 32.25, 29.0, 0.4), v2000, z0, tNozzle, \Wobj := wobjPlatform;
		WaitRob \InPos;
		SetDO DO5_Program_Feed, 0;
		MoveL Offs(pZero, 32.75, 29.0, 0.4), v4000, z0, tNozzle, \Wobj := wobjPlatform;
		WaitRob \InPos;
		SetDO DO5_Program_Feed, 1;
		MoveL Offs(pZero, 32.75, 10.0, 0.4), v2000, z0, tNozzle, \Wobj := wobjPlatform;
		WaitRob \InPos;
		SetDO DO5_Program_Feed, 0;
		MoveL Offs(pZero, 33.25, 10.0, 0.4), v4000, z0, tNozzle, \Wobj := wobjPlatform;
		WaitRob \InPos;
		SetDO DO5_Program_Feed, 1;
		MoveL Offs(pZero, 33.25, 29.0, 0.4), v2000, z0, tNozzle, \Wobj := wobjPlatform;
		WaitRob \InPos;
		SetDO DO5_Program_Feed, 0;
		MoveL Offs(pZero, 33.75, 29.0, 0.4), v4000, z0, tNozzle, \Wobj := wobjPlatform;
		WaitRob \InPos;
		SetDO DO5_Program_Feed, 1;
		MoveL Offs(pZero, 33.75, 10.0, 0.4), v2000, z0, tNozzle, \Wobj := wobjPlatform;
		WaitRob \InPos;
		SetDO DO5_Program_Feed, 0;
		MoveL Offs(pZero, 34.25, 10.0, 0.4), v4000, z0, tNozzle, \Wobj := wobjPlatform;
		WaitRob \InPos;
		SetDO DO5_Program_Feed, 1;
		MoveL Offs(pZero, 34.25, 29.0, 0.4), v2000, z0, tNozzle, \Wobj := wobjPlatform;
		WaitRob \InPos;
		SetDO DO5_Program_Feed, 0;
		MoveL Offs(pZero, 34.75, 29.0, 0.4), v4000, z0, tNozzle, \Wobj := wobjPlatform;
		WaitRob \InPos;
		SetDO DO5_Program_Feed, 1;
		MoveL Offs(pZero, 34.75, 10.0, 0.4), v2000, z0, tNozzle, \Wobj := wobjPlatform;
		WaitRob \InPos;
		SetDO DO5_Program_Feed, 0;
		MoveL Offs(pZero, 35.25, 10.0, 0.4), v4000, z0, tNozzle, \Wobj := wobjPlatform;
		WaitRob \InPos;
		SetDO DO5_Program_Feed, 1;
		MoveL Offs(pZero, 35.25, 29.0, 0.4), v2000, z0, tNozzle, \Wobj := wobjPlatform;
		WaitRob \InPos;
		SetDO DO5_Program_Feed, 0;
		MoveL Offs(pZero, 35.75, 29.0, 0.4), v4000, z0, tNozzle, \Wobj := wobjPlatform;
		WaitRob \InPos;
		SetDO DO5_Program_Feed, 1;
		MoveL Offs(pZero, 35.75, 10.0, 0.4), v2000, z0, tNozzle, \Wobj := wobjPlatform;
		WaitRob \InPos;
		SetDO DO5_Program_Feed, 0;
		MoveL Offs(pZero, 36.25, 10.0, 0.4), v4000, z0, tNozzle, \Wobj := wobjPlatform;
		WaitRob \InPos;
		SetDO DO5_Program_Feed, 1;
		MoveL Offs(pZero, 36.25, 29.0, 0.4), v2000, z0, tNozzle, \Wobj := wobjPlatform;
		WaitRob \InPos;
		SetDO DO5_Program_Feed, 0;
		MoveL Offs(pZero, 36.75, 29.0, 0.4), v4000, z0, tNozzle, \Wobj := wobjPlatform;
		WaitRob \InPos;
		SetDO DO5_Program_Feed, 1;
		MoveL Offs(pZero, 36.75, 10.0, 0.4), v2000, z0, tNozzle, \Wobj := wobjPlatform;
		WaitRob \InPos;
		SetDO DO5_Program_Feed, 0;
		MoveL Offs(pZero, 37.25, 10.0, 0.4), v4000, z0, tNozzle, \Wobj := wobjPlatform;
		WaitRob \InPos;
		SetDO DO5_Program_Feed, 1;
		MoveL Offs(pZero, 37.25, 29.0, 0.4), v2000, z0, tNozzle, \Wobj := wobjPlatform;
		WaitRob \InPos;
		SetDO DO5_Program_Feed, 0;
		MoveL Offs(pZero, 37.75, 29.0, 0.4), v4000, z0, tNozzle, \Wobj := wobjPlatform;
		WaitRob \InPos;
		SetDO DO5_Program_Feed, 1;
		MoveL Offs(pZero, 37.75, 10.0, 0.4), v2000, z0, tNozzle, \Wobj := wobjPlatform;
		WaitRob \InPos;
		SetDO DO5_Program_Feed, 0;
		MoveL Offs(pZero, 38.25, 10.0, 0.4), v4000, z0, tNozzle, \Wobj := wobjPlatform;
		WaitRob \InPos;
		SetDO DO5_Program_Feed, 1;
		MoveL Offs(pZero, 38.25, 29.0, 0.4), v2000, z0, tNozzle, \Wobj := wobjPlatform;
		WaitRob \InPos;
		SetDO DO5_Program_Feed, 0;
		MoveL Offs(pZero, 38.75, 29.0, 0.4), v4000, z0, tNozzle, \Wobj := wobjPlatform;
		WaitRob \InPos;
		SetDO DO5_Program_Feed, 1;
		MoveL Offs(pZero, 38.75, 10.0, 0.4), v2000, z0, tNozzle, \Wobj := wobjPlatform;
		WaitRob \InPos;
		SetDO DO5_Program_Feed, 0;
		MoveL Offs(pZero, 39.25, 10.0, 0.4), v4000, z0, tNozzle, \Wobj := wobjPlatform;
		WaitRob \InPos;
		SetDO DO5_Program_Feed, 1;
		MoveL Offs(pZero, 39.25, 29.0, 0.4), v2000, z0, tNozzle, \Wobj := wobjPlatform;
		WaitRob \InPos;
		SetDO DO5_Program_Feed, 0;
		MoveL Offs(pZero, 39.75, 29.0, 0.4), v4000, z0, tNozzle, \Wobj := wobjPlatform;
		WaitRob \InPos;
		SetDO DO5_Program_Feed, 1;
		MoveL Offs(pZero, 39.75, 10.0, 0.4), v2000, z0, tNozzle, \Wobj := wobjPlatform;
		WaitRob \InPos;
		SetDO DO5_Program_Feed, 0;
		MoveL Offs(pZero, 40.25, 10.0, 0.4), v4000, z0, tNozzle, \Wobj := wobjPlatform;
		WaitRob \InPos;
		SetDO DO5_Program_Feed, 1;
		MoveL Offs(pZero, 40.25, 29.0, 0.4), v2000, z0, tNozzle, \Wobj := wobjPlatform;
		WaitRob \InPos;
		SetDO DO5_Program_Feed, 0;
		MoveL Offs(pZero, 40.75, 29.0, 0.4), v4000, z0, tNozzle, \Wobj := wobjPlatform;
		WaitRob \InPos;
		SetDO DO5_Program_Feed, 1;
		MoveL Offs(pZero, 40.75, 10.0, 0.4), v2000, z0, tNozzle, \Wobj := wobjPlatform;
		WaitRob \InPos;
		SetDO DO5_Program_Feed, 0;
		MoveL Offs(pZero, 41.25, 10.0, 0.4), v4000, z0, tNozzle, \Wobj := wobjPlatform;
		WaitRob \InPos;
		SetDO DO5_Program_Feed, 1;
		MoveL Offs(pZero, 41.25, 29.0, 0.4), v2000, z0, tNozzle, \Wobj := wobjPlatform;
		WaitRob \InPos;
		SetDO DO5_Program_Feed, 0;
		MoveL Offs(pZero, 41.75, 29.0, 0.4), v4000, z0, tNozzle, \Wobj := wobjPlatform;
		WaitRob \InPos;
		SetDO DO5_Program_Feed, 1;
		MoveL Offs(pZero, 41.75, 10.0, 0.4), v2000, z0, tNozzle, \Wobj := wobjPlatform;
		WaitRob \InPos;
		SetDO DO5_Program_Feed, 0;
		MoveL Offs(pZero, 42.25, 10.0, 0.4), v4000, z0, tNozzle, \Wobj := wobjPlatform;
		WaitRob \InPos;
		SetDO DO5_Program_Feed, 1;
		MoveL Offs(pZero, 42.25, 29.0, 0.4), v2000, z0, tNozzle, \Wobj := wobjPlatform;
		WaitRob \InPos;
		SetDO DO5_Program_Feed, 0;
		MoveL Offs(pZero, 42.75, 29.0, 0.4), v4000, z0, tNozzle, \Wobj := wobjPlatform;
		WaitRob \InPos;
		SetDO DO5_Program_Feed, 1;
		MoveL Offs(pZero, 42.75, 10.0, 0.4), v2000, z0, tNozzle, \Wobj := wobjPlatform;
		WaitRob \InPos;
		SetDO DO5_Program_Feed, 0;
		MoveL Offs(pZero, 43.25, 10.11, 0.4), v4000, z0, tNozzle, \Wobj := wobjPlatform;
		WaitRob \InPos;
		SetDO DO5_Program_Feed, 1;
		MoveL Offs(pZero, 43.25, 28.89, 0.4), v2000, z0, tNozzle, \Wobj := wobjPlatform;
		WaitRob \InPos;
		SetDO DO5_Program_Feed, 0;
		MoveL Offs(pZero, 43.75, 28.749, 0.4), v4000, z0, tNozzle, \Wobj := wobjPlatform;
		WaitRob \InPos;
		SetDO DO5_Program_Feed, 1;
		MoveL Offs(pZero, 43.75, 10.251, 0.4), v2000, z0, tNozzle, \Wobj := wobjPlatform;
		WaitRob \InPos;
		SetDO DO5_Program_Feed, 0;
		MoveL Offs(pZero, 44.25, 10.387, 0.4), v4000, z0, tNozzle, \Wobj := wobjPlatform;
		WaitRob \InPos;
		SetDO DO5_Program_Feed, 1;
		MoveL Offs(pZero, 44.25, 28.613, 0.4), v2000, z0, tNozzle, \Wobj := wobjPlatform;
		WaitRob \InPos;
		SetDO DO5_Program_Feed, 0;
		MoveL Offs(pZero, 44.75, 28.48, 0.4), v4000, z0, tNozzle, \Wobj := wobjPlatform;
		WaitRob \InPos;
		SetDO DO5_Program_Feed, 1;
		MoveL Offs(pZero, 44.75, 10.52, 0.4), v2000, z0, tNozzle, \Wobj := wobjPlatform;
		WaitRob \InPos;
		SetDO DO5_Program_Feed, 0;
		MoveL Offs(pZero, 45.25, 10.649, 0.4), v4000, z0, tNozzle, \Wobj := wobjPlatform;
		WaitRob \InPos;
		SetDO DO5_Program_Feed, 1;
		MoveL Offs(pZero, 45.25, 28.351, 0.4), v2000, z0, tNozzle, \Wobj := wobjPlatform;
		WaitRob \InPos;
		SetDO DO5_Program_Feed, 0;
		MoveL Offs(pZero, 45.75, 28.226, 0.4), v4000, z0, tNozzle, \Wobj := wobjPlatform;
		WaitRob \InPos;
		SetDO DO5_Program_Feed, 1;
		MoveL Offs(pZero, 45.75, 10.774, 0.4), v2000, z0, tNozzle, \Wobj := wobjPlatform;
		WaitRob \InPos;
		SetDO DO5_Program_Feed, 0;
		MoveL Offs(pZero, 46.25, 10.897, 0.4), v4000, z0, tNozzle, \Wobj := wobjPlatform;
		WaitRob \InPos;
		SetDO DO5_Program_Feed, 1;
		MoveL Offs(pZero, 46.25, 28.103, 0.4), v2000, z0, tNozzle, \Wobj := wobjPlatform;
		WaitRob \InPos;
		SetDO DO5_Program_Feed, 0;
		MoveL Offs(pZero, 46.75, 27.986, 0.4), v4000, z0, tNozzle, \Wobj := wobjPlatform;
		WaitRob \InPos;
		SetDO DO5_Program_Feed, 1;
		MoveL Offs(pZero, 46.75, 11.014, 0.4), v2000, z0, tNozzle, \Wobj := wobjPlatform;
		WaitRob \InPos;
		SetDO DO5_Program_Feed, 0;
		MoveL Offs(pZero, 47.25, 11.131, 0.4), v4000, z0, tNozzle, \Wobj := wobjPlatform;
		WaitRob \InPos;
		SetDO DO5_Program_Feed, 1;
		MoveL Offs(pZero, 47.25, 27.869, 0.4), v2000, z0, tNozzle, \Wobj := wobjPlatform;
		WaitRob \InPos;
		SetDO DO5_Program_Feed, 0;
		MoveL Offs(pZero, 47.75, 27.76, 0.4), v4000, z0, tNozzle, \Wobj := wobjPlatform;
		WaitRob \InPos;
		SetDO DO5_Program_Feed, 1;
		MoveL Offs(pZero, 47.75, 11.24, 0.4), v2000, z0, tNozzle, \Wobj := wobjPlatform;
		WaitRob \InPos;
		SetDO DO5_Program_Feed, 0;
		MoveL Offs(pZero, 48.25, 11.349, 0.4), v4000, z0, tNozzle, \Wobj := wobjPlatform;
		WaitRob \InPos;
		SetDO DO5_Program_Feed, 1;
		MoveL Offs(pZero, 48.25, 27.651, 0.4), v2000, z0, tNozzle, \Wobj := wobjPlatform;
		WaitRob \InPos;
		SetDO DO5_Program_Feed, 0;
		MoveL Offs(pZero, 48.75, 27.548, 0.4), v4000, z0, tNozzle, \Wobj := wobjPlatform;
		WaitRob \InPos;
		SetDO DO5_Program_Feed, 1;
		MoveL Offs(pZero, 48.75, 11.452, 0.4), v2000, z0, tNozzle, \Wobj := wobjPlatform;
		WaitRob \InPos;
		SetDO DO5_Program_Feed, 0;
		MoveL Offs(pZero, 49.25, 11.553, 0.4), v4000, z0, tNozzle, \Wobj := wobjPlatform;
		WaitRob \InPos;
		SetDO DO5_Program_Feed, 1;
		MoveL Offs(pZero, 49.25, 27.447, 0.4), v2000, z0, tNozzle, \Wobj := wobjPlatform;
		WaitRob \InPos;
		SetDO DO5_Program_Feed, 0;
		MoveL Offs(pZero, 49.75, 27.35, 0.4), v4000, z0, tNozzle, \Wobj := wobjPlatform;
		WaitRob \InPos;
		SetDO DO5_Program_Feed, 1;
		MoveL Offs(pZero, 49.75, 11.65, 0.4), v2000, z0, tNozzle, \Wobj := wobjPlatform;
		WaitRob \InPos;
		SetDO DO5_Program_Feed, 0;
		MoveL Offs(pZero, 50.25, 11.744, 0.4), v4000, z0, tNozzle, \Wobj := wobjPlatform;
		WaitRob \InPos;
		SetDO DO5_Program_Feed, 1;
		MoveL Offs(pZero, 50.25, 27.256, 0.4), v2000, z0, tNozzle, \Wobj := wobjPlatform;
		WaitRob \InPos;
		SetDO DO5_Program_Feed, 0;
		MoveL Offs(pZero, 50.75, 27.166, 0.4), v4000, z0, tNozzle, \Wobj := wobjPlatform;
		WaitRob \InPos;
		SetDO DO5_Program_Feed, 1;
		MoveL Offs(pZero, 50.75, 11.834, 0.4), v2000, z0, tNozzle, \Wobj := wobjPlatform;
		WaitRob \InPos;
		SetDO DO5_Program_Feed, 0;
		MoveL Offs(pZero, 51.25, 11.921, 0.4), v4000, z0, tNozzle, \Wobj := wobjPlatform;
		WaitRob \InPos;
		SetDO DO5_Program_Feed, 1;
		MoveL Offs(pZero, 51.25, 27.079, 0.4), v2000, z0, tNozzle, \Wobj := wobjPlatform;
		WaitRob \InPos;
		SetDO DO5_Program_Feed, 0;
		MoveL Offs(pZero, 51.75, 26.995, 0.4), v4000, z0, tNozzle, \Wobj := wobjPlatform;
		WaitRob \InPos;
		SetDO DO5_Program_Feed, 1;
		MoveL Offs(pZero, 51.75, 12.005, 0.4), v2000, z0, tNozzle, \Wobj := wobjPlatform;
		WaitRob \InPos;
		SetDO DO5_Program_Feed, 0;
		MoveL Offs(pZero, 52.25, 12.084, 0.4), v4000, z0, tNozzle, \Wobj := wobjPlatform;
		WaitRob \InPos;
		SetDO DO5_Program_Feed, 1;
		MoveL Offs(pZero, 52.25, 26.916, 0.4), v2000, z0, tNozzle, \Wobj := wobjPlatform;
		WaitRob \InPos;
		SetDO DO5_Program_Feed, 0;
		MoveL Offs(pZero, 52.75, 26.838, 0.4), v4000, z0, tNozzle, \Wobj := wobjPlatform;
		WaitRob \InPos;
		SetDO DO5_Program_Feed, 1;
		MoveL Offs(pZero, 52.75, 12.162, 0.4), v2000, z0, tNozzle, \Wobj := wobjPlatform;
		WaitRob \InPos;
		SetDO DO5_Program_Feed, 0;
		MoveL Offs(pZero, 53.25, 12.233, 0.4), v4000, z0, tNozzle, \Wobj := wobjPlatform;
		WaitRob \InPos;
		SetDO DO5_Program_Feed, 1;
		MoveL Offs(pZero, 53.25, 26.767, 0.4), v2000, z0, tNozzle, \Wobj := wobjPlatform;
		WaitRob \InPos;
		SetDO DO5_Program_Feed, 0;
		MoveL Offs(pZero, 53.75, 26.696, 0.4), v4000, z0, tNozzle, \Wobj := wobjPlatform;
		WaitRob \InPos;
		SetDO DO5_Program_Feed, 1;
		MoveL Offs(pZero, 53.75, 12.304, 0.4), v2000, z0, tNozzle, \Wobj := wobjPlatform;
		WaitRob \InPos;
		SetDO DO5_Program_Feed, 0;
		MoveL Offs(pZero, 54.25, 12.37, 0.4), v4000, z0, tNozzle, \Wobj := wobjPlatform;
		WaitRob \InPos;
		SetDO DO5_Program_Feed, 1;
		MoveL Offs(pZero, 54.25, 26.63, 0.4), v2000, z0, tNozzle, \Wobj := wobjPlatform;
		WaitRob \InPos;
		SetDO DO5_Program_Feed, 0;
		MoveL Offs(pZero, 54.75, 26.567, 0.4), v4000, z0, tNozzle, \Wobj := wobjPlatform;
		WaitRob \InPos;
		SetDO DO5_Program_Feed, 1;
		MoveL Offs(pZero, 54.75, 12.433, 0.4), v2000, z0, tNozzle, \Wobj := wobjPlatform;
		WaitRob \InPos;
		SetDO DO5_Program_Feed, 0;
		MoveL Offs(pZero, 55.25, 12.493, 0.4), v4000, z0, tNozzle, \Wobj := wobjPlatform;
		WaitRob \InPos;
		SetDO DO5_Program_Feed, 1;
		MoveL Offs(pZero, 55.25, 26.507, 0.4), v2000, z0, tNozzle, \Wobj := wobjPlatform;
		WaitRob \InPos;
		SetDO DO5_Program_Feed, 0;
		MoveL Offs(pZero, 55.75, 26.451, 0.4), v4000, z0, tNozzle, \Wobj := wobjPlatform;
		WaitRob \InPos;
		SetDO DO5_Program_Feed, 1;
		MoveL Offs(pZero, 55.75, 12.549, 0.4), v2000, z0, tNozzle, \Wobj := wobjPlatform;
		WaitRob \InPos;
		SetDO DO5_Program_Feed, 0;
		MoveL Offs(pZero, 56.25, 12.603, 0.4), v4000, z0, tNozzle, \Wobj := wobjPlatform;
		WaitRob \InPos;
		SetDO DO5_Program_Feed, 1;
		MoveL Offs(pZero, 56.25, 26.397, 0.4), v2000, z0, tNozzle, \Wobj := wobjPlatform;
		WaitRob \InPos;
		SetDO DO5_Program_Feed, 0;
		MoveL Offs(pZero, 56.75, 26.349, 0.4), v4000, z0, tNozzle, \Wobj := wobjPlatform;
		WaitRob \InPos;
		SetDO DO5_Program_Feed, 1;
		MoveL Offs(pZero, 56.75, 12.651, 0.4), v2000, z0, tNozzle, \Wobj := wobjPlatform;
		WaitRob \InPos;
		SetDO DO5_Program_Feed, 0;
		MoveL Offs(pZero, 57.25, 12.699, 0.4), v4000, z0, tNozzle, \Wobj := wobjPlatform;
		WaitRob \InPos;
		SetDO DO5_Program_Feed, 1;
		MoveL Offs(pZero, 57.25, 26.301, 0.4), v2000, z0, tNozzle, \Wobj := wobjPlatform;
		WaitRob \InPos;
		SetDO DO5_Program_Feed, 0;
		MoveL Offs(pZero, 57.75, 26.26, 0.4), v4000, z0, tNozzle, \Wobj := wobjPlatform;
		WaitRob \InPos;
		SetDO DO5_Program_Feed, 1;
		MoveL Offs(pZero, 57.75, 12.74, 0.4), v2000, z0, tNozzle, \Wobj := wobjPlatform;
		WaitRob \InPos;
		SetDO DO5_Program_Feed, 0;
		MoveL Offs(pZero, 58.25, 12.781, 0.4), v4000, z0, tNozzle, \Wobj := wobjPlatform;
		WaitRob \InPos;
		SetDO DO5_Program_Feed, 1;
		MoveL Offs(pZero, 58.25, 26.219, 0.4), v2000, z0, tNozzle, \Wobj := wobjPlatform;
		WaitRob \InPos;
		SetDO DO5_Program_Feed, 0;
		MoveL Offs(pZero, 58.75, 26.184, 0.4), v4000, z0, tNozzle, \Wobj := wobjPlatform;
		WaitRob \InPos;
		SetDO DO5_Program_Feed, 1;
		MoveL Offs(pZero, 58.75, 12.816, 0.4), v2000, z0, tNozzle, \Wobj := wobjPlatform;
		WaitRob \InPos;
		SetDO DO5_Program_Feed, 0;
		MoveL Offs(pZero, 59.25, 12.85, 0.4), v4000, z0, tNozzle, \Wobj := wobjPlatform;
		WaitRob \InPos;
		SetDO DO5_Program_Feed, 1;
		MoveL Offs(pZero, 59.25, 26.15, 0.4), v2000, z0, tNozzle, \Wobj := wobjPlatform;
		WaitRob \InPos;
		SetDO DO5_Program_Feed, 0;
		MoveL Offs(pZero, 59.75, 26.121, 0.4), v4000, z0, tNozzle, \Wobj := wobjPlatform;
		WaitRob \InPos;
		SetDO DO5_Program_Feed, 1;
		MoveL Offs(pZero, 59.75, 12.879, 0.4), v2000, z0, tNozzle, \Wobj := wobjPlatform;
		WaitRob \InPos;
		SetDO DO5_Program_Feed, 0;
		MoveL Offs(pZero, 60.25, 12.905, 0.4), v4000, z0, tNozzle, \Wobj := wobjPlatform;
		WaitRob \InPos;
		SetDO DO5_Program_Feed, 1;
		MoveL Offs(pZero, 60.25, 26.095, 0.4), v2000, z0, tNozzle, \Wobj := wobjPlatform;
		WaitRob \InPos;
		SetDO DO5_Program_Feed, 0;
		MoveL Offs(pZero, 60.75, 26.071, 0.4), v4000, z0, tNozzle, \Wobj := wobjPlatform;
		WaitRob \InPos;
		SetDO DO5_Program_Feed, 1;
		MoveL Offs(pZero, 60.75, 12.929, 0.4), v2000, z0, tNozzle, \Wobj := wobjPlatform;
		WaitRob \InPos;
		SetDO DO5_Program_Feed, 0;
		MoveL Offs(pZero, 61.25, 12.948, 0.4), v4000, z0, tNozzle, \Wobj := wobjPlatform;
		WaitRob \InPos;
		SetDO DO5_Program_Feed, 1;
		MoveL Offs(pZero, 61.25, 26.052, 0.4), v2000, z0, tNozzle, \Wobj := wobjPlatform;
		WaitRob \InPos;
		SetDO DO5_Program_Feed, 0;
		MoveL Offs(pZero, 61.75, 26.034, 0.4), v4000, z0, tNozzle, \Wobj := wobjPlatform;
		WaitRob \InPos;
		SetDO DO5_Program_Feed, 1;
		MoveL Offs(pZero, 61.75, 12.966, 0.4), v2000, z0, tNozzle, \Wobj := wobjPlatform;
		WaitRob \InPos;
		SetDO DO5_Program_Feed, 0;
		MoveL Offs(pZero, 62.25, 12.977, 0.4), v4000, z0, tNozzle, \Wobj := wobjPlatform;
		WaitRob \InPos;
		SetDO DO5_Program_Feed, 1;
		MoveL Offs(pZero, 62.25, 26.023, 0.4), v2000, z0, tNozzle, \Wobj := wobjPlatform;
		WaitRob \InPos;
		SetDO DO5_Program_Feed, 0;
		MoveL Offs(pZero, 62.75, 26.011, 0.4), v4000, z0, tNozzle, \Wobj := wobjPlatform;
		WaitRob \InPos;
		SetDO DO5_Program_Feed, 1;
		MoveL Offs(pZero, 62.75, 12.989, 0.4), v2000, z0, tNozzle, \Wobj := wobjPlatform;
		WaitRob \InPos;
		SetDO DO5_Program_Feed, 0;
		MoveL Offs(pZero, 63.25, 12.994, 0.4), v4000, z0, tNozzle, \Wobj := wobjPlatform;
		WaitRob \InPos;
		SetDO DO5_Program_Feed, 1;
		MoveL Offs(pZero, 63.25, 26.006, 0.4), v2000, z0, tNozzle, \Wobj := wobjPlatform;
		WaitRob \InPos;
		SetDO DO5_Program_Feed, 0;
		MoveL Offs(pZero, 63.75, 26.002, 0.4), v4000, z0, tNozzle, \Wobj := wobjPlatform;
		WaitRob \InPos;
		SetDO DO5_Program_Feed, 1;
		MoveL Offs(pZero, 63.75, 12.998, 0.4), v2000, z0, tNozzle, \Wobj := wobjPlatform;
		WaitRob \InPos;
		SetDO DO5_Program_Feed, 0;
		MoveL Offs(pZero, 64.25, 13.0, 0.4), v4000, z0, tNozzle, \Wobj := wobjPlatform;
		WaitRob \InPos;
		SetDO DO5_Program_Feed, 1;
		MoveL Offs(pZero, 64.25, 26.0, 0.4), v2000, z0, tNozzle, \Wobj := wobjPlatform;
		WaitRob \InPos;
		SetDO DO5_Program_Feed, 0;
		MoveL Offs(pZero, 64.75, 26.0, 0.4), v4000, z0, tNozzle, \Wobj := wobjPlatform;
		WaitRob \InPos;
		SetDO DO5_Program_Feed, 1;
		MoveL Offs(pZero, 64.75, 13.0, 0.4), v2000, z0, tNozzle, \Wobj := wobjPlatform;
		WaitRob \InPos;
		SetDO DO5_Program_Feed, 0;
		MoveL Offs(pZero, 65.25, 13.0, 0.4), v4000, z0, tNozzle, \Wobj := wobjPlatform;
		WaitRob \InPos;
		SetDO DO5_Program_Feed, 1;
		MoveL Offs(pZero, 65.25, 26.0, 0.4), v2000, z0, tNozzle, \Wobj := wobjPlatform;
		WaitRob \InPos;
		SetDO DO5_Program_Feed, 0;
		MoveL Offs(pZero, 65.75, 26.0, 0.4), v4000, z0, tNozzle, \Wobj := wobjPlatform;
		WaitRob \InPos;
		SetDO DO5_Program_Feed, 1;
		MoveL Offs(pZero, 65.75, 13.0, 0.4), v2000, z0, tNozzle, \Wobj := wobjPlatform;
		WaitRob \InPos;
		SetDO DO5_Program_Feed, 0;
		MoveL Offs(pZero, 66.25, 13.0, 0.4), v4000, z0, tNozzle, \Wobj := wobjPlatform;
		WaitRob \InPos;
		SetDO DO5_Program_Feed, 1;
		MoveL Offs(pZero, 66.25, 26.0, 0.4), v2000, z0, tNozzle, \Wobj := wobjPlatform;
		WaitRob \InPos;
		SetDO DO5_Program_Feed, 0;
		MoveL Offs(pZero, 66.75, 26.0, 0.4), v4000, z0, tNozzle, \Wobj := wobjPlatform;
		WaitRob \InPos;
		SetDO DO5_Program_Feed, 1;
		MoveL Offs(pZero, 66.75, 13.0, 0.4), v2000, z0, tNozzle, \Wobj := wobjPlatform;
		WaitRob \InPos;
		SetDO DO5_Program_Feed, 0;
		MoveL Offs(pZero, 67.25, 13.0, 0.4), v4000, z0, tNozzle, \Wobj := wobjPlatform;
		WaitRob \InPos;
		SetDO DO5_Program_Feed, 1;
		MoveL Offs(pZero, 67.25, 26.0, 0.4), v2000, z0, tNozzle, \Wobj := wobjPlatform;
		WaitRob \InPos;
		SetDO DO5_Program_Feed, 0;
		MoveL Offs(pZero, 67.75, 26.0, 0.4), v4000, z0, tNozzle, \Wobj := wobjPlatform;
		WaitRob \InPos;
		SetDO DO5_Program_Feed, 1;
		MoveL Offs(pZero, 67.75, 13.0, 0.4), v2000, z0, tNozzle, \Wobj := wobjPlatform;
		WaitRob \InPos;
		SetDO DO5_Program_Feed, 0;
		MoveL Offs(pZero, 68.25, 13.0, 0.4), v4000, z0, tNozzle, \Wobj := wobjPlatform;
		WaitRob \InPos;
		SetDO DO5_Program_Feed, 1;
		MoveL Offs(pZero, 68.25, 26.0, 0.4), v2000, z0, tNozzle, \Wobj := wobjPlatform;
		WaitRob \InPos;
		SetDO DO5_Program_Feed, 0;
		MoveL Offs(pZero, 68.75, 26.0, 0.4), v4000, z0, tNozzle, \Wobj := wobjPlatform;
		WaitRob \InPos;
		SetDO DO5_Program_Feed, 1;
		MoveL Offs(pZero, 68.75, 13.0, 0.4), v2000, z0, tNozzle, \Wobj := wobjPlatform;
		WaitRob \InPos;
		SetDO DO5_Program_Feed, 0;
		MoveL Offs(pZero, 69.25, 13.0, 0.4), v4000, z0, tNozzle, \Wobj := wobjPlatform;
		WaitRob \InPos;
		SetDO DO5_Program_Feed, 1;
		MoveL Offs(pZero, 69.25, 26.0, 0.4), v2000, z0, tNozzle, \Wobj := wobjPlatform;
		WaitRob \InPos;
		SetDO DO5_Program_Feed, 0;
		MoveL Offs(pZero, 69.75, 26.0, 0.4), v4000, z0, tNozzle, \Wobj := wobjPlatform;
		WaitRob \InPos;
		SetDO DO5_Program_Feed, 1;
		MoveL Offs(pZero, 69.75, 13.0, 0.4), v2000, z0, tNozzle, \Wobj := wobjPlatform;
		WaitRob \InPos;
		SetDO DO5_Program_Feed, 0;
		MoveL Offs(pZero, 70.25, 13.0, 0.4), v4000, z0, tNozzle, \Wobj := wobjPlatform;
		WaitRob \InPos;
		SetDO DO5_Program_Feed, 1;
		MoveL Offs(pZero, 70.25, 26.0, 0.4), v2000, z0, tNozzle, \Wobj := wobjPlatform;
		WaitRob \InPos;
		SetDO DO5_Program_Feed, 0;
		MoveL Offs(pZero, 70.75, 26.0, 0.4), v4000, z0, tNozzle, \Wobj := wobjPlatform;
		WaitRob \InPos;
		SetDO DO5_Program_Feed, 1;
		MoveL Offs(pZero, 70.75, 13.0, 0.4), v2000, z0, tNozzle, \Wobj := wobjPlatform;
		WaitRob \InPos;
		SetDO DO5_Program_Feed, 0;
		MoveL Offs(pZero, 71.25, 13.0, 0.4), v4000, z0, tNozzle, \Wobj := wobjPlatform;
		WaitRob \InPos;
		SetDO DO5_Program_Feed, 1;
		MoveL Offs(pZero, 71.25, 26.0, 0.4), v2000, z0, tNozzle, \Wobj := wobjPlatform;
		WaitRob \InPos;
		SetDO DO5_Program_Feed, 0;
		MoveL Offs(pZero, 71.75, 26.0, 0.4), v4000, z0, tNozzle, \Wobj := wobjPlatform;
		WaitRob \InPos;
		SetDO DO5_Program_Feed, 1;
		MoveL Offs(pZero, 71.75, 13.0, 0.4), v2000, z0, tNozzle, \Wobj := wobjPlatform;
		WaitRob \InPos;
		SetDO DO5_Program_Feed, 0;
		MoveL Offs(pZero, 72.25, 13.0, 0.4), v4000, z0, tNozzle, \Wobj := wobjPlatform;
		WaitRob \InPos;
		SetDO DO5_Program_Feed, 1;
		MoveL Offs(pZero, 72.25, 26.0, 0.4), v2000, z0, tNozzle, \Wobj := wobjPlatform;
		WaitRob \InPos;
		SetDO DO5_Program_Feed, 0;
		MoveL Offs(pZero, 72.75, 26.0, 0.4), v4000, z0, tNozzle, \Wobj := wobjPlatform;
		WaitRob \InPos;
		SetDO DO5_Program_Feed, 1;
		MoveL Offs(pZero, 72.75, 13.0, 0.4), v2000, z0, tNozzle, \Wobj := wobjPlatform;
		WaitRob \InPos;
		SetDO DO5_Program_Feed, 0;
		MoveL Offs(pZero, 73.25, 13.0, 0.4), v4000, z0, tNozzle, \Wobj := wobjPlatform;
		WaitRob \InPos;
		SetDO DO5_Program_Feed, 1;
		MoveL Offs(pZero, 73.25, 26.0, 0.4), v2000, z0, tNozzle, \Wobj := wobjPlatform;
		WaitRob \InPos;
		SetDO DO5_Program_Feed, 0;
		MoveL Offs(pZero, 73.75, 26.0, 0.4), v4000, z0, tNozzle, \Wobj := wobjPlatform;
		WaitRob \InPos;
		SetDO DO5_Program_Feed, 1;
		MoveL Offs(pZero, 73.75, 13.0, 0.4), v2000, z0, tNozzle, \Wobj := wobjPlatform;
		WaitRob \InPos;
		SetDO DO5_Program_Feed, 0;
		MoveL Offs(pZero, 74.25, 13.0, 0.4), v4000, z0, tNozzle, \Wobj := wobjPlatform;
		WaitRob \InPos;
		SetDO DO5_Program_Feed, 1;
		MoveL Offs(pZero, 74.25, 26.0, 0.4), v2000, z0, tNozzle, \Wobj := wobjPlatform;
		WaitRob \InPos;
		SetDO DO5_Program_Feed, 0;
		MoveL Offs(pZero, 74.75, 26.0, 0.4), v4000, z0, tNozzle, \Wobj := wobjPlatform;
		WaitRob \InPos;
		SetDO DO5_Program_Feed, 1;
		MoveL Offs(pZero, 74.75, 13.0, 0.4), v2000, z0, tNozzle, \Wobj := wobjPlatform;
		WaitRob \InPos;
		SetDO DO5_Program_Feed, 0;
		MoveL Offs(pZero, 75.25, 13.0, 0.4), v4000, z0, tNozzle, \Wobj := wobjPlatform;
		WaitRob \InPos;
		SetDO DO5_Program_Feed, 1;
		MoveL Offs(pZero, 75.25, 26.0, 0.4), v2000, z0, tNozzle, \Wobj := wobjPlatform;
		WaitRob \InPos;
		SetDO DO5_Program_Feed, 0;
		MoveL Offs(pZero, 75.75, 26.0, 0.4), v4000, z0, tNozzle, \Wobj := wobjPlatform;
		WaitRob \InPos;
		SetDO DO5_Program_Feed, 1;
		MoveL Offs(pZero, 75.75, 13.0, 0.4), v2000, z0, tNozzle, \Wobj := wobjPlatform;
		WaitRob \InPos;
		SetDO DO5_Program_Feed, 0;
		MoveL Offs(pZero, 76.25, 13.0, 0.4), v4000, z0, tNozzle, \Wobj := wobjPlatform;
		WaitRob \InPos;
		SetDO DO5_Program_Feed, 1;
		MoveL Offs(pZero, 76.25, 26.0, 0.4), v2000, z0, tNozzle, \Wobj := wobjPlatform;
		WaitRob \InPos;
		SetDO DO5_Program_Feed, 0;
		MoveL Offs(pZero, 76.75, 26.0, 0.4), v4000, z0, tNozzle, \Wobj := wobjPlatform;
		WaitRob \InPos;
		SetDO DO5_Program_Feed, 1;
		MoveL Offs(pZero, 76.75, 13.0, 0.4), v2000, z0, tNozzle, \Wobj := wobjPlatform;
		WaitRob \InPos;
		SetDO DO5_Program_Feed, 0;
		MoveL Offs(pZero, 77.25, 13.0, 0.4), v4000, z0, tNozzle, \Wobj := wobjPlatform;
		WaitRob \InPos;
		SetDO DO5_Program_Feed, 1;
		MoveL Offs(pZero, 77.25, 26.0, 0.4), v2000, z0, tNozzle, \Wobj := wobjPlatform;
		WaitRob \InPos;
		SetDO DO5_Program_Feed, 0;
		MoveL Offs(pZero, 77.75, 26.0, 0.4), v4000, z0, tNozzle, \Wobj := wobjPlatform;
		WaitRob \InPos;
		SetDO DO5_Program_Feed, 1;
		MoveL Offs(pZero, 77.75, 13.0, 0.4), v2000, z0, tNozzle, \Wobj := wobjPlatform;
		WaitRob \InPos;
		SetDO DO5_Program_Feed, 0;
		MoveL Offs(pZero, 78.25, 13.0, 0.4), v4000, z0, tNozzle, \Wobj := wobjPlatform;
		WaitRob \InPos;
		SetDO DO5_Program_Feed, 1;
		MoveL Offs(pZero, 78.25, 26.0, 0.4), v2000, z0, tNozzle, \Wobj := wobjPlatform;
		WaitRob \InPos;
		SetDO DO5_Program_Feed, 0;
		MoveL Offs(pZero, 78.75, 26.0, 0.4), v4000, z0, tNozzle, \Wobj := wobjPlatform;
		WaitRob \InPos;
		SetDO DO5_Program_Feed, 1;
		MoveL Offs(pZero, 78.75, 13.0, 0.4), v2000, z0, tNozzle, \Wobj := wobjPlatform;
		WaitRob \InPos;
		SetDO DO5_Program_Feed, 0;
		MoveL Offs(pZero, 79.25, 13.0, 0.4), v4000, z0, tNozzle, \Wobj := wobjPlatform;
		WaitRob \InPos;
		SetDO DO5_Program_Feed, 1;
		MoveL Offs(pZero, 79.25, 26.0, 0.4), v2000, z0, tNozzle, \Wobj := wobjPlatform;
		WaitRob \InPos;
		SetDO DO5_Program_Feed, 0;
		MoveL Offs(pZero, 79.75, 26.0, 0.4), v4000, z0, tNozzle, \Wobj := wobjPlatform;
		WaitRob \InPos;
		SetDO DO5_Program_Feed, 1;
		MoveL Offs(pZero, 79.75, 13.0, 0.4), v2000, z0, tNozzle, \Wobj := wobjPlatform;
		WaitRob \InPos;
		SetDO DO5_Program_Feed, 0;
		MoveL Offs(pZero, 80.25, 13.0, 0.4), v4000, z0, tNozzle, \Wobj := wobjPlatform;
		WaitRob \InPos;
		SetDO DO5_Program_Feed, 1;
		MoveL Offs(pZero, 80.25, 26.0, 0.4), v2000, z0, tNozzle, \Wobj := wobjPlatform;
		WaitRob \InPos;
		SetDO DO5_Program_Feed, 0;
		MoveL Offs(pZero, 80.75, 26.0, 0.4), v4000, z0, tNozzle, \Wobj := wobjPlatform;
		WaitRob \InPos;
		SetDO DO5_Program_Feed, 1;
		MoveL Offs(pZero, 80.75, 13.0, 0.4), v2000, z0, tNozzle, \Wobj := wobjPlatform;
		WaitRob \InPos;
		SetDO DO5_Program_Feed, 0;
		MoveL Offs(pZero, 81.25, 13.0, 0.4), v4000, z0, tNozzle, \Wobj := wobjPlatform;
		WaitRob \InPos;
		SetDO DO5_Program_Feed, 1;
		MoveL Offs(pZero, 81.25, 26.0, 0.4), v2000, z0, tNozzle, \Wobj := wobjPlatform;
		WaitRob \InPos;
		SetDO DO5_Program_Feed, 0;
		MoveL Offs(pZero, 81.75, 26.0, 0.4), v4000, z0, tNozzle, \Wobj := wobjPlatform;
		WaitRob \InPos;
		SetDO DO5_Program_Feed, 1;
		MoveL Offs(pZero, 81.75, 13.0, 0.4), v2000, z0, tNozzle, \Wobj := wobjPlatform;
		WaitRob \InPos;
		SetDO DO5_Program_Feed, 0;
		MoveL Offs(pZero, 82.25, 13.0, 0.4), v4000, z0, tNozzle, \Wobj := wobjPlatform;
		WaitRob \InPos;
		SetDO DO5_Program_Feed, 1;
		MoveL Offs(pZero, 82.25, 26.0, 0.4), v2000, z0, tNozzle, \Wobj := wobjPlatform;
		WaitRob \InPos;
		SetDO DO5_Program_Feed, 0;
		MoveL Offs(pZero, 82.75, 26.0, 0.4), v4000, z0, tNozzle, \Wobj := wobjPlatform;
		WaitRob \InPos;
		SetDO DO5_Program_Feed, 1;
		MoveL Offs(pZero, 82.75, 13.0, 0.4), v2000, z0, tNozzle, \Wobj := wobjPlatform;
		WaitRob \InPos;
		SetDO DO5_Program_Feed, 0;
		MoveL Offs(pZero, 83.25, 13.0, 0.4), v4000, z0, tNozzle, \Wobj := wobjPlatform;
		WaitRob \InPos;
		SetDO DO5_Program_Feed, 1;
		MoveL Offs(pZero, 83.25, 26.0, 0.4), v2000, z0, tNozzle, \Wobj := wobjPlatform;
		WaitRob \InPos;
		SetDO DO5_Program_Feed, 0;
		MoveL Offs(pZero, 83.75, 26.0, 0.4), v4000, z0, tNozzle, \Wobj := wobjPlatform;
		WaitRob \InPos;
		SetDO DO5_Program_Feed, 1;
		MoveL Offs(pZero, 83.75, 13.0, 0.4), v2000, z0, tNozzle, \Wobj := wobjPlatform;
		WaitRob \InPos;
		SetDO DO5_Program_Feed, 0;
		MoveL Offs(pZero, 84.25, 13.0, 0.4), v4000, z0, tNozzle, \Wobj := wobjPlatform;
		WaitRob \InPos;
		SetDO DO5_Program_Feed, 1;
		MoveL Offs(pZero, 84.25, 26.0, 0.4), v2000, z0, tNozzle, \Wobj := wobjPlatform;
		WaitRob \InPos;
		SetDO DO5_Program_Feed, 0;
		MoveL Offs(pZero, 84.75, 26.0, 0.4), v4000, z0, tNozzle, \Wobj := wobjPlatform;
		WaitRob \InPos;
		SetDO DO5_Program_Feed, 1;
		MoveL Offs(pZero, 84.75, 13.0, 0.4), v2000, z0, tNozzle, \Wobj := wobjPlatform;
		WaitRob \InPos;
		SetDO DO5_Program_Feed, 0;
		MoveL Offs(pZero, 85.25, 13.0, 0.4), v4000, z0, tNozzle, \Wobj := wobjPlatform;
		WaitRob \InPos;
		SetDO DO5_Program_Feed, 1;
		MoveL Offs(pZero, 85.25, 26.0, 0.4), v2000, z0, tNozzle, \Wobj := wobjPlatform;
		WaitRob \InPos;
		SetDO DO5_Program_Feed, 0;
		MoveL Offs(pZero, 85.75, 26.0, 0.4), v4000, z0, tNozzle, \Wobj := wobjPlatform;
		WaitRob \InPos;
		SetDO DO5_Program_Feed, 1;
		MoveL Offs(pZero, 85.75, 13.0, 0.4), v2000, z0, tNozzle, \Wobj := wobjPlatform;
		WaitRob \InPos;
		SetDO DO5_Program_Feed, 0;
		MoveL Offs(pZero, 86.25, 13.0, 0.4), v4000, z0, tNozzle, \Wobj := wobjPlatform;
		WaitRob \InPos;
		SetDO DO5_Program_Feed, 1;
		MoveL Offs(pZero, 86.25, 26.0, 0.4), v2000, z0, tNozzle, \Wobj := wobjPlatform;
		WaitRob \InPos;
		SetDO DO5_Program_Feed, 0;
		MoveL Offs(pZero, 86.75, 26.0, 0.4), v4000, z0, tNozzle, \Wobj := wobjPlatform;
		WaitRob \InPos;
		SetDO DO5_Program_Feed, 1;
		MoveL Offs(pZero, 86.75, 13.0, 0.4), v2000, z0, tNozzle, \Wobj := wobjPlatform;
		WaitRob \InPos;
		SetDO DO5_Program_Feed, 0;
		MoveL Offs(pZero, 87.25, 13.0, 0.4), v4000, z0, tNozzle, \Wobj := wobjPlatform;
		WaitRob \InPos;
		SetDO DO5_Program_Feed, 1;
		MoveL Offs(pZero, 87.25, 26.0, 0.4), v2000, z0, tNozzle, \Wobj := wobjPlatform;
		WaitRob \InPos;
		SetDO DO5_Program_Feed, 0;
		MoveL Offs(pZero, 87.75, 26.0, 0.4), v4000, z0, tNozzle, \Wobj := wobjPlatform;
		WaitRob \InPos;
		SetDO DO5_Program_Feed, 1;
		MoveL Offs(pZero, 87.75, 13.0, 0.4), v2000, z0, tNozzle, \Wobj := wobjPlatform;
		WaitRob \InPos;
		SetDO DO5_Program_Feed, 0;
		MoveL Offs(pZero, 88.25, 13.0, 0.4), v4000, z0, tNozzle, \Wobj := wobjPlatform;
		WaitRob \InPos;
		SetDO DO5_Program_Feed, 1;
		MoveL Offs(pZero, 88.25, 26.0, 0.4), v2000, z0, tNozzle, \Wobj := wobjPlatform;
		WaitRob \InPos;
		SetDO DO5_Program_Feed, 0;
		MoveL Offs(pZero, 88.75, 26.0, 0.4), v4000, z0, tNozzle, \Wobj := wobjPlatform;
		WaitRob \InPos;
		SetDO DO5_Program_Feed, 1;
		MoveL Offs(pZero, 88.75, 13.0, 0.4), v2000, z0, tNozzle, \Wobj := wobjPlatform;
		WaitRob \InPos;
		SetDO DO5_Program_Feed, 0;
		MoveL Offs(pZero, 89.25, 13.0, 0.4), v4000, z0, tNozzle, \Wobj := wobjPlatform;
		WaitRob \InPos;
		SetDO DO5_Program_Feed, 1;
		MoveL Offs(pZero, 89.25, 26.0, 0.4), v2000, z0, tNozzle, \Wobj := wobjPlatform;
		WaitRob \InPos;
		SetDO DO5_Program_Feed, 0;
		MoveL Offs(pZero, 89.75, 26.0, 0.4), v4000, z0, tNozzle, \Wobj := wobjPlatform;
		WaitRob \InPos;
		SetDO DO5_Program_Feed, 1;
		MoveL Offs(pZero, 89.75, 13.0, 0.4), v2000, z0, tNozzle, \Wobj := wobjPlatform;
		WaitRob \InPos;
		SetDO DO5_Program_Feed, 0;
		MoveL Offs(pZero, 90.25, 13.0, 0.4), v4000, z0, tNozzle, \Wobj := wobjPlatform;
		WaitRob \InPos;
		SetDO DO5_Program_Feed, 1;
		MoveL Offs(pZero, 90.25, 26.0, 0.4), v2000, z0, tNozzle, \Wobj := wobjPlatform;
		WaitRob \InPos;
		SetDO DO5_Program_Feed, 0;
		MoveL Offs(pZero, 90.75, 26.0, 0.4), v4000, z0, tNozzle, \Wobj := wobjPlatform;
		WaitRob \InPos;
		SetDO DO5_Program_Feed, 1;
		MoveL Offs(pZero, 90.75, 13.0, 0.4), v2000, z0, tNozzle, \Wobj := wobjPlatform;
		WaitRob \InPos;
		SetDO DO5_Program_Feed, 0;
		MoveL Offs(pZero, 91.25, 13.0, 0.4), v4000, z0, tNozzle, \Wobj := wobjPlatform;
		WaitRob \InPos;
		SetDO DO5_Program_Feed, 1;
		MoveL Offs(pZero, 91.25, 26.0, 0.4), v2000, z0, tNozzle, \Wobj := wobjPlatform;
		WaitRob \InPos;
		SetDO DO5_Program_Feed, 0;
		MoveL Offs(pZero, 91.75, 26.0, 0.4), v4000, z0, tNozzle, \Wobj := wobjPlatform;
		WaitRob \InPos;
		SetDO DO5_Program_Feed, 1;
		MoveL Offs(pZero, 91.75, 13.0, 0.4), v2000, z0, tNozzle, \Wobj := wobjPlatform;
		WaitRob \InPos;
		SetDO DO5_Program_Feed, 0;
		MoveL Offs(pZero, 92.25, 13.0, 0.4), v4000, z0, tNozzle, \Wobj := wobjPlatform;
		WaitRob \InPos;
		SetDO DO5_Program_Feed, 1;
		MoveL Offs(pZero, 92.25, 26.0, 0.4), v2000, z0, tNozzle, \Wobj := wobjPlatform;
		WaitRob \InPos;
		SetDO DO5_Program_Feed, 0;
		MoveL Offs(pZero, 92.75, 26.0, 0.4), v4000, z0, tNozzle, \Wobj := wobjPlatform;
		WaitRob \InPos;
		SetDO DO5_Program_Feed, 1;
		MoveL Offs(pZero, 92.75, 13.0, 0.4), v2000, z0, tNozzle, \Wobj := wobjPlatform;
		WaitRob \InPos;
		SetDO DO5_Program_Feed, 0;
		MoveL Offs(pZero, 93.25, 13.0, 0.4), v4000, z0, tNozzle, \Wobj := wobjPlatform;
		WaitRob \InPos;
		SetDO DO5_Program_Feed, 1;
		MoveL Offs(pZero, 93.25, 26.0, 0.4), v2000, z0, tNozzle, \Wobj := wobjPlatform;
		WaitRob \InPos;
		SetDO DO5_Program_Feed, 0;
		MoveL Offs(pZero, 93.75, 26.0, 0.4), v4000, z0, tNozzle, \Wobj := wobjPlatform;
		WaitRob \InPos;
		SetDO DO5_Program_Feed, 1;
		MoveL Offs(pZero, 93.75, 13.0, 0.4), v2000, z0, tNozzle, \Wobj := wobjPlatform;
		WaitRob \InPos;
		SetDO DO5_Program_Feed, 0;
		MoveL Offs(pZero, 94.25, 13.0, 0.4), v4000, z0, tNozzle, \Wobj := wobjPlatform;
		WaitRob \InPos;
		SetDO DO5_Program_Feed, 1;
		MoveL Offs(pZero, 94.25, 26.0, 0.4), v2000, z0, tNozzle, \Wobj := wobjPlatform;
		WaitRob \InPos;
		SetDO DO5_Program_Feed, 0;
		MoveL Offs(pZero, 94.75, 26.0, 0.4), v4000, z0, tNozzle, \Wobj := wobjPlatform;
		WaitRob \InPos;
		SetDO DO5_Program_Feed, 1;
		MoveL Offs(pZero, 94.75, 13.0, 0.4), v2000, z0, tNozzle, \Wobj := wobjPlatform;
		WaitRob \InPos;
		SetDO DO5_Program_Feed, 0;
		MoveL Offs(pZero, 95.25, 13.0, 0.4), v4000, z0, tNozzle, \Wobj := wobjPlatform;
		WaitRob \InPos;
		SetDO DO5_Program_Feed, 1;
		MoveL Offs(pZero, 95.25, 26.0, 0.4), v2000, z0, tNozzle, \Wobj := wobjPlatform;
		WaitRob \InPos;
		SetDO DO5_Program_Feed, 0;
		MoveL Offs(pZero, 95.75, 26.0, 0.4), v4000, z0, tNozzle, \Wobj := wobjPlatform;
		WaitRob \InPos;
		SetDO DO5_Program_Feed, 1;
		MoveL Offs(pZero, 95.75, 13.0, 0.4), v2000, z0, tNozzle, \Wobj := wobjPlatform;
		WaitRob \InPos;
		SetDO DO5_Program_Feed, 0;
		MoveL Offs(pZero, 96.25, 13.0, 0.4), v4000, z0, tNozzle, \Wobj := wobjPlatform;
		WaitRob \InPos;
		SetDO DO5_Program_Feed, 1;
		MoveL Offs(pZero, 96.25, 26.0, 0.4), v2000, z0, tNozzle, \Wobj := wobjPlatform;
		WaitRob \InPos;
		SetDO DO5_Program_Feed, 0;
		MoveL Offs(pZero, 96.75, 26.0, 0.4), v4000, z0, tNozzle, \Wobj := wobjPlatform;
		WaitRob \InPos;
		SetDO DO5_Program_Feed, 1;
		MoveL Offs(pZero, 96.75, 13.0, 0.4), v2000, z0, tNozzle, \Wobj := wobjPlatform;
		WaitRob \InPos;
		SetDO DO5_Program_Feed, 0;
		MoveL Offs(pZero, 97.25, 13.0, 0.4), v4000, z0, tNozzle, \Wobj := wobjPlatform;
		WaitRob \InPos;
		SetDO DO5_Program_Feed, 1;
		MoveL Offs(pZero, 97.25, 26.0, 0.4), v2000, z0, tNozzle, \Wobj := wobjPlatform;
		WaitRob \InPos;
		SetDO DO5_Program_Feed, 0;
		MoveL Offs(pZero, 97.75, 26.0, 0.4), v4000, z0, tNozzle, \Wobj := wobjPlatform;
		WaitRob \InPos;
		SetDO DO5_Program_Feed, 1;
		MoveL Offs(pZero, 97.75, 13.0, 0.4), v2000, z0, tNozzle, \Wobj := wobjPlatform;
		WaitRob \InPos;
		SetDO DO5_Program_Feed, 0;
		MoveL Offs(pZero, 98.25, 13.0, 0.4), v4000, z0, tNozzle, \Wobj := wobjPlatform;
		WaitRob \InPos;
		SetDO DO5_Program_Feed, 1;
		MoveL Offs(pZero, 98.25, 26.0, 0.4), v2000, z0, tNozzle, \Wobj := wobjPlatform;
		WaitRob \InPos;
		SetDO DO5_Program_Feed, 0;
		MoveL Offs(pZero, 98.75, 26.0, 0.4), v4000, z0, tNozzle, \Wobj := wobjPlatform;
		WaitRob \InPos;
		SetDO DO5_Program_Feed, 1;
		MoveL Offs(pZero, 98.75, 13.0, 0.4), v2000, z0, tNozzle, \Wobj := wobjPlatform;
		WaitRob \InPos;
		SetDO DO5_Program_Feed, 0;
		MoveL Offs(pZero, 99.25, 13.0, 0.4), v4000, z0, tNozzle, \Wobj := wobjPlatform;
		WaitRob \InPos;
		SetDO DO5_Program_Feed, 1;
		MoveL Offs(pZero, 99.25, 26.0, 0.4), v2000, z0, tNozzle, \Wobj := wobjPlatform;
		WaitRob \InPos;
		SetDO DO5_Program_Feed, 0;
		MoveL Offs(pZero, 99.75, 26.0, 0.4), v4000, z0, tNozzle, \Wobj := wobjPlatform;
		WaitRob \InPos;
		SetDO DO5_Program_Feed, 1;
		MoveL Offs(pZero, 99.75, 13.0, 0.4), v2000, z0, tNozzle, \Wobj := wobjPlatform;
		WaitRob \InPos;
		SetDO DO5_Program_Feed, 0;
		MoveL Offs(pZero, 100.25, 13.0, 0.4), v4000, z0, tNozzle, \Wobj := wobjPlatform;
		WaitRob \InPos;
		SetDO DO5_Program_Feed, 1;
		MoveL Offs(pZero, 100.25, 26.0, 0.4), v2000, z0, tNozzle, \Wobj := wobjPlatform;
		WaitRob \InPos;
		SetDO DO5_Program_Feed, 0;
		MoveL Offs(pZero, 100.75, 26.0, 0.4), v4000, z0, tNozzle, \Wobj := wobjPlatform;
		WaitRob \InPos;
		SetDO DO5_Program_Feed, 1;
		MoveL Offs(pZero, 100.75, 13.0, 0.4), v2000, z0, tNozzle, \Wobj := wobjPlatform;
		WaitRob \InPos;
		SetDO DO5_Program_Feed, 0;
		MoveL Offs(pZero, 101.25, 13.0, 0.4), v4000, z0, tNozzle, \Wobj := wobjPlatform;
		WaitRob \InPos;
		SetDO DO5_Program_Feed, 1;
		MoveL Offs(pZero, 101.25, 26.0, 0.4), v2000, z0, tNozzle, \Wobj := wobjPlatform;
		WaitRob \InPos;
		SetDO DO5_Program_Feed, 0;
		MoveL Offs(pZero, 101.75, 26.0, 0.4), v4000, z0, tNozzle, \Wobj := wobjPlatform;
		WaitRob \InPos;
		SetDO DO5_Program_Feed, 1;
		MoveL Offs(pZero, 101.75, 13.0, 0.4), v2000, z0, tNozzle, \Wobj := wobjPlatform;
		WaitRob \InPos;
		SetDO DO5_Program_Feed, 0;
		MoveL Offs(pZero, 102.25, 13.0, 0.4), v4000, z0, tNozzle, \Wobj := wobjPlatform;
		WaitRob \InPos;
		SetDO DO5_Program_Feed, 1;
		MoveL Offs(pZero, 102.25, 26.0, 0.4), v2000, z0, tNozzle, \Wobj := wobjPlatform;
		WaitRob \InPos;
		SetDO DO5_Program_Feed, 0;
		MoveL Offs(pZero, 102.75, 26.0, 0.4), v4000, z0, tNozzle, \Wobj := wobjPlatform;
		WaitRob \InPos;
		SetDO DO5_Program_Feed, 1;
		MoveL Offs(pZero, 102.75, 13.0, 0.4), v2000, z0, tNozzle, \Wobj := wobjPlatform;
		WaitRob \InPos;
		SetDO DO5_Program_Feed, 0;
		MoveL Offs(pZero, 103.25, 13.0, 0.4), v4000, z0, tNozzle, \Wobj := wobjPlatform;
		WaitRob \InPos;
		SetDO DO5_Program_Feed, 1;
		MoveL Offs(pZero, 103.25, 26.0, 0.4), v2000, z0, tNozzle, \Wobj := wobjPlatform;
		WaitRob \InPos;
		SetDO DO5_Program_Feed, 0;
		MoveL Offs(pZero, 103.75, 26.0, 0.4), v4000, z0, tNozzle, \Wobj := wobjPlatform;
		WaitRob \InPos;
		SetDO DO5_Program_Feed, 1;
		MoveL Offs(pZero, 103.75, 13.0, 0.4), v2000, z0, tNozzle, \Wobj := wobjPlatform;
		WaitRob \InPos;
		SetDO DO5_Program_Feed, 0;
		MoveL Offs(pZero, 104.25, 13.0, 0.4), v4000, z0, tNozzle, \Wobj := wobjPlatform;
		WaitRob \InPos;
		SetDO DO5_Program_Feed, 1;
		MoveL Offs(pZero, 104.25, 26.0, 0.4), v2000, z0, tNozzle, \Wobj := wobjPlatform;
		WaitRob \InPos;
		SetDO DO5_Program_Feed, 0;
		MoveL Offs(pZero, 104.75, 26.0, 0.4), v4000, z0, tNozzle, \Wobj := wobjPlatform;
		WaitRob \InPos;
		SetDO DO5_Program_Feed, 1;
		MoveL Offs(pZero, 104.75, 13.0, 0.4), v2000, z0, tNozzle, \Wobj := wobjPlatform;
		WaitRob \InPos;
		SetDO DO5_Program_Feed, 0;
		MoveL Offs(pZero, 105.25, 13.0, 0.4), v4000, z0, tNozzle, \Wobj := wobjPlatform;
		WaitRob \InPos;
		SetDO DO5_Program_Feed, 1;
		MoveL Offs(pZero, 105.25, 26.0, 0.4), v2000, z0, tNozzle, \Wobj := wobjPlatform;
		WaitRob \InPos;
		SetDO DO5_Program_Feed, 0;
		MoveL Offs(pZero, 105.75, 26.0, 0.4), v4000, z0, tNozzle, \Wobj := wobjPlatform;
		WaitRob \InPos;
		SetDO DO5_Program_Feed, 1;
		MoveL Offs(pZero, 105.75, 13.0, 0.4), v2000, z0, tNozzle, \Wobj := wobjPlatform;
		WaitRob \InPos;
		SetDO DO5_Program_Feed, 0;
		MoveL Offs(pZero, 106.25, 13.0, 0.4), v4000, z0, tNozzle, \Wobj := wobjPlatform;
		WaitRob \InPos;
		SetDO DO5_Program_Feed, 1;
		MoveL Offs(pZero, 106.25, 26.0, 0.4), v2000, z0, tNozzle, \Wobj := wobjPlatform;
		WaitRob \InPos;
		SetDO DO5_Program_Feed, 0;
		MoveL Offs(pZero, 106.75, 26.0, 0.4), v4000, z0, tNozzle, \Wobj := wobjPlatform;
		WaitRob \InPos;
		SetDO DO5_Program_Feed, 1;
		MoveL Offs(pZero, 106.75, 13.0, 0.4), v2000, z0, tNozzle, \Wobj := wobjPlatform;
		WaitRob \InPos;
		SetDO DO5_Program_Feed, 0;
		MoveL Offs(pZero, 107.25, 13.0, 0.4), v4000, z0, tNozzle, \Wobj := wobjPlatform;
		WaitRob \InPos;
		SetDO DO5_Program_Feed, 1;
		MoveL Offs(pZero, 107.25, 26.0, 0.4), v2000, z0, tNozzle, \Wobj := wobjPlatform;
		WaitRob \InPos;
		SetDO DO5_Program_Feed, 0;
		MoveL Offs(pZero, 107.75, 26.0, 0.4), v4000, z0, tNozzle, \Wobj := wobjPlatform;
		WaitRob \InPos;
		SetDO DO5_Program_Feed, 1;
		MoveL Offs(pZero, 107.75, 13.0, 0.4), v2000, z0, tNozzle, \Wobj := wobjPlatform;
		WaitRob \InPos;
		SetDO DO5_Program_Feed, 0;
		MoveL Offs(pZero, 108.25, 13.0, 0.4), v4000, z0, tNozzle, \Wobj := wobjPlatform;
		WaitRob \InPos;
		SetDO DO5_Program_Feed, 1;
		MoveL Offs(pZero, 108.25, 26.0, 0.4), v2000, z0, tNozzle, \Wobj := wobjPlatform;
		WaitRob \InPos;
		SetDO DO5_Program_Feed, 0;
		MoveL Offs(pZero, 108.75, 26.0, 0.4), v4000, z0, tNozzle, \Wobj := wobjPlatform;
		WaitRob \InPos;
		SetDO DO5_Program_Feed, 1;
		MoveL Offs(pZero, 108.75, 13.0, 0.4), v2000, z0, tNozzle, \Wobj := wobjPlatform;
		WaitRob \InPos;
		SetDO DO5_Program_Feed, 0;
		MoveL Offs(pZero, 109.25, 13.0, 0.4), v4000, z0, tNozzle, \Wobj := wobjPlatform;
		WaitRob \InPos;
		SetDO DO5_Program_Feed, 1;
		MoveL Offs(pZero, 109.25, 26.0, 0.4), v2000, z0, tNozzle, \Wobj := wobjPlatform;
		WaitRob \InPos;
		SetDO DO5_Program_Feed, 0;
		MoveL Offs(pZero, 109.75, 26.0, 0.4), v4000, z0, tNozzle, \Wobj := wobjPlatform;
		WaitRob \InPos;
		SetDO DO5_Program_Feed, 1;
		MoveL Offs(pZero, 109.75, 13.0, 0.4), v2000, z0, tNozzle, \Wobj := wobjPlatform;
		WaitRob \InPos;
		SetDO DO5_Program_Feed, 0;
		MoveL Offs(pZero, 110.25, 13.0, 0.4), v4000, z0, tNozzle, \Wobj := wobjPlatform;
		WaitRob \InPos;
		SetDO DO5_Program_Feed, 1;
		MoveL Offs(pZero, 110.25, 26.0, 0.4), v2000, z0, tNozzle, \Wobj := wobjPlatform;
		WaitRob \InPos;
		SetDO DO5_Program_Feed, 0;
		MoveL Offs(pZero, 110.75, 26.0, 0.4), v4000, z0, tNozzle, \Wobj := wobjPlatform;
		WaitRob \InPos;
		SetDO DO5_Program_Feed, 1;
		MoveL Offs(pZero, 110.75, 13.0, 0.4), v2000, z0, tNozzle, \Wobj := wobjPlatform;
		WaitRob \InPos;
		SetDO DO5_Program_Feed, 0;
		MoveL Offs(pZero, 111.25, 13.0, 0.4), v4000, z0, tNozzle, \Wobj := wobjPlatform;
		WaitRob \InPos;
		SetDO DO5_Program_Feed, 1;
		MoveL Offs(pZero, 111.25, 26.0, 0.4), v2000, z0, tNozzle, \Wobj := wobjPlatform;
		WaitRob \InPos;
		SetDO DO5_Program_Feed, 0;
		MoveL Offs(pZero, 111.75, 26.0, 0.4), v4000, z0, tNozzle, \Wobj := wobjPlatform;
		WaitRob \InPos;
		SetDO DO5_Program_Feed, 1;
		MoveL Offs(pZero, 111.75, 13.0, 0.4), v2000, z0, tNozzle, \Wobj := wobjPlatform;
		WaitRob \InPos;
		SetDO DO5_Program_Feed, 0;
		MoveL Offs(pZero, 112.25, 13.0, 0.4), v4000, z0, tNozzle, \Wobj := wobjPlatform;
		WaitRob \InPos;
		SetDO DO5_Program_Feed, 1;
		MoveL Offs(pZero, 112.25, 26.0, 0.4), v2000, z0, tNozzle, \Wobj := wobjPlatform;
		WaitRob \InPos;
		SetDO DO5_Program_Feed, 0;
		MoveL Offs(pZero, 112.75, 26.0, 0.4), v4000, z0, tNozzle, \Wobj := wobjPlatform;
		WaitRob \InPos;
		SetDO DO5_Program_Feed, 1;
		MoveL Offs(pZero, 112.75, 13.0, 0.4), v2000, z0, tNozzle, \Wobj := wobjPlatform;
		WaitRob \InPos;
		SetDO DO5_Program_Feed, 0;
		MoveL Offs(pZero, 113.25, 13.0, 0.4), v4000, z0, tNozzle, \Wobj := wobjPlatform;
		WaitRob \InPos;
		SetDO DO5_Program_Feed, 1;
		MoveL Offs(pZero, 113.25, 26.0, 0.4), v2000, z0, tNozzle, \Wobj := wobjPlatform;
		WaitRob \InPos;
		SetDO DO5_Program_Feed, 0;
		MoveL Offs(pZero, 113.75, 26.0, 0.4), v4000, z0, tNozzle, \Wobj := wobjPlatform;
		WaitRob \InPos;
		SetDO DO5_Program_Feed, 1;
		MoveL Offs(pZero, 113.75, 13.0, 0.4), v2000, z0, tNozzle, \Wobj := wobjPlatform;
		WaitRob \InPos;
		SetDO DO5_Program_Feed, 0;
		MoveL Offs(pZero, 114.25, 13.0, 0.4), v4000, z0, tNozzle, \Wobj := wobjPlatform;
		WaitRob \InPos;
		SetDO DO5_Program_Feed, 1;
		MoveL Offs(pZero, 114.25, 26.0, 0.4), v2000, z0, tNozzle, \Wobj := wobjPlatform;
		WaitRob \InPos;
		SetDO DO5_Program_Feed, 0;
		MoveL Offs(pZero, 114.75, 26.0, 0.4), v4000, z0, tNozzle, \Wobj := wobjPlatform;
		WaitRob \InPos;
		SetDO DO5_Program_Feed, 1;
		MoveL Offs(pZero, 114.75, 13.0, 0.4), v2000, z0, tNozzle, \Wobj := wobjPlatform;
		WaitRob \InPos;
		SetDO DO5_Program_Feed, 0;
		MoveL Offs(pZero, 115.25, 13.0, 0.4), v4000, z0, tNozzle, \Wobj := wobjPlatform;
		WaitRob \InPos;
		SetDO DO5_Program_Feed, 1;
		MoveL Offs(pZero, 115.25, 26.0, 0.4), v2000, z0, tNozzle, \Wobj := wobjPlatform;
		WaitRob \InPos;
		SetDO DO5_Program_Feed, 0;
		MoveL Offs(pZero, 115.75, 26.0, 0.4), v4000, z0, tNozzle, \Wobj := wobjPlatform;
		WaitRob \InPos;
		SetDO DO5_Program_Feed, 1;
		MoveL Offs(pZero, 115.75, 13.0, 0.4), v2000, z0, tNozzle, \Wobj := wobjPlatform;
		WaitRob \InPos;
		SetDO DO5_Program_Feed, 0;
		MoveL Offs(pZero, 116.25, 13.0, 0.4), v4000, z0, tNozzle, \Wobj := wobjPlatform;
		WaitRob \InPos;
		SetDO DO5_Program_Feed, 1;
		MoveL Offs(pZero, 116.25, 26.0, 0.4), v2000, z0, tNozzle, \Wobj := wobjPlatform;
		WaitRob \InPos;
		SetDO DO5_Program_Feed, 0;
		MoveL Offs(pZero, 116.75, 26.0, 0.4), v4000, z0, tNozzle, \Wobj := wobjPlatform;
		WaitRob \InPos;
		SetDO DO5_Program_Feed, 1;
		MoveL Offs(pZero, 116.75, 13.0, 0.4), v2000, z0, tNozzle, \Wobj := wobjPlatform;
		WaitRob \InPos;
		SetDO DO5_Program_Feed, 0;
		MoveL Offs(pZero, 117.25, 13.0, 0.4), v4000, z0, tNozzle, \Wobj := wobjPlatform;
		WaitRob \InPos;
		SetDO DO5_Program_Feed, 1;
		MoveL Offs(pZero, 117.25, 26.0, 0.4), v2000, z0, tNozzle, \Wobj := wobjPlatform;
		WaitRob \InPos;
		SetDO DO5_Program_Feed, 0;
		MoveL Offs(pZero, 117.75, 26.0, 0.4), v4000, z0, tNozzle, \Wobj := wobjPlatform;
		WaitRob \InPos;
		SetDO DO5_Program_Feed, 1;
		MoveL Offs(pZero, 117.75, 13.0, 0.4), v2000, z0, tNozzle, \Wobj := wobjPlatform;
		WaitRob \InPos;
		SetDO DO5_Program_Feed, 0;
		MoveL Offs(pZero, 118.25, 13.0, 0.4), v4000, z0, tNozzle, \Wobj := wobjPlatform;
		WaitRob \InPos;
		SetDO DO5_Program_Feed, 1;
		MoveL Offs(pZero, 118.25, 26.0, 0.4), v2000, z0, tNozzle, \Wobj := wobjPlatform;
		WaitRob \InPos;
		SetDO DO5_Program_Feed, 0;
		MoveL Offs(pZero, 118.75, 26.0, 0.4), v4000, z0, tNozzle, \Wobj := wobjPlatform;
		WaitRob \InPos;
		SetDO DO5_Program_Feed, 1;
		MoveL Offs(pZero, 118.75, 13.0, 0.4), v2000, z0, tNozzle, \Wobj := wobjPlatform;
		WaitRob \InPos;
		SetDO DO5_Program_Feed, 0;
		MoveL Offs(pZero, 119.25, 13.0, 0.4), v4000, z0, tNozzle, \Wobj := wobjPlatform;
		WaitRob \InPos;
		SetDO DO5_Program_Feed, 1;
		MoveL Offs(pZero, 119.25, 26.0, 0.4), v2000, z0, tNozzle, \Wobj := wobjPlatform;
		WaitRob \InPos;
		SetDO DO5_Program_Feed, 0;
		MoveL Offs(pZero, 119.75, 26.0, 0.4), v4000, z0, tNozzle, \Wobj := wobjPlatform;
		WaitRob \InPos;
		SetDO DO5_Program_Feed, 1;
		MoveL Offs(pZero, 119.75, 13.0, 0.4), v2000, z0, tNozzle, \Wobj := wobjPlatform;
		WaitRob \InPos;
		SetDO DO5_Program_Feed, 0;
		MoveL Offs(pZero, 120.25, 13.0, 0.4), v4000, z0, tNozzle, \Wobj := wobjPlatform;
		WaitRob \InPos;
		SetDO DO5_Program_Feed, 1;
		MoveL Offs(pZero, 120.25, 26.0, 0.4), v2000, z0, tNozzle, \Wobj := wobjPlatform;
		WaitRob \InPos;
		SetDO DO5_Program_Feed, 0;
		MoveL Offs(pZero, 120.75, 26.0, 0.4), v4000, z0, tNozzle, \Wobj := wobjPlatform;
		WaitRob \InPos;
		SetDO DO5_Program_Feed, 1;
		MoveL Offs(pZero, 120.75, 13.0, 0.4), v2000, z0, tNozzle, \Wobj := wobjPlatform;
		WaitRob \InPos;
		SetDO DO5_Program_Feed, 0;
		MoveL Offs(pZero, 121.25, 12.998, 0.4), v4000, z0, tNozzle, \Wobj := wobjPlatform;
		WaitRob \InPos;
		SetDO DO5_Program_Feed, 1;
		MoveL Offs(pZero, 121.25, 26.002, 0.4), v2000, z0, tNozzle, \Wobj := wobjPlatform;
		WaitRob \InPos;
		SetDO DO5_Program_Feed, 0;
		MoveL Offs(pZero, 121.75, 26.006, 0.4), v4000, z0, tNozzle, \Wobj := wobjPlatform;
		WaitRob \InPos;
		SetDO DO5_Program_Feed, 1;
		MoveL Offs(pZero, 121.75, 12.994, 0.4), v2000, z0, tNozzle, \Wobj := wobjPlatform;
		WaitRob \InPos;
		SetDO DO5_Program_Feed, 0;
		MoveL Offs(pZero, 122.25, 12.989, 0.4), v4000, z0, tNozzle, \Wobj := wobjPlatform;
		WaitRob \InPos;
		SetDO DO5_Program_Feed, 1;
		MoveL Offs(pZero, 122.25, 26.011, 0.4), v2000, z0, tNozzle, \Wobj := wobjPlatform;
		WaitRob \InPos;
		SetDO DO5_Program_Feed, 0;
		MoveL Offs(pZero, 122.75, 26.023, 0.4), v4000, z0, tNozzle, \Wobj := wobjPlatform;
		WaitRob \InPos;
		SetDO DO5_Program_Feed, 1;
		MoveL Offs(pZero, 122.75, 12.977, 0.4), v2000, z0, tNozzle, \Wobj := wobjPlatform;
		WaitRob \InPos;
		SetDO DO5_Program_Feed, 0;
		MoveL Offs(pZero, 123.25, 12.966, 0.4), v4000, z0, tNozzle, \Wobj := wobjPlatform;
		WaitRob \InPos;
		SetDO DO5_Program_Feed, 1;
		MoveL Offs(pZero, 123.25, 26.034, 0.4), v2000, z0, tNozzle, \Wobj := wobjPlatform;
		WaitRob \InPos;
		SetDO DO5_Program_Feed, 0;
		MoveL Offs(pZero, 123.75, 26.052, 0.4), v4000, z0, tNozzle, \Wobj := wobjPlatform;
		WaitRob \InPos;
		SetDO DO5_Program_Feed, 1;
		MoveL Offs(pZero, 123.75, 12.948, 0.4), v2000, z0, tNozzle, \Wobj := wobjPlatform;
		WaitRob \InPos;
		SetDO DO5_Program_Feed, 0;
		MoveL Offs(pZero, 124.25, 12.929, 0.4), v4000, z0, tNozzle, \Wobj := wobjPlatform;
		WaitRob \InPos;
		SetDO DO5_Program_Feed, 1;
		MoveL Offs(pZero, 124.25, 26.071, 0.4), v2000, z0, tNozzle, \Wobj := wobjPlatform;
		WaitRob \InPos;
		SetDO DO5_Program_Feed, 0;
		MoveL Offs(pZero, 124.75, 26.095, 0.4), v4000, z0, tNozzle, \Wobj := wobjPlatform;
		WaitRob \InPos;
		SetDO DO5_Program_Feed, 1;
		MoveL Offs(pZero, 124.75, 12.905, 0.4), v2000, z0, tNozzle, \Wobj := wobjPlatform;
		WaitRob \InPos;
		SetDO DO5_Program_Feed, 0;
		MoveL Offs(pZero, 125.25, 12.879, 0.4), v4000, z0, tNozzle, \Wobj := wobjPlatform;
		WaitRob \InPos;
		SetDO DO5_Program_Feed, 1;
		MoveL Offs(pZero, 125.25, 26.121, 0.4), v2000, z0, tNozzle, \Wobj := wobjPlatform;
		WaitRob \InPos;
		SetDO DO5_Program_Feed, 0;
		MoveL Offs(pZero, 125.75, 26.15, 0.4), v4000, z0, tNozzle, \Wobj := wobjPlatform;
		WaitRob \InPos;
		SetDO DO5_Program_Feed, 1;
		MoveL Offs(pZero, 125.75, 12.85, 0.4), v2000, z0, tNozzle, \Wobj := wobjPlatform;
		WaitRob \InPos;
		SetDO DO5_Program_Feed, 0;
		MoveL Offs(pZero, 126.25, 12.816, 0.4), v4000, z0, tNozzle, \Wobj := wobjPlatform;
		WaitRob \InPos;
		SetDO DO5_Program_Feed, 1;
		MoveL Offs(pZero, 126.25, 26.184, 0.4), v2000, z0, tNozzle, \Wobj := wobjPlatform;
		WaitRob \InPos;
		SetDO DO5_Program_Feed, 0;
		MoveL Offs(pZero, 126.75, 26.219, 0.4), v4000, z0, tNozzle, \Wobj := wobjPlatform;
		WaitRob \InPos;
		SetDO DO5_Program_Feed, 1;
		MoveL Offs(pZero, 126.75, 12.781, 0.4), v2000, z0, tNozzle, \Wobj := wobjPlatform;
		WaitRob \InPos;
		SetDO DO5_Program_Feed, 0;
		MoveL Offs(pZero, 127.25, 12.74, 0.4), v4000, z0, tNozzle, \Wobj := wobjPlatform;
		WaitRob \InPos;
		SetDO DO5_Program_Feed, 1;
		MoveL Offs(pZero, 127.25, 26.26, 0.4), v2000, z0, tNozzle, \Wobj := wobjPlatform;
		WaitRob \InPos;
		SetDO DO5_Program_Feed, 0;
		MoveL Offs(pZero, 127.75, 26.301, 0.4), v4000, z0, tNozzle, \Wobj := wobjPlatform;
		WaitRob \InPos;
		SetDO DO5_Program_Feed, 1;
		MoveL Offs(pZero, 127.75, 12.699, 0.4), v2000, z0, tNozzle, \Wobj := wobjPlatform;
		WaitRob \InPos;
		SetDO DO5_Program_Feed, 0;
		MoveL Offs(pZero, 128.25, 12.651, 0.4), v4000, z0, tNozzle, \Wobj := wobjPlatform;
		WaitRob \InPos;
		SetDO DO5_Program_Feed, 1;
		MoveL Offs(pZero, 128.25, 26.349, 0.4), v2000, z0, tNozzle, \Wobj := wobjPlatform;
		WaitRob \InPos;
		SetDO DO5_Program_Feed, 0;
		MoveL Offs(pZero, 128.75, 26.397, 0.4), v4000, z0, tNozzle, \Wobj := wobjPlatform;
		WaitRob \InPos;
		SetDO DO5_Program_Feed, 1;
		MoveL Offs(pZero, 128.75, 12.603, 0.4), v2000, z0, tNozzle, \Wobj := wobjPlatform;
		WaitRob \InPos;
		SetDO DO5_Program_Feed, 0;
		MoveL Offs(pZero, 129.25, 12.549, 0.4), v4000, z0, tNozzle, \Wobj := wobjPlatform;
		WaitRob \InPos;
		SetDO DO5_Program_Feed, 1;
		MoveL Offs(pZero, 129.25, 26.451, 0.4), v2000, z0, tNozzle, \Wobj := wobjPlatform;
		WaitRob \InPos;
		SetDO DO5_Program_Feed, 0;
		MoveL Offs(pZero, 129.75, 26.507, 0.4), v4000, z0, tNozzle, \Wobj := wobjPlatform;
		WaitRob \InPos;
		SetDO DO5_Program_Feed, 1;
		MoveL Offs(pZero, 129.75, 12.493, 0.4), v2000, z0, tNozzle, \Wobj := wobjPlatform;
		WaitRob \InPos;
		SetDO DO5_Program_Feed, 0;
		MoveL Offs(pZero, 130.25, 12.433, 0.4), v4000, z0, tNozzle, \Wobj := wobjPlatform;
		WaitRob \InPos;
		SetDO DO5_Program_Feed, 1;
		MoveL Offs(pZero, 130.25, 26.567, 0.4), v2000, z0, tNozzle, \Wobj := wobjPlatform;
		WaitRob \InPos;
		SetDO DO5_Program_Feed, 0;
		MoveL Offs(pZero, 130.75, 26.63, 0.4), v4000, z0, tNozzle, \Wobj := wobjPlatform;
		WaitRob \InPos;
		SetDO DO5_Program_Feed, 1;
		MoveL Offs(pZero, 130.75, 12.37, 0.4), v2000, z0, tNozzle, \Wobj := wobjPlatform;
		WaitRob \InPos;
		SetDO DO5_Program_Feed, 0;
		MoveL Offs(pZero, 131.25, 12.304, 0.4), v4000, z0, tNozzle, \Wobj := wobjPlatform;
		WaitRob \InPos;
		SetDO DO5_Program_Feed, 1;
		MoveL Offs(pZero, 131.25, 26.696, 0.4), v2000, z0, tNozzle, \Wobj := wobjPlatform;
		WaitRob \InPos;
		SetDO DO5_Program_Feed, 0;
		MoveL Offs(pZero, 131.75, 26.767, 0.4), v4000, z0, tNozzle, \Wobj := wobjPlatform;
		WaitRob \InPos;
		SetDO DO5_Program_Feed, 1;
		MoveL Offs(pZero, 131.75, 12.233, 0.4), v2000, z0, tNozzle, \Wobj := wobjPlatform;
		WaitRob \InPos;
		SetDO DO5_Program_Feed, 0;
		MoveL Offs(pZero, 132.25, 12.162, 0.4), v4000, z0, tNozzle, \Wobj := wobjPlatform;
		WaitRob \InPos;
		SetDO DO5_Program_Feed, 1;
		MoveL Offs(pZero, 132.25, 26.838, 0.4), v2000, z0, tNozzle, \Wobj := wobjPlatform;
		WaitRob \InPos;
		SetDO DO5_Program_Feed, 0;
		MoveL Offs(pZero, 132.75, 26.916, 0.4), v4000, z0, tNozzle, \Wobj := wobjPlatform;
		WaitRob \InPos;
		SetDO DO5_Program_Feed, 1;
		MoveL Offs(pZero, 132.75, 12.084, 0.4), v2000, z0, tNozzle, \Wobj := wobjPlatform;
		WaitRob \InPos;
		SetDO DO5_Program_Feed, 0;
		MoveL Offs(pZero, 133.25, 12.005, 0.4), v4000, z0, tNozzle, \Wobj := wobjPlatform;
		WaitRob \InPos;
		SetDO DO5_Program_Feed, 1;
		MoveL Offs(pZero, 133.25, 26.995, 0.4), v2000, z0, tNozzle, \Wobj := wobjPlatform;
		WaitRob \InPos;
		SetDO DO5_Program_Feed, 0;
		MoveL Offs(pZero, 133.75, 27.079, 0.4), v4000, z0, tNozzle, \Wobj := wobjPlatform;
		WaitRob \InPos;
		SetDO DO5_Program_Feed, 1;
		MoveL Offs(pZero, 133.75, 11.921, 0.4), v2000, z0, tNozzle, \Wobj := wobjPlatform;
		WaitRob \InPos;
		SetDO DO5_Program_Feed, 0;
		MoveL Offs(pZero, 134.25, 11.834, 0.4), v4000, z0, tNozzle, \Wobj := wobjPlatform;
		WaitRob \InPos;
		SetDO DO5_Program_Feed, 1;
		MoveL Offs(pZero, 134.25, 27.166, 0.4), v2000, z0, tNozzle, \Wobj := wobjPlatform;
		WaitRob \InPos;
		SetDO DO5_Program_Feed, 0;
		MoveL Offs(pZero, 134.75, 27.256, 0.4), v4000, z0, tNozzle, \Wobj := wobjPlatform;
		WaitRob \InPos;
		SetDO DO5_Program_Feed, 1;
		MoveL Offs(pZero, 134.75, 11.744, 0.4), v2000, z0, tNozzle, \Wobj := wobjPlatform;
		WaitRob \InPos;
		SetDO DO5_Program_Feed, 0;
		MoveL Offs(pZero, 135.25, 11.65, 0.4), v4000, z0, tNozzle, \Wobj := wobjPlatform;
		WaitRob \InPos;
		SetDO DO5_Program_Feed, 1;
		MoveL Offs(pZero, 135.25, 27.35, 0.4), v2000, z0, tNozzle, \Wobj := wobjPlatform;
		WaitRob \InPos;
		SetDO DO5_Program_Feed, 0;
		MoveL Offs(pZero, 135.75, 27.447, 0.4), v4000, z0, tNozzle, \Wobj := wobjPlatform;
		WaitRob \InPos;
		SetDO DO5_Program_Feed, 1;
		MoveL Offs(pZero, 135.75, 11.553, 0.4), v2000, z0, tNozzle, \Wobj := wobjPlatform;
		WaitRob \InPos;
		SetDO DO5_Program_Feed, 0;
		MoveL Offs(pZero, 136.25, 11.452, 0.4), v4000, z0, tNozzle, \Wobj := wobjPlatform;
		WaitRob \InPos;
		SetDO DO5_Program_Feed, 1;
		MoveL Offs(pZero, 136.25, 27.548, 0.4), v2000, z0, tNozzle, \Wobj := wobjPlatform;
		WaitRob \InPos;
		SetDO DO5_Program_Feed, 0;
		MoveL Offs(pZero, 136.75, 27.651, 0.4), v4000, z0, tNozzle, \Wobj := wobjPlatform;
		WaitRob \InPos;
		SetDO DO5_Program_Feed, 1;
		MoveL Offs(pZero, 136.75, 11.349, 0.4), v2000, z0, tNozzle, \Wobj := wobjPlatform;
		WaitRob \InPos;
		SetDO DO5_Program_Feed, 0;
		MoveL Offs(pZero, 137.25, 11.24, 0.4), v4000, z0, tNozzle, \Wobj := wobjPlatform;
		WaitRob \InPos;
		SetDO DO5_Program_Feed, 1;
		MoveL Offs(pZero, 137.25, 27.76, 0.4), v2000, z0, tNozzle, \Wobj := wobjPlatform;
		WaitRob \InPos;
		SetDO DO5_Program_Feed, 0;
		MoveL Offs(pZero, 137.75, 27.869, 0.4), v4000, z0, tNozzle, \Wobj := wobjPlatform;
		WaitRob \InPos;
		SetDO DO5_Program_Feed, 1;
		MoveL Offs(pZero, 137.75, 11.131, 0.4), v2000, z0, tNozzle, \Wobj := wobjPlatform;
		WaitRob \InPos;
		SetDO DO5_Program_Feed, 0;
		MoveL Offs(pZero, 138.25, 11.014, 0.4), v4000, z0, tNozzle, \Wobj := wobjPlatform;
		WaitRob \InPos;
		SetDO DO5_Program_Feed, 1;
		MoveL Offs(pZero, 138.25, 27.986, 0.4), v2000, z0, tNozzle, \Wobj := wobjPlatform;
		WaitRob \InPos;
		SetDO DO5_Program_Feed, 0;
		MoveL Offs(pZero, 138.75, 28.103, 0.4), v4000, z0, tNozzle, \Wobj := wobjPlatform;
		WaitRob \InPos;
		SetDO DO5_Program_Feed, 1;
		MoveL Offs(pZero, 138.75, 10.897, 0.4), v2000, z0, tNozzle, \Wobj := wobjPlatform;
		WaitRob \InPos;
		SetDO DO5_Program_Feed, 0;
		MoveL Offs(pZero, 139.25, 10.774, 0.4), v4000, z0, tNozzle, \Wobj := wobjPlatform;
		WaitRob \InPos;
		SetDO DO5_Program_Feed, 1;
		MoveL Offs(pZero, 139.25, 28.226, 0.4), v2000, z0, tNozzle, \Wobj := wobjPlatform;
		WaitRob \InPos;
		SetDO DO5_Program_Feed, 0;
		MoveL Offs(pZero, 139.75, 28.351, 0.4), v4000, z0, tNozzle, \Wobj := wobjPlatform;
		WaitRob \InPos;
		SetDO DO5_Program_Feed, 1;
		MoveL Offs(pZero, 139.75, 10.649, 0.4), v2000, z0, tNozzle, \Wobj := wobjPlatform;
		WaitRob \InPos;
		SetDO DO5_Program_Feed, 0;
		MoveL Offs(pZero, 140.25, 10.52, 0.4), v4000, z0, tNozzle, \Wobj := wobjPlatform;
		WaitRob \InPos;
		SetDO DO5_Program_Feed, 1;
		MoveL Offs(pZero, 140.25, 28.48, 0.4), v2000, z0, tNozzle, \Wobj := wobjPlatform;
		WaitRob \InPos;
		SetDO DO5_Program_Feed, 0;
		MoveL Offs(pZero, 140.75, 28.613, 0.4), v4000, z0, tNozzle, \Wobj := wobjPlatform;
		WaitRob \InPos;
		SetDO DO5_Program_Feed, 1;
		MoveL Offs(pZero, 140.75, 10.387, 0.4), v2000, z0, tNozzle, \Wobj := wobjPlatform;
		WaitRob \InPos;
		SetDO DO5_Program_Feed, 0;
		MoveL Offs(pZero, 141.25, 10.251, 0.4), v4000, z0, tNozzle, \Wobj := wobjPlatform;
		WaitRob \InPos;
		SetDO DO5_Program_Feed, 1;
		MoveL Offs(pZero, 141.25, 28.749, 0.4), v2000, z0, tNozzle, \Wobj := wobjPlatform;
		WaitRob \InPos;
		SetDO DO5_Program_Feed, 0;
		MoveL Offs(pZero, 141.75, 28.89, 0.4), v4000, z0, tNozzle, \Wobj := wobjPlatform;
		WaitRob \InPos;
		SetDO DO5_Program_Feed, 1;
		MoveL Offs(pZero, 141.75, 10.11, 0.4), v2000, z0, tNozzle, \Wobj := wobjPlatform;
		WaitRob \InPos;
		SetDO DO5_Program_Feed, 0;
		MoveL Offs(pZero, 142.25, 10.0, 0.4), v4000, z0, tNozzle, \Wobj := wobjPlatform;
		WaitRob \InPos;
		SetDO DO5_Program_Feed, 1;
		MoveL Offs(pZero, 142.25, 29.0, 0.4), v2000, z0, tNozzle, \Wobj := wobjPlatform;
		WaitRob \InPos;
		SetDO DO5_Program_Feed, 0;
		MoveL Offs(pZero, 142.75, 29.0, 0.4), v4000, z0, tNozzle, \Wobj := wobjPlatform;
		WaitRob \InPos;
		SetDO DO5_Program_Feed, 1;
		MoveL Offs(pZero, 142.75, 10.0, 0.4), v2000, z0, tNozzle, \Wobj := wobjPlatform;
		WaitRob \InPos;
		SetDO DO5_Program_Feed, 0;
		MoveL Offs(pZero, 143.25, 10.0, 0.4), v4000, z0, tNozzle, \Wobj := wobjPlatform;
		WaitRob \InPos;
		SetDO DO5_Program_Feed, 1;
		MoveL Offs(pZero, 143.25, 29.0, 0.4), v2000, z0, tNozzle, \Wobj := wobjPlatform;
		WaitRob \InPos;
		SetDO DO5_Program_Feed, 0;
		MoveL Offs(pZero, 143.75, 29.0, 0.4), v4000, z0, tNozzle, \Wobj := wobjPlatform;
		WaitRob \InPos;
		SetDO DO5_Program_Feed, 1;
		MoveL Offs(pZero, 143.75, 10.0, 0.4), v2000, z0, tNozzle, \Wobj := wobjPlatform;
		WaitRob \InPos;
		SetDO DO5_Program_Feed, 0;
		MoveL Offs(pZero, 144.25, 10.0, 0.4), v4000, z0, tNozzle, \Wobj := wobjPlatform;
		WaitRob \InPos;
		SetDO DO5_Program_Feed, 1;
		MoveL Offs(pZero, 144.25, 29.0, 0.4), v2000, z0, tNozzle, \Wobj := wobjPlatform;
		WaitRob \InPos;
		SetDO DO5_Program_Feed, 0;
		MoveL Offs(pZero, 144.75, 29.0, 0.4), v4000, z0, tNozzle, \Wobj := wobjPlatform;
		WaitRob \InPos;
		SetDO DO5_Program_Feed, 1;
		MoveL Offs(pZero, 144.75, 10.0, 0.4), v2000, z0, tNozzle, \Wobj := wobjPlatform;
		WaitRob \InPos;
		SetDO DO5_Program_Feed, 0;
		MoveL Offs(pZero, 145.25, 10.0, 0.4), v4000, z0, tNozzle, \Wobj := wobjPlatform;
		WaitRob \InPos;
		SetDO DO5_Program_Feed, 1;
		MoveL Offs(pZero, 145.25, 29.0, 0.4), v2000, z0, tNozzle, \Wobj := wobjPlatform;
		WaitRob \InPos;
		SetDO DO5_Program_Feed, 0;
		MoveL Offs(pZero, 145.75, 29.0, 0.4), v4000, z0, tNozzle, \Wobj := wobjPlatform;
		WaitRob \InPos;
		SetDO DO5_Program_Feed, 1;
		MoveL Offs(pZero, 145.75, 10.0, 0.4), v2000, z0, tNozzle, \Wobj := wobjPlatform;
		WaitRob \InPos;
		SetDO DO5_Program_Feed, 0;
		MoveL Offs(pZero, 146.25, 10.0, 0.4), v4000, z0, tNozzle, \Wobj := wobjPlatform;
		WaitRob \InPos;
		SetDO DO5_Program_Feed, 1;
		MoveL Offs(pZero, 146.25, 29.0, 0.4), v2000, z0, tNozzle, \Wobj := wobjPlatform;
		WaitRob \InPos;
		SetDO DO5_Program_Feed, 0;
		MoveL Offs(pZero, 146.75, 29.0, 0.4), v4000, z0, tNozzle, \Wobj := wobjPlatform;
		WaitRob \InPos;
		SetDO DO5_Program_Feed, 1;
		MoveL Offs(pZero, 146.75, 10.0, 0.4), v2000, z0, tNozzle, \Wobj := wobjPlatform;
		WaitRob \InPos;
		SetDO DO5_Program_Feed, 0;
		MoveL Offs(pZero, 147.25, 10.0, 0.4), v4000, z0, tNozzle, \Wobj := wobjPlatform;
		WaitRob \InPos;
		SetDO DO5_Program_Feed, 1;
		MoveL Offs(pZero, 147.25, 29.0, 0.4), v2000, z0, tNozzle, \Wobj := wobjPlatform;
		WaitRob \InPos;
		SetDO DO5_Program_Feed, 0;
		MoveL Offs(pZero, 147.75, 29.0, 0.4), v4000, z0, tNozzle, \Wobj := wobjPlatform;
		WaitRob \InPos;
		SetDO DO5_Program_Feed, 1;
		MoveL Offs(pZero, 147.75, 10.0, 0.4), v2000, z0, tNozzle, \Wobj := wobjPlatform;
		WaitRob \InPos;
		SetDO DO5_Program_Feed, 0;
		MoveL Offs(pZero, 148.25, 10.0, 0.4), v4000, z0, tNozzle, \Wobj := wobjPlatform;
		WaitRob \InPos;
		SetDO DO5_Program_Feed, 1;
		MoveL Offs(pZero, 148.25, 29.0, 0.4), v2000, z0, tNozzle, \Wobj := wobjPlatform;
		WaitRob \InPos;
		SetDO DO5_Program_Feed, 0;
		MoveL Offs(pZero, 148.75, 29.0, 0.4), v4000, z0, tNozzle, \Wobj := wobjPlatform;
		WaitRob \InPos;
		SetDO DO5_Program_Feed, 1;
		MoveL Offs(pZero, 148.75, 10.0, 0.4), v2000, z0, tNozzle, \Wobj := wobjPlatform;
		WaitRob \InPos;
		SetDO DO5_Program_Feed, 0;
		MoveL Offs(pZero, 149.25, 10.0, 0.4), v4000, z0, tNozzle, \Wobj := wobjPlatform;
		WaitRob \InPos;
		SetDO DO5_Program_Feed, 1;
		MoveL Offs(pZero, 149.25, 29.0, 0.4), v2000, z0, tNozzle, \Wobj := wobjPlatform;
		WaitRob \InPos;
		SetDO DO5_Program_Feed, 0;
		MoveL Offs(pZero, 149.75, 29.0, 0.4), v4000, z0, tNozzle, \Wobj := wobjPlatform;
		WaitRob \InPos;
		SetDO DO5_Program_Feed, 1;
		MoveL Offs(pZero, 149.75, 10.0, 0.4), v2000, z0, tNozzle, \Wobj := wobjPlatform;
		WaitRob \InPos;
		SetDO DO5_Program_Feed, 0;
		MoveL Offs(pZero, 150.25, 10.0, 0.4), v4000, z0, tNozzle, \Wobj := wobjPlatform;
		WaitRob \InPos;
		SetDO DO5_Program_Feed, 1;
		MoveL Offs(pZero, 150.25, 29.0, 0.4), v2000, z0, tNozzle, \Wobj := wobjPlatform;
		WaitRob \InPos;
		SetDO DO5_Program_Feed, 0;
		MoveL Offs(pZero, 150.75, 29.0, 0.4), v4000, z0, tNozzle, \Wobj := wobjPlatform;
		WaitRob \InPos;
		SetDO DO5_Program_Feed, 1;
		MoveL Offs(pZero, 150.75, 10.0, 0.4), v2000, z0, tNozzle, \Wobj := wobjPlatform;
		WaitRob \InPos;
		SetDO DO5_Program_Feed, 0;
		MoveL Offs(pZero, 151.25, 10.0, 0.4), v4000, z0, tNozzle, \Wobj := wobjPlatform;
		WaitRob \InPos;
		SetDO DO5_Program_Feed, 1;
		MoveL Offs(pZero, 151.25, 29.0, 0.4), v2000, z0, tNozzle, \Wobj := wobjPlatform;
		WaitRob \InPos;
		SetDO DO5_Program_Feed, 0;
		MoveL Offs(pZero, 151.75, 29.0, 0.4), v4000, z0, tNozzle, \Wobj := wobjPlatform;
		WaitRob \InPos;
		SetDO DO5_Program_Feed, 1;
		MoveL Offs(pZero, 151.75, 10.0, 0.4), v2000, z0, tNozzle, \Wobj := wobjPlatform;
		WaitRob \InPos;
		SetDO DO5_Program_Feed, 0;
		MoveL Offs(pZero, 152.25, 10.0, 0.4), v4000, z0, tNozzle, \Wobj := wobjPlatform;
		WaitRob \InPos;
		SetDO DO5_Program_Feed, 1;
		MoveL Offs(pZero, 152.25, 29.0, 0.4), v2000, z0, tNozzle, \Wobj := wobjPlatform;
		WaitRob \InPos;
		SetDO DO5_Program_Feed, 0;
		MoveL Offs(pZero, 152.75, 29.0, 0.4), v4000, z0, tNozzle, \Wobj := wobjPlatform;
		WaitRob \InPos;
		SetDO DO5_Program_Feed, 1;
		MoveL Offs(pZero, 152.75, 10.0, 0.4), v2000, z0, tNozzle, \Wobj := wobjPlatform;
		WaitRob \InPos;
		SetDO DO5_Program_Feed, 0;
		MoveL Offs(pZero, 153.25, 10.0, 0.4), v4000, z0, tNozzle, \Wobj := wobjPlatform;
		WaitRob \InPos;
		SetDO DO5_Program_Feed, 1;
		MoveL Offs(pZero, 153.25, 29.0, 0.4), v2000, z0, tNozzle, \Wobj := wobjPlatform;
		WaitRob \InPos;
		SetDO DO5_Program_Feed, 0;
		MoveL Offs(pZero, 153.75, 29.0, 0.4), v4000, z0, tNozzle, \Wobj := wobjPlatform;
		WaitRob \InPos;
		SetDO DO5_Program_Feed, 1;
		MoveL Offs(pZero, 153.75, 10.0, 0.4), v2000, z0, tNozzle, \Wobj := wobjPlatform;
		WaitRob \InPos;
		SetDO DO5_Program_Feed, 0;
		MoveL Offs(pZero, 154.25, 10.0, 0.4), v4000, z0, tNozzle, \Wobj := wobjPlatform;
		WaitRob \InPos;
		SetDO DO5_Program_Feed, 1;
		MoveL Offs(pZero, 154.25, 29.0, 0.4), v2000, z0, tNozzle, \Wobj := wobjPlatform;
		WaitRob \InPos;
		SetDO DO5_Program_Feed, 0;
		MoveL Offs(pZero, 154.75, 29.0, 0.4), v4000, z0, tNozzle, \Wobj := wobjPlatform;
		WaitRob \InPos;
		SetDO DO5_Program_Feed, 1;
		MoveL Offs(pZero, 154.75, 10.0, 0.4), v2000, z0, tNozzle, \Wobj := wobjPlatform;
		WaitRob \InPos;
		SetDO DO5_Program_Feed, 0;
		MoveL Offs(pZero, 155.25, 10.0, 0.4), v4000, z0, tNozzle, \Wobj := wobjPlatform;
		WaitRob \InPos;
		SetDO DO5_Program_Feed, 1;
		MoveL Offs(pZero, 155.25, 29.0, 0.4), v2000, z0, tNozzle, \Wobj := wobjPlatform;
		WaitRob \InPos;
		SetDO DO5_Program_Feed, 0;
		MoveL Offs(pZero, 155.75, 29.0, 0.4), v4000, z0, tNozzle, \Wobj := wobjPlatform;
		WaitRob \InPos;
		SetDO DO5_Program_Feed, 1;
		MoveL Offs(pZero, 155.75, 10.0, 0.4), v2000, z0, tNozzle, \Wobj := wobjPlatform;
		WaitRob \InPos;
		SetDO DO5_Program_Feed, 0;
		MoveL Offs(pZero, 156.25, 10.0, 0.4), v4000, z0, tNozzle, \Wobj := wobjPlatform;
		WaitRob \InPos;
		SetDO DO5_Program_Feed, 1;
		MoveL Offs(pZero, 156.25, 29.0, 0.4), v2000, z0, tNozzle, \Wobj := wobjPlatform;
		WaitRob \InPos;
		SetDO DO5_Program_Feed, 0;
		MoveL Offs(pZero, 156.75, 29.0, 0.4), v4000, z0, tNozzle, \Wobj := wobjPlatform;
		WaitRob \InPos;
		SetDO DO5_Program_Feed, 1;
		MoveL Offs(pZero, 156.75, 10.0, 0.4), v2000, z0, tNozzle, \Wobj := wobjPlatform;
		WaitRob \InPos;
		SetDO DO5_Program_Feed, 0;
		MoveL Offs(pZero, 157.25, 10.0, 0.4), v4000, z0, tNozzle, \Wobj := wobjPlatform;
		WaitRob \InPos;
		SetDO DO5_Program_Feed, 1;
		MoveL Offs(pZero, 157.25, 29.0, 0.4), v2000, z0, tNozzle, \Wobj := wobjPlatform;
		WaitRob \InPos;
		SetDO DO5_Program_Feed, 0;
		MoveL Offs(pZero, 157.75, 29.0, 0.4), v4000, z0, tNozzle, \Wobj := wobjPlatform;
		WaitRob \InPos;
		SetDO DO5_Program_Feed, 1;
		MoveL Offs(pZero, 157.75, 10.0, 0.4), v2000, z0, tNozzle, \Wobj := wobjPlatform;
		WaitRob \InPos;
		SetDO DO5_Program_Feed, 0;
		MoveL Offs(pZero, 158.25, 10.0, 0.4), v4000, z0, tNozzle, \Wobj := wobjPlatform;
		WaitRob \InPos;
		SetDO DO5_Program_Feed, 1;
		MoveL Offs(pZero, 158.25, 29.0, 0.4), v2000, z0, tNozzle, \Wobj := wobjPlatform;
		WaitRob \InPos;
		SetDO DO5_Program_Feed, 0;
		MoveL Offs(pZero, 158.75, 29.0, 0.4), v4000, z0, tNozzle, \Wobj := wobjPlatform;
		WaitRob \InPos;
		SetDO DO5_Program_Feed, 1;
		MoveL Offs(pZero, 158.75, 10.0, 0.4), v2000, z0, tNozzle, \Wobj := wobjPlatform;
		WaitRob \InPos;
		SetDO DO5_Program_Feed, 0;
		MoveL Offs(pZero, 159.25, 10.0, 0.4), v4000, z0, tNozzle, \Wobj := wobjPlatform;
		WaitRob \InPos;
		SetDO DO5_Program_Feed, 1;
		MoveL Offs(pZero, 159.25, 29.0, 0.4), v2000, z0, tNozzle, \Wobj := wobjPlatform;
		WaitRob \InPos;
		SetDO DO5_Program_Feed, 0;
		MoveL Offs(pZero, 159.75, 29.0, 0.4), v4000, z0, tNozzle, \Wobj := wobjPlatform;
		WaitRob \InPos;
		SetDO DO5_Program_Feed, 1;
		MoveL Offs(pZero, 159.75, 10.0, 0.4), v2000, z0, tNozzle, \Wobj := wobjPlatform;
		WaitRob \InPos;
		SetDO DO5_Program_Feed, 0;
		MoveL Offs(pZero, 160.25, 10.0, 0.4), v4000, z0, tNozzle, \Wobj := wobjPlatform;
		WaitRob \InPos;
		SetDO DO5_Program_Feed, 1;
		MoveL Offs(pZero, 160.25, 29.0, 0.4), v2000, z0, tNozzle, \Wobj := wobjPlatform;
		WaitRob \InPos;
		SetDO DO5_Program_Feed, 0;
		MoveL Offs(pZero, 160.75, 29.0, 0.4), v4000, z0, tNozzle, \Wobj := wobjPlatform;
		WaitRob \InPos;
		SetDO DO5_Program_Feed, 1;
		MoveL Offs(pZero, 160.75, 10.0, 0.4), v2000, z0, tNozzle, \Wobj := wobjPlatform;
		WaitRob \InPos;
		SetDO DO5_Program_Feed, 0;
		MoveL Offs(pZero, 161.25, 10.0, 0.4), v4000, z0, tNozzle, \Wobj := wobjPlatform;
		WaitRob \InPos;
		SetDO DO5_Program_Feed, 1;
		MoveL Offs(pZero, 161.25, 29.0, 0.4), v2000, z0, tNozzle, \Wobj := wobjPlatform;
		WaitRob \InPos;
		SetDO DO5_Program_Feed, 0;
		MoveL Offs(pZero, 161.75, 29.0, 0.4), v4000, z0, tNozzle, \Wobj := wobjPlatform;
		WaitRob \InPos;
		SetDO DO5_Program_Feed, 1;
		MoveL Offs(pZero, 161.75, 10.0, 0.4), v2000, z0, tNozzle, \Wobj := wobjPlatform;
		WaitRob \InPos;
		SetDO DO5_Program_Feed, 0;
		MoveL Offs(pZero, 162.25, 10.0, 0.4), v4000, z0, tNozzle, \Wobj := wobjPlatform;
		WaitRob \InPos;
		SetDO DO5_Program_Feed, 1;
		MoveL Offs(pZero, 162.25, 29.0, 0.4), v2000, z0, tNozzle, \Wobj := wobjPlatform;
		WaitRob \InPos;
		SetDO DO5_Program_Feed, 0;
		MoveL Offs(pZero, 162.75, 29.0, 0.4), v4000, z0, tNozzle, \Wobj := wobjPlatform;
		WaitRob \InPos;
		SetDO DO5_Program_Feed, 1;
		MoveL Offs(pZero, 162.75, 10.0, 0.4), v2000, z0, tNozzle, \Wobj := wobjPlatform;
		WaitRob \InPos;
		SetDO DO5_Program_Feed, 0;
		MoveL Offs(pZero, 163.25, 10.0, 0.4), v4000, z0, tNozzle, \Wobj := wobjPlatform;
		WaitRob \InPos;
		SetDO DO5_Program_Feed, 1;
		MoveL Offs(pZero, 163.25, 29.0, 0.4), v2000, z0, tNozzle, \Wobj := wobjPlatform;
		WaitRob \InPos;
		SetDO DO5_Program_Feed, 0;
		MoveL Offs(pZero, 163.75, 29.0, 0.4), v4000, z0, tNozzle, \Wobj := wobjPlatform;
		WaitRob \InPos;
		SetDO DO5_Program_Feed, 1;
		MoveL Offs(pZero, 163.75, 10.0, 0.4), v2000, z0, tNozzle, \Wobj := wobjPlatform;
		WaitRob \InPos;
		SetDO DO5_Program_Feed, 0;
		MoveL Offs(pZero, 164.25, 10.0, 0.4), v4000, z0, tNozzle, \Wobj := wobjPlatform;
		WaitRob \InPos;
		SetDO DO5_Program_Feed, 1;
		MoveL Offs(pZero, 164.25, 29.0, 0.4), v2000, z0, tNozzle, \Wobj := wobjPlatform;
		WaitRob \InPos;
		SetDO DO5_Program_Feed, 0;
		MoveL Offs(pZero, 164.75, 29.0, 0.4), v4000, z0, tNozzle, \Wobj := wobjPlatform;
		WaitRob \InPos;
		SetDO DO5_Program_Feed, 1;
		MoveL Offs(pZero, 164.75, 10.0, 0.4), v2000, z0, tNozzle, \Wobj := wobjPlatform;
		WaitRob \InPos;
		SetDO DO5_Program_Feed, 0;
		MoveL Offs(pZero, 165.25, 10.0, 0.4), v4000, z0, tNozzle, \Wobj := wobjPlatform;
		WaitRob \InPos;
		SetDO DO5_Program_Feed, 1;
		MoveL Offs(pZero, 165.25, 29.0, 0.4), v2000, z0, tNozzle, \Wobj := wobjPlatform;
		WaitRob \InPos;
		SetDO DO5_Program_Feed, 0;
		MoveL Offs(pZero, 165.75, 29.0, 0.4), v4000, z0, tNozzle, \Wobj := wobjPlatform;
		WaitRob \InPos;
		SetDO DO5_Program_Feed, 1;
		MoveL Offs(pZero, 165.75, 10.0, 0.4), v2000, z0, tNozzle, \Wobj := wobjPlatform;
		WaitRob \InPos;
		SetDO DO5_Program_Feed, 0;
		MoveL Offs(pZero, 166.25, 10.0, 0.4), v4000, z0, tNozzle, \Wobj := wobjPlatform;
		WaitRob \InPos;
		SetDO DO5_Program_Feed, 1;
		MoveL Offs(pZero, 166.25, 29.0, 0.4), v2000, z0, tNozzle, \Wobj := wobjPlatform;
		WaitRob \InPos;
		SetDO DO5_Program_Feed, 0;
		MoveL Offs(pZero, 166.75, 29.0, 0.4), v4000, z0, tNozzle, \Wobj := wobjPlatform;
		WaitRob \InPos;
		SetDO DO5_Program_Feed, 1;
		MoveL Offs(pZero, 166.75, 10.0, 0.4), v2000, z0, tNozzle, \Wobj := wobjPlatform;
		WaitRob \InPos;
		SetDO DO5_Program_Feed, 0;
		MoveL Offs(pZero, 167.25, 10.0, 0.4), v4000, z0, tNozzle, \Wobj := wobjPlatform;
		WaitRob \InPos;
		SetDO DO5_Program_Feed, 1;
		MoveL Offs(pZero, 167.25, 29.0, 0.4), v2000, z0, tNozzle, \Wobj := wobjPlatform;
		WaitRob \InPos;
		SetDO DO5_Program_Feed, 0;
		MoveL Offs(pZero, 167.75, 29.0, 0.4), v4000, z0, tNozzle, \Wobj := wobjPlatform;
		WaitRob \InPos;
		SetDO DO5_Program_Feed, 1;
		MoveL Offs(pZero, 167.75, 10.0, 0.4), v2000, z0, tNozzle, \Wobj := wobjPlatform;
		WaitRob \InPos;
		SetDO DO5_Program_Feed, 0;
		MoveL Offs(pZero, 168.25, 10.0, 0.4), v4000, z0, tNozzle, \Wobj := wobjPlatform;
		WaitRob \InPos;
		SetDO DO5_Program_Feed, 1;
		MoveL Offs(pZero, 168.25, 29.0, 0.4), v2000, z0, tNozzle, \Wobj := wobjPlatform;
		WaitRob \InPos;
		SetDO DO5_Program_Feed, 0;
		MoveL Offs(pZero, 168.75, 29.0, 0.4), v4000, z0, tNozzle, \Wobj := wobjPlatform;
		WaitRob \InPos;
		SetDO DO5_Program_Feed, 1;
		MoveL Offs(pZero, 168.75, 10.0, 0.4), v2000, z0, tNozzle, \Wobj := wobjPlatform;
		WaitRob \InPos;
		SetDO DO5_Program_Feed, 0;
		MoveL Offs(pZero, 169.25, 10.0, 0.4), v4000, z0, tNozzle, \Wobj := wobjPlatform;
		WaitRob \InPos;
		SetDO DO5_Program_Feed, 1;
		MoveL Offs(pZero, 169.25, 29.0, 0.4), v2000, z0, tNozzle, \Wobj := wobjPlatform;
		WaitRob \InPos;
		SetDO DO5_Program_Feed, 0;
		MoveL Offs(pZero, 169.75, 29.0, 0.4), v4000, z0, tNozzle, \Wobj := wobjPlatform;
		WaitRob \InPos;
		SetDO DO5_Program_Feed, 1;
		MoveL Offs(pZero, 169.75, 10.0, 0.4), v2000, z0, tNozzle, \Wobj := wobjPlatform;
		WaitRob \InPos;
		SetDO DO5_Program_Feed, 0;
		MoveL Offs(pZero, 170.25, 10.0, 0.4), v4000, z0, tNozzle, \Wobj := wobjPlatform;
		WaitRob \InPos;
		SetDO DO5_Program_Feed, 1;
		MoveL Offs(pZero, 170.25, 29.0, 0.4), v2000, z0, tNozzle, \Wobj := wobjPlatform;
		WaitRob \InPos;
		SetDO DO5_Program_Feed, 0;
		MoveL Offs(pZero, 170.75, 29.0, 0.4), v4000, z0, tNozzle, \Wobj := wobjPlatform;
		WaitRob \InPos;
		SetDO DO5_Program_Feed, 1;
		MoveL Offs(pZero, 170.75, 10.0, 0.4), v2000, z0, tNozzle, \Wobj := wobjPlatform;
		WaitRob \InPos;
		SetDO DO5_Program_Feed, 0;
		MoveL Offs(pZero, 171.25, 10.0, 0.4), v4000, z0, tNozzle, \Wobj := wobjPlatform;
		WaitRob \InPos;
		SetDO DO5_Program_Feed, 1;
		MoveL Offs(pZero, 171.25, 29.0, 0.4), v2000, z0, tNozzle, \Wobj := wobjPlatform;
		WaitRob \InPos;
		SetDO DO5_Program_Feed, 0;
		MoveL Offs(pZero, 171.75, 29.0, 0.4), v4000, z0, tNozzle, \Wobj := wobjPlatform;
		WaitRob \InPos;
		SetDO DO5_Program_Feed, 1;
		MoveL Offs(pZero, 171.75, 10.0, 0.4), v2000, z0, tNozzle, \Wobj := wobjPlatform;
		WaitRob \InPos;
		SetDO DO5_Program_Feed, 0;
		MoveL Offs(pZero, 172.25, 10.0, 0.4), v4000, z0, tNozzle, \Wobj := wobjPlatform;
		WaitRob \InPos;
		SetDO DO5_Program_Feed, 1;
		MoveL Offs(pZero, 172.25, 29.0, 0.4), v2000, z0, tNozzle, \Wobj := wobjPlatform;
		WaitRob \InPos;
		SetDO DO5_Program_Feed, 0;
		MoveL Offs(pZero, 172.75, 29.0, 0.4), v4000, z0, tNozzle, \Wobj := wobjPlatform;
		WaitRob \InPos;
		SetDO DO5_Program_Feed, 1;
		MoveL Offs(pZero, 172.75, 10.0, 0.4), v2000, z0, tNozzle, \Wobj := wobjPlatform;
		WaitRob \InPos;
		SetDO DO5_Program_Feed, 0;
		MoveL Offs(pZero, 173.25, 10.0, 0.4), v4000, z0, tNozzle, \Wobj := wobjPlatform;
		WaitRob \InPos;
		SetDO DO5_Program_Feed, 1;
		MoveL Offs(pZero, 173.25, 29.0, 0.4), v2000, z0, tNozzle, \Wobj := wobjPlatform;
		WaitRob \InPos;
		SetDO DO5_Program_Feed, 0;
		MoveL Offs(pZero, 173.75, 29.0, 0.4), v4000, z0, tNozzle, \Wobj := wobjPlatform;
		WaitRob \InPos;
		SetDO DO5_Program_Feed, 1;
		MoveL Offs(pZero, 173.75, 10.0, 0.4), v2000, z0, tNozzle, \Wobj := wobjPlatform;
		WaitRob \InPos;
		SetDO DO5_Program_Feed, 0;
		MoveL Offs(pZero, 174.25, 10.0, 0.4), v4000, z0, tNozzle, \Wobj := wobjPlatform;
		WaitRob \InPos;
		SetDO DO5_Program_Feed, 1;
		MoveL Offs(pZero, 174.25, 29.0, 0.4), v2000, z0, tNozzle, \Wobj := wobjPlatform;
		WaitRob \InPos;
		SetDO DO5_Program_Feed, 0;
		MoveL Offs(pZero, 174.75, 29.0, 0.4), v4000, z0, tNozzle, \Wobj := wobjPlatform;
		WaitRob \InPos;
		SetDO DO5_Program_Feed, 1;
		MoveL Offs(pZero, 174.75, 10.0, 0.4), v2000, z0, tNozzle, \Wobj := wobjPlatform;
		WaitRob \InPos;
		SetDO DO6_Between_Layer_Retract, 1;
		SetDO DO5_Program_Feed, 0;
		MoveL Offs(pZero, 174.75, 10.0, 3.4), v4000, z0, tNozzle, \Wobj := wobjPlatform;

		; Layer: 2
		; LayerParams(infillAngleDegrees=90.0, layerHeight=0.4, infillShiftX=0.0, infillShiftY=0.0, numShells=0, infillOverlap=0.0002)
		; T12
		; M6
		TPWRITE "Layer 2 of 8";
		MoveL Offs(pZero, 10.25, 10.0, 3.8), v4000, z0, tNozzle, \Wobj := wobjPlatform;
		MoveL Offs(pZero, 10.25, 10.0, 0.8), v2000, z0, tNozzle, \Wobj := wobjPlatform;
		WaitRob \InPos;
		SetDO DO6_Between_Layer_Retract, 0;
		WaitRob \InPos;
		SetDO DO5_Program_Feed, 1;
		MoveL Offs(pZero, 10.25, 29.0, 0.8), v2000, z0, tNozzle, \Wobj := wobjPlatform;
		WaitRob \InPos;
		SetDO DO5_Program_Feed, 0;
		MoveL Offs(pZero, 10.75, 29.0, 0.8), v4000, z0, tNozzle, \Wobj := wobjPlatform;
		WaitRob \InPos;
		SetDO DO5_Program_Feed, 1;
		MoveL Offs(pZero, 10.75, 10.0, 0.8), v2000, z0, tNozzle, \Wobj := wobjPlatform;
		WaitRob \InPos;
		SetDO DO5_Program_Feed, 0;
		MoveL Offs(pZero, 11.25, 10.0, 0.8), v4000, z0, tNozzle, \Wobj := wobjPlatform;
		WaitRob \InPos;
		SetDO DO5_Program_Feed, 1;
		MoveL Offs(pZero, 11.25, 29.0, 0.8), v2000, z0, tNozzle, \Wobj := wobjPlatform;
		WaitRob \InPos;
		SetDO DO5_Program_Feed, 0;
		MoveL Offs(pZero, 11.75, 29.0, 0.8), v4000, z0, tNozzle, \Wobj := wobjPlatform;
		WaitRob \InPos;
		SetDO DO5_Program_Feed, 1;
		MoveL Offs(pZero, 11.75, 10.0, 0.8), v2000, z0, tNozzle, \Wobj := wobjPlatform;
		WaitRob \InPos;
		SetDO DO5_Program_Feed, 0;
		MoveL Offs(pZero, 12.25, 10.0, 0.8), v4000, z0, tNozzle, \Wobj := wobjPlatform;
		WaitRob \InPos;
		SetDO DO5_Program_Feed, 1;
		MoveL Offs(pZero, 12.25, 29.0, 0.8), v2000, z0, tNozzle, \Wobj := wobjPlatform;
		WaitRob \InPos;
		SetDO DO5_Program_Feed, 0;
		MoveL Offs(pZero, 12.75, 29.0, 0.8), v4000, z0, tNozzle, \Wobj := wobjPlatform;
		WaitRob \InPos;
		SetDO DO5_Program_Feed, 1;
		MoveL Offs(pZero, 12.75, 10.0, 0.8), v2000, z0, tNozzle, \Wobj := wobjPlatform;
		WaitRob \InPos;
		SetDO DO5_Program_Feed, 0;
		MoveL Offs(pZero, 13.25, 10.0, 0.8), v4000, z0, tNozzle, \Wobj := wobjPlatform;
		WaitRob \InPos;
		SetDO DO5_Program_Feed, 1;
		MoveL Offs(pZero, 13.25, 29.0, 0.8), v2000, z0, tNozzle, \Wobj := wobjPlatform;
		WaitRob \InPos;
		SetDO DO5_Program_Feed, 0;
		MoveL Offs(pZero, 13.75, 29.0, 0.8), v4000, z0, tNozzle, \Wobj := wobjPlatform;
		WaitRob \InPos;
		SetDO DO5_Program_Feed, 1;
		MoveL Offs(pZero, 13.75, 10.0, 0.8), v2000, z0, tNozzle, \Wobj := wobjPlatform;
		WaitRob \InPos;
		SetDO DO5_Program_Feed, 0;
		MoveL Offs(pZero, 14.25, 10.0, 0.8), v4000, z0, tNozzle, \Wobj := wobjPlatform;
		WaitRob \InPos;
		SetDO DO5_Program_Feed, 1;
		MoveL Offs(pZero, 14.25, 29.0, 0.8), v2000, z0, tNozzle, \Wobj := wobjPlatform;
		WaitRob \InPos;
		SetDO DO5_Program_Feed, 0;
		MoveL Offs(pZero, 14.75, 29.0, 0.8), v4000, z0, tNozzle, \Wobj := wobjPlatform;
		WaitRob \InPos;
		SetDO DO5_Program_Feed, 1;
		MoveL Offs(pZero, 14.75, 10.0, 0.8), v2000, z0, tNozzle, \Wobj := wobjPlatform;
		WaitRob \InPos;
		SetDO DO5_Program_Feed, 0;
		MoveL Offs(pZero, 15.25, 10.0, 0.8), v4000, z0, tNozzle, \Wobj := wobjPlatform;
		WaitRob \InPos;
		SetDO DO5_Program_Feed, 1;
		MoveL Offs(pZero, 15.25, 29.0, 0.8), v2000, z0, tNozzle, \Wobj := wobjPlatform;
		WaitRob \InPos;
		SetDO DO5_Program_Feed, 0;
		MoveL Offs(pZero, 15.75, 29.0, 0.8), v4000, z0, tNozzle, \Wobj := wobjPlatform;
		WaitRob \InPos;
		SetDO DO5_Program_Feed, 1;
		MoveL Offs(pZero, 15.75, 10.0, 0.8), v2000, z0, tNozzle, \Wobj := wobjPlatform;
		WaitRob \InPos;
		SetDO DO5_Program_Feed, 0;
		MoveL Offs(pZero, 16.25, 10.0, 0.8), v4000, z0, tNozzle, \Wobj := wobjPlatform;
		WaitRob \InPos;
		SetDO DO5_Program_Feed, 1;
		MoveL Offs(pZero, 16.25, 29.0, 0.8), v2000, z0, tNozzle, \Wobj := wobjPlatform;
		WaitRob \InPos;
		SetDO DO5_Program_Feed, 0;
		MoveL Offs(pZero, 16.75, 29.0, 0.8), v4000, z0, tNozzle, \Wobj := wobjPlatform;
		WaitRob \InPos;
		SetDO DO5_Program_Feed, 1;
		MoveL Offs(pZero, 16.75, 10.0, 0.8), v2000, z0, tNozzle, \Wobj := wobjPlatform;
		WaitRob \InPos;
		SetDO DO5_Program_Feed, 0;
		MoveL Offs(pZero, 17.25, 10.0, 0.8), v4000, z0, tNozzle, \Wobj := wobjPlatform;
		WaitRob \InPos;
		SetDO DO5_Program_Feed, 1;
		MoveL Offs(pZero, 17.25, 29.0, 0.8), v2000, z0, tNozzle, \Wobj := wobjPlatform;
		WaitRob \InPos;
		SetDO DO5_Program_Feed, 0;
		MoveL Offs(pZero, 17.75, 29.0, 0.8), v4000, z0, tNozzle, \Wobj := wobjPlatform;
		WaitRob \InPos;
		SetDO DO5_Program_Feed, 1;
		MoveL Offs(pZero, 17.75, 10.0, 0.8), v2000, z0, tNozzle, \Wobj := wobjPlatform;
		WaitRob \InPos;
		SetDO DO5_Program_Feed, 0;
		MoveL Offs(pZero, 18.25, 10.0, 0.8), v4000, z0, tNozzle, \Wobj := wobjPlatform;
		WaitRob \InPos;
		SetDO DO5_Program_Feed, 1;
		MoveL Offs(pZero, 18.25, 29.0, 0.8), v2000, z0, tNozzle, \Wobj := wobjPlatform;
		WaitRob \InPos;
		SetDO DO5_Program_Feed, 0;
		MoveL Offs(pZero, 18.75, 29.0, 0.8), v4000, z0, tNozzle, \Wobj := wobjPlatform;
		WaitRob \InPos;
		SetDO DO5_Program_Feed, 1;
		MoveL Offs(pZero, 18.75, 10.0, 0.8), v2000, z0, tNozzle, \Wobj := wobjPlatform;
		WaitRob \InPos;
		SetDO DO5_Program_Feed, 0;
		MoveL Offs(pZero, 19.25, 10.0, 0.8), v4000, z0, tNozzle, \Wobj := wobjPlatform;
		WaitRob \InPos;
		SetDO DO5_Program_Feed, 1;
		MoveL Offs(pZero, 19.25, 29.0, 0.8), v2000, z0, tNozzle, \Wobj := wobjPlatform;
		WaitRob \InPos;
		SetDO DO5_Program_Feed, 0;
		MoveL Offs(pZero, 19.75, 29.0, 0.8), v4000, z0, tNozzle, \Wobj := wobjPlatform;
		WaitRob \InPos;
		SetDO DO5_Program_Feed, 1;
		MoveL Offs(pZero, 19.75, 10.0, 0.8), v2000, z0, tNozzle, \Wobj := wobjPlatform;
		WaitRob \InPos;
		SetDO DO5_Program_Feed, 0;
		MoveL Offs(pZero, 20.25, 10.0, 0.8), v4000, z0, tNozzle, \Wobj := wobjPlatform;
		WaitRob \InPos;
		SetDO DO5_Program_Feed, 1;
		MoveL Offs(pZero, 20.25, 29.0, 0.8), v2000, z0, tNozzle, \Wobj := wobjPlatform;
		WaitRob \InPos;
		SetDO DO5_Program_Feed, 0;
		MoveL Offs(pZero, 20.75, 29.0, 0.8), v4000, z0, tNozzle, \Wobj := wobjPlatform;
		WaitRob \InPos;
		SetDO DO5_Program_Feed, 1;
		MoveL Offs(pZero, 20.75, 10.0, 0.8), v2000, z0, tNozzle, \Wobj := wobjPlatform;
		WaitRob \InPos;
		SetDO DO5_Program_Feed, 0;
		MoveL Offs(pZero, 21.25, 10.0, 0.8), v4000, z0, tNozzle, \Wobj := wobjPlatform;
		WaitRob \InPos;
		SetDO DO5_Program_Feed, 1;
		MoveL Offs(pZero, 21.25, 29.0, 0.8), v2000, z0, tNozzle, \Wobj := wobjPlatform;
		WaitRob \InPos;
		SetDO DO5_Program_Feed, 0;
		MoveL Offs(pZero, 21.75, 29.0, 0.8), v4000, z0, tNozzle, \Wobj := wobjPlatform;
		WaitRob \InPos;
		SetDO DO5_Program_Feed, 1;
		MoveL Offs(pZero, 21.75, 10.0, 0.8), v2000, z0, tNozzle, \Wobj := wobjPlatform;
		WaitRob \InPos;
		SetDO DO5_Program_Feed, 0;
		MoveL Offs(pZero, 22.25, 10.0, 0.8), v4000, z0, tNozzle, \Wobj := wobjPlatform;
		WaitRob \InPos;
		SetDO DO5_Program_Feed, 1;
		MoveL Offs(pZero, 22.25, 29.0, 0.8), v2000, z0, tNozzle, \Wobj := wobjPlatform;
		WaitRob \InPos;
		SetDO DO5_Program_Feed, 0;
		MoveL Offs(pZero, 22.75, 29.0, 0.8), v4000, z0, tNozzle, \Wobj := wobjPlatform;
		WaitRob \InPos;
		SetDO DO5_Program_Feed, 1;
		MoveL Offs(pZero, 22.75, 10.0, 0.8), v2000, z0, tNozzle, \Wobj := wobjPlatform;
		WaitRob \InPos;
		SetDO DO5_Program_Feed, 0;
		MoveL Offs(pZero, 23.25, 10.0, 0.8), v4000, z0, tNozzle, \Wobj := wobjPlatform;
		WaitRob \InPos;
		SetDO DO5_Program_Feed, 1;
		MoveL Offs(pZero, 23.25, 29.0, 0.8), v2000, z0, tNozzle, \Wobj := wobjPlatform;
		WaitRob \InPos;
		SetDO DO5_Program_Feed, 0;
		MoveL Offs(pZero, 23.75, 29.0, 0.8), v4000, z0, tNozzle, \Wobj := wobjPlatform;
		WaitRob \InPos;
		SetDO DO5_Program_Feed, 1;
		MoveL Offs(pZero, 23.75, 10.0, 0.8), v2000, z0, tNozzle, \Wobj := wobjPlatform;
		WaitRob \InPos;
		SetDO DO5_Program_Feed, 0;
		MoveL Offs(pZero, 24.25, 10.0, 0.8), v4000, z0, tNozzle, \Wobj := wobjPlatform;
		WaitRob \InPos;
		SetDO DO5_Program_Feed, 1;
		MoveL Offs(pZero, 24.25, 29.0, 0.8), v2000, z0, tNozzle, \Wobj := wobjPlatform;
		WaitRob \InPos;
		SetDO DO5_Program_Feed, 0;
		MoveL Offs(pZero, 24.75, 29.0, 0.8), v4000, z0, tNozzle, \Wobj := wobjPlatform;
		WaitRob \InPos;
		SetDO DO5_Program_Feed, 1;
		MoveL Offs(pZero, 24.75, 10.0, 0.8), v2000, z0, tNozzle, \Wobj := wobjPlatform;
		WaitRob \InPos;
		SetDO DO5_Program_Feed, 0;
		MoveL Offs(pZero, 25.25, 10.0, 0.8), v4000, z0, tNozzle, \Wobj := wobjPlatform;
		WaitRob \InPos;
		SetDO DO5_Program_Feed, 1;
		MoveL Offs(pZero, 25.25, 29.0, 0.8), v2000, z0, tNozzle, \Wobj := wobjPlatform;
		WaitRob \InPos;
		SetDO DO5_Program_Feed, 0;
		MoveL Offs(pZero, 25.75, 29.0, 0.8), v4000, z0, tNozzle, \Wobj := wobjPlatform;
		WaitRob \InPos;
		SetDO DO5_Program_Feed, 1;
		MoveL Offs(pZero, 25.75, 10.0, 0.8), v2000, z0, tNozzle, \Wobj := wobjPlatform;
		WaitRob \InPos;
		SetDO DO5_Program_Feed, 0;
		MoveL Offs(pZero, 26.25, 10.0, 0.8), v4000, z0, tNozzle, \Wobj := wobjPlatform;
		WaitRob \InPos;
		SetDO DO5_Program_Feed, 1;
		MoveL Offs(pZero, 26.25, 29.0, 0.8), v2000, z0, tNozzle, \Wobj := wobjPlatform;
		WaitRob \InPos;
		SetDO DO5_Program_Feed, 0;
		MoveL Offs(pZero, 26.75, 29.0, 0.8), v4000, z0, tNozzle, \Wobj := wobjPlatform;
		WaitRob \InPos;
		SetDO DO5_Program_Feed, 1;
		MoveL Offs(pZero, 26.75, 10.0, 0.8), v2000, z0, tNozzle, \Wobj := wobjPlatform;
		WaitRob \InPos;
		SetDO DO5_Program_Feed, 0;
		MoveL Offs(pZero, 27.25, 10.0, 0.8), v4000, z0, tNozzle, \Wobj := wobjPlatform;
		WaitRob \InPos;
		SetDO DO5_Program_Feed, 1;
		MoveL Offs(pZero, 27.25, 29.0, 0.8), v2000, z0, tNozzle, \Wobj := wobjPlatform;
		WaitRob \InPos;
		SetDO DO5_Program_Feed, 0;
		MoveL Offs(pZero, 27.75, 29.0, 0.8), v4000, z0, tNozzle, \Wobj := wobjPlatform;
		WaitRob \InPos;
		SetDO DO5_Program_Feed, 1;
		MoveL Offs(pZero, 27.75, 10.0, 0.8), v2000, z0, tNozzle, \Wobj := wobjPlatform;
		WaitRob \InPos;
		SetDO DO5_Program_Feed, 0;
		MoveL Offs(pZero, 28.25, 10.0, 0.8), v4000, z0, tNozzle, \Wobj := wobjPlatform;
		WaitRob \InPos;
		SetDO DO5_Program_Feed, 1;
		MoveL Offs(pZero, 28.25, 29.0, 0.8), v2000, z0, tNozzle, \Wobj := wobjPlatform;
		WaitRob \InPos;
		SetDO DO5_Program_Feed, 0;
		MoveL Offs(pZero, 28.75, 29.0, 0.8), v4000, z0, tNozzle, \Wobj := wobjPlatform;
		WaitRob \InPos;
		SetDO DO5_Program_Feed, 1;
		MoveL Offs(pZero, 28.75, 10.0, 0.8), v2000, z0, tNozzle, \Wobj := wobjPlatform;
		WaitRob \InPos;
		SetDO DO5_Program_Feed, 0;
		MoveL Offs(pZero, 29.25, 10.0, 0.8), v4000, z0, tNozzle, \Wobj := wobjPlatform;
		WaitRob \InPos;
		SetDO DO5_Program_Feed, 1;
		MoveL Offs(pZero, 29.25, 29.0, 0.8), v2000, z0, tNozzle, \Wobj := wobjPlatform;
		WaitRob \InPos;
		SetDO DO5_Program_Feed, 0;
		MoveL Offs(pZero, 29.75, 29.0, 0.8), v4000, z0, tNozzle, \Wobj := wobjPlatform;
		WaitRob \InPos;
		SetDO DO5_Program_Feed, 1;
		MoveL Offs(pZero, 29.75, 10.0, 0.8), v2000, z0, tNozzle, \Wobj := wobjPlatform;
		WaitRob \InPos;
		SetDO DO5_Program_Feed, 0;
		MoveL Offs(pZero, 30.25, 10.0, 0.8), v4000, z0, tNozzle, \Wobj := wobjPlatform;
		WaitRob \InPos;
		SetDO DO5_Program_Feed, 1;
		MoveL Offs(pZero, 30.25, 29.0, 0.8), v2000, z0, tNozzle, \Wobj := wobjPlatform;
		WaitRob \InPos;
