;START_OF_HEADER
;HEADER_VERSION:0.1
;FLAVOR:Griffin
;GENERATOR.NAME:Cura_SteamEngine
;GENERATOR.VERSION:3.6.0
;GENERATOR.BUILD_DATE:2018-11-12
;TARGET_MACHINE.NAME:Ultimaker S5
;EXTRUDER_TRAIN.0.INITIAL_TEMPERATURE:190
;EXTRUDER_TRAIN.0.MATERIAL.VOLUME_USED:44
;EXTRUDER_TRAIN.0.MATERIAL.GUID:506c9f0d-e3aa-4bd4-b2d2-23e2425b1aa9
;EXTRUDER_TRAIN.0.NOZZLE.DIAMETER:0.25
;EXTRUDER_TRAIN.0.NOZZLE.NAME:AA 0.25
;BUILD_PLATE.TYPE:glass
;BUILD_PLATE.INITIAL_TEMPERATURE:60
;PRINT.TIME:55
;PRINT.SIZE.MIN.X:156.409
;PRINT.SIZE.MIN.Y:111.407
;PRINT.SIZE.MIN.Z:0.17
;PRINT.SIZE.MAX.X:173.578
;PRINT.SIZE.MAX.Y:128.593
;PRINT.SIZE.MAX.Z:2.47
;END_OF_HEADER
;Generated with Cura_SteamEngine 3.6.0
T0
M82 ;absolute extrusion mode

G92 E0
M109 S190
G280 S1
G0 Z20.001
G1 F1500 E-6.5
;LAYER_COUNT:25
;LAYER:0
M107
M204 S625
M205 X6 Y6
G0 F7200 X172.093 Y124.851 Z0.17
M204 S500
M205 X5 Y5
;TYPE:SKIRT
G1 F1500 E0
G1 F1800 X171.627 Y125.493 E0.00583
G1 X171.099 Y126.084 E0.01166
G1 X170.514 Y126.62 E0.0175
G1 X169.877 Y127.093 E0.02333
G1 X169.145 Y127.527 E0.02959
G1 X168.808 Y127.703 E0.03239
G1 X168.088 Y128.035 E0.03822
G1 X167.338 Y128.292 E0.04405
G1 X166.565 Y128.472 E0.04989
G1 X165.779 Y128.573 E0.05572
G1 X164.919 Y128.593 E0.06205
G1 X164.538 Y128.581 E0.06485
G1 X163.748 Y128.516 E0.07068
G1 X162.968 Y128.372 E0.07651
G1 X162.207 Y128.15 E0.08234
G1 X161.472 Y127.853 E0.08817
G1 X160.709 Y127.446 E0.09453
G1 X160.384 Y127.249 E0.09733
G1 X159.727 Y126.804 E0.10317
G1 X159.119 Y126.295 E0.109
G1 X158.564 Y125.728 E0.11483
G1 X158.07 Y125.108 E0.12066
G1 X157.599 Y124.367 E0.12712
G1 X157.413 Y124.035 E0.12992
G1 X157.06 Y123.324 E0.13576
G1 X156.781 Y122.582 E0.14159
G1 X156.579 Y121.815 E0.14742
G1 X156.454 Y121.032 E0.15325
G1 X156.409 Y120.19 E0.15946
G1 X156.409 Y119.81 E0.16225
G1 X156.449 Y119.018 E0.16808
G1 X156.568 Y118.234 E0.17392
G1 X156.766 Y117.466 E0.17975
G1 X157.041 Y116.722 E0.18558
G1 X157.413 Y115.965 E0.19179
G1 X157.599 Y115.633 E0.19459
G1 X158.021 Y114.962 E0.20042
G1 X158.508 Y114.336 E0.20625
G1 X159.056 Y113.763 E0.21208
G1 X159.659 Y113.248 E0.21791
G1 X160.384 Y112.751 E0.22438
G1 X160.709 Y112.554 E0.22717
G1 X161.407 Y112.178 E0.233
G1 X162.139 Y111.874 E0.23883
G1 X162.898 Y111.645 E0.24466
G1 X163.677 Y111.494 E0.2505
G1 X164.538 Y111.419 E0.25686
G1 X164.919 Y111.407 E0.25966
G1 X165.712 Y111.422 E0.26549
G1 X166.5 Y111.517 E0.27133
G1 X167.273 Y111.69 E0.27716
G1 X168.026 Y111.941 E0.283
G1 X168.808 Y112.297 E0.28932
G1 X169.145 Y112.473 E0.29211
G1 X169.829 Y112.875 E0.29795
G1 X170.468 Y113.344 E0.30378
G1 X171.058 Y113.874 E0.30961
G1 X171.59 Y114.462 E0.31544
G1 X172.093 Y115.149 E0.3217
G1 X172.301 Y115.468 E0.32451
G1 X172.7 Y116.153 E0.33034
G1 X173.028 Y116.875 E0.33617
G1 X173.282 Y117.626 E0.342
G1 X173.459 Y118.399 E0.34783
G1 X173.557 Y119.186 E0.35366
G1 X173.578 Y119.764 E0.35792
G1 X173.578 Y120.236 E0.36139
G1 X173.538 Y121.028 E0.36722
G1 X173.419 Y121.812 E0.37306
G1 X173.221 Y122.58 E0.37889
G1 X172.946 Y123.324 E0.38472
G1 X172.599 Y124.037 E0.39055
G1 X172.301 Y124.532 E0.3948
G1 X172.093 Y124.851 E0.3976
M204 S625
M205 X6 Y6
G0 F7200 X171.862 Y124.701
M204 S500
M205 X5 Y5
G1 F1800 X171.403 Y125.33 E0.40333
G1 X170.883 Y125.91 E0.40906
G1 X170.306 Y126.433 E0.41479
G1 X169.678 Y126.894 E0.42052
G1 X169.018 Y127.283 E0.42615
G1 X168.681 Y127.459 E0.42895
G1 X167.973 Y127.783 E0.43468
G1 X167.235 Y128.034 E0.44041
G1 X166.475 Y128.207 E0.44614
G1 X165.702 Y128.302 E0.45187
G1 X164.928 Y128.317 E0.45756
G1 X164.547 Y128.305 E0.46037
G1 X163.771 Y128.241 E0.46609
G1 X163.005 Y128.097 E0.47183
G1 X162.258 Y127.876 E0.47756
G1 X161.538 Y127.579 E0.48329
G1 X160.852 Y127.21 E0.48901
G1 X160.527 Y127.013 E0.49181
G1 X159.882 Y126.575 E0.49754
G1 X159.286 Y126.074 E0.50327
G1 X158.744 Y125.514 E0.509
G1 X158.262 Y124.902 E0.51473
G1 X157.839 Y124.232 E0.52056
G1 X157.653 Y123.9 E0.52336
G1 X157.308 Y123.201 E0.52909
G1 X157.036 Y122.472 E0.53481
G1 X156.84 Y121.718 E0.54054
G1 X156.723 Y120.947 E0.54628
G1 X156.685 Y120.19 E0.55185
G1 X156.685 Y119.81 E0.55465
G1 X156.725 Y119.032 E0.56038
G1 X156.844 Y118.262 E0.56611
G1 X157.042 Y117.509 E0.57184
G1 X157.316 Y116.78 E0.57756
G1 X157.653 Y116.1 E0.58315
G1 X157.839 Y115.768 E0.58595
G1 X158.254 Y115.109 E0.59167
G1 X158.735 Y114.496 E0.5974
G1 X159.276 Y113.935 E0.60314
G1 X159.871 Y113.433 E0.60886
G1 X160.527 Y112.987 E0.6147
G1 X160.852 Y112.79 E0.61749
G1 X161.538 Y112.421 E0.62322
G1 X162.258 Y112.124 E0.62895
G1 X163.005 Y111.903 E0.63468
G1 X163.77 Y111.759 E0.6404
G1 X164.547 Y111.695 E0.64614
G1 X164.928 Y111.683 E0.64894
G1 X165.707 Y111.698 E0.65467
G1 X166.48 Y111.793 E0.6604
G1 X167.239 Y111.967 E0.66613
G1 X167.977 Y112.218 E0.67186
G1 X168.681 Y112.541 E0.67756
G1 X169.018 Y112.717 E0.68035
G1 X169.689 Y113.113 E0.68608
G1 X170.316 Y113.575 E0.69181
G1 X170.892 Y114.099 E0.69754
G1 X171.412 Y114.68 E0.70327
G1 X171.862 Y115.299 E0.7089
G1 X172.07 Y115.618 E0.7117
G1 X172.461 Y116.292 E0.71743
G1 X172.782 Y117.002 E0.72317
G1 X173.027 Y117.741 E0.72889
G1 X173.196 Y118.502 E0.73463
G1 X173.286 Y119.275 E0.74035
G1 X173.302 Y119.764 E0.74395
G1 X173.302 Y120.236 E0.74742
G1 X173.262 Y121.014 E0.75315
G1 X173.143 Y121.784 E0.75888
G1 X172.945 Y122.537 E0.76461
G1 X172.671 Y123.266 E0.77033
G1 X172.324 Y123.964 E0.77607
G1 X172.07 Y124.382 E0.77966
G1 X171.862 Y124.701 E0.78247
M204 S625
M205 X6 Y6
G0 F7200 X171.631 Y124.55
M204 S500
M205 X5 Y5
G1 F1800 X171.18 Y125.168 E0.78809
G1 X170.667 Y125.735 E0.79372
G1 X170.098 Y126.246 E0.79934
G1 X169.479 Y126.694 E0.80496
G1 X168.89 Y127.038 E0.80998
G1 X168.553 Y127.214 E0.81277
G1 X167.857 Y127.532 E0.8184
G1 X167.133 Y127.776 E0.82402
G1 X166.386 Y127.943 E0.82965
G1 X165.627 Y128.031 E0.83527
G1 X164.937 Y128.041 E0.84035
G1 X164.556 Y128.029 E0.84315
G1 X163.794 Y127.965 E0.84877
G1 X163.043 Y127.822 E0.8544
G1 X162.311 Y127.601 E0.86002
G1 X161.606 Y127.305 E0.86564
G1 X160.995 Y126.974 E0.87076
G1 X160.67 Y126.777 E0.87355
G1 X160.037 Y126.347 E0.87918
G1 X159.453 Y125.853 E0.8848
G1 X158.924 Y125.301 E0.89043
G1 X158.456 Y124.697 E0.89605
G1 X158.08 Y124.097 E0.90126
G1 X157.894 Y123.765 E0.90405
G1 X157.556 Y123.079 E0.90968
G1 X157.291 Y122.362 E0.9153
G1 X157.102 Y121.621 E0.92093
G1 X156.992 Y120.864 E0.92655
G1 X156.961 Y120.19 E0.93151
G1 X156.961 Y119.81 E0.93431
G1 X157.001 Y119.046 E0.93994
G1 X157.12 Y118.291 E0.94556
G1 X157.318 Y117.552 E0.95118
G1 X157.592 Y116.838 E0.95681
G1 X157.894 Y116.235 E0.96177
G1 X158.08 Y115.903 E0.96457
G1 X158.488 Y115.257 E0.97019
G1 X158.962 Y114.656 E0.97582
G1 X159.495 Y114.108 E0.98144
G1 X160.083 Y113.619 E0.98707
G1 X160.67 Y113.223 E0.99227
G1 X160.995 Y113.026 E0.99507
G1 X161.668 Y112.665 E1.00069
G1 X162.376 Y112.375 E1.00631
G1 X163.11 Y112.162 E1.01193
G1 X163.863 Y112.025 E1.01756
G1 X164.556 Y111.971 E1.02268
G1 X164.937 Y111.959 E1.02548
G1 X165.701 Y111.975 E1.0311
G1 X166.46 Y112.07 E1.03673
G1 X167.204 Y112.245 E1.04235
G1 X167.927 Y112.496 E1.04798
G1 X168.553 Y112.786 E1.05305
G1 X168.89 Y112.962 E1.05585
G1 X169.548 Y113.351 E1.06147
G1 X170.162 Y113.806 E1.06709
G1 X170.726 Y114.324 E1.07272
G1 X171.232 Y114.897 E1.07834
G1 X171.631 Y115.45 E1.08336
G1 X171.839 Y115.769 E1.08616
G1 X172.222 Y116.431 E1.09178
G1 X172.535 Y117.129 E1.09741
G1 X172.773 Y117.855 E1.10303
G1 X172.933 Y118.603 E1.10866
G1 X173.015 Y119.363 E1.11428
G1 X173.026 Y119.764 E1.11723
G1 X173.026 Y120.236 E1.1207
G1 X172.986 Y121 E1.12633
G1 X172.867 Y121.755 E1.13195
G1 X172.669 Y122.494 E1.13758
G1 X172.395 Y123.208 E1.1432
G1 X172.048 Y123.889 E1.14882
G1 X171.839 Y124.231 E1.15177
G1 X171.631 Y124.55 E1.15457
M204 S625
M205 X6 Y6
G0 F7200 X171.399 Y124.399
M204 S500
M205 X5 Y5
G1 F1800 X170.957 Y125.005 E1.16009
G1 X170.452 Y125.56 E1.16561
G1 X169.892 Y126.058 E1.17112
G1 X169.281 Y126.494 E1.17664
G1 X168.762 Y126.793 E1.18104
G1 X168.425 Y126.969 E1.18384
G1 X167.743 Y127.281 E1.18936
G1 X167.031 Y127.518 E1.19488
G1 X166.298 Y127.678 E1.20039
G1 X165.552 Y127.758 E1.20591
G1 X164.945 Y127.766 E1.21038
G1 X164.564 Y127.754 E1.21318
G1 X163.817 Y127.69 E1.2187
G1 X163.081 Y127.547 E1.22421
G1 X162.364 Y127.327 E1.22973
G1 X161.674 Y127.032 E1.23524
G1 X161.138 Y126.738 E1.23974
G1 X160.813 Y126.541 E1.24254
G1 X160.193 Y126.118 E1.24806
G1 X159.622 Y125.632 E1.25357
G1 X159.105 Y125.088 E1.25909
G1 X158.65 Y124.492 E1.26461
G1 X158.321 Y123.962 E1.26919
G1 X158.135 Y123.63 E1.27199
G1 X157.804 Y122.957 E1.27751
G1 X157.546 Y122.252 E1.28303
G1 X157.365 Y121.525 E1.28854
G1 X157.262 Y120.782 E1.29406
G1 X157.237 Y120.19 E1.29842
G1 X157.237 Y119.81 E1.30121
G1 X157.277 Y119.061 E1.30673
G1 X157.396 Y118.32 E1.31225
G1 X157.594 Y117.597 E1.31776
G1 X157.868 Y116.898 E1.32328
G1 X158.135 Y116.37 E1.32763
G1 X158.321 Y116.038 E1.33043
G1 X158.722 Y115.404 E1.33595
G1 X159.188 Y114.817 E1.34146
G1 X159.714 Y114.282 E1.34698
G1 X160.294 Y113.806 E1.3525
G1 X160.813 Y113.459 E1.35709
G1 X161.138 Y113.262 E1.35989
G1 X161.799 Y112.908 E1.3654
G1 X162.494 Y112.627 E1.37092
G1 X163.215 Y112.42 E1.37643
G1 X163.955 Y112.292 E1.38196
G1 X164.564 Y112.246 E1.38645
G1 X164.945 Y112.234 E1.38925
G1 X165.695 Y112.251 E1.39477
G1 X166.439 Y112.347 E1.40029
G1 X167.169 Y112.522 E1.40581
G1 X167.875 Y112.773 E1.41132
G1 X168.425 Y113.031 E1.41579
G1 X168.762 Y113.207 E1.41858
G1 X169.408 Y113.589 E1.4241
G1 X170.009 Y114.037 E1.42962
G1 X170.559 Y114.548 E1.43514
G1 X171.051 Y115.113 E1.44065
G1 X171.399 Y115.601 E1.44506
G1 X171.607 Y115.92 E1.44786
G1 X171.983 Y116.569 E1.45337
G1 X172.287 Y117.255 E1.45889
G1 X172.517 Y117.969 E1.46441
G1 X172.67 Y118.703 E1.46992
G1 X172.75 Y119.764 E1.47775
G1 X172.75 Y120.236 E1.48122
G1 X172.71 Y120.985 E1.48674
G1 X172.591 Y121.726 E1.49226
G1 X172.393 Y122.449 E1.49777
G1 X172.119 Y123.148 E1.50329
G1 X171.607 Y124.08 E1.51112
G1 X171.399 Y124.399 E1.51392
M204 S625
M205 X6 Y6
G0 F7200 X171.168 Y124.248
M204 S500
M205 X5 Y5
G1 F1800 X170.734 Y124.841 E1.51932
G1 X170.238 Y125.384 E1.52473
G1 X169.685 Y125.869 E1.53014
G1 X169.084 Y126.292 E1.53555
G1 X168.634 Y126.549 E1.53936
G1 X168.297 Y126.725 E1.54215
G1 X167.628 Y127.029 E1.54756
G1 X166.93 Y127.259 E1.55296
G1 X166.211 Y127.412 E1.55837
G1 X165.479 Y127.486 E1.56378
G1 X164.954 Y127.49 E1.56764
G1 X164.573 Y127.478 E1.57045
G1 X163.841 Y127.415 E1.57585
G1 X163.119 Y127.272 E1.58126
G1 X162.418 Y127.053 E1.58666
G1 X161.744 Y126.758 E1.59208
G1 X161.281 Y126.502 E1.59597
G1 X160.956 Y126.305 E1.59876
G1 X160.349 Y125.89 E1.60417
G1 X159.79 Y125.412 E1.60958
G1 X159.287 Y124.876 E1.61499
G1 X158.845 Y124.288 E1.6204
G1 X158.562 Y123.827 E1.62437
G1 X158.376 Y123.495 E1.62717
G1 X158.052 Y122.835 E1.63258
G1 X157.801 Y122.144 E1.63799
G1 X157.628 Y121.429 E1.6434
G1 X157.532 Y120.7 E1.64881
G1 X157.513 Y120.19 E1.65256
G1 X157.513 Y119.81 E1.65536
G1 X157.553 Y119.076 E1.66076
G1 X157.672 Y118.35 E1.66617
G1 X157.87 Y117.642 E1.67158
G1 X158.143 Y116.96 E1.67698
G1 X158.376 Y116.505 E1.68074
G1 X158.562 Y116.173 E1.68354
G1 X158.955 Y115.552 E1.68895
G1 X159.414 Y114.978 E1.69435
G1 X159.933 Y114.456 E1.69977
G1 X160.505 Y113.994 E1.70517
G1 X160.956 Y113.695 E1.70915
G1 X161.281 Y113.498 E1.71195
G1 X161.929 Y113.152 E1.71735
G1 X162.612 Y112.878 E1.72276
G1 X163.32 Y112.68 E1.72817
G1 X164.045 Y112.56 E1.73358
G1 X164.573 Y112.522 E1.73747
G1 X164.954 Y112.51 E1.74027
G1 X165.689 Y112.527 E1.74568
G1 X166.418 Y112.624 E1.75109
G1 X167.132 Y112.799 E1.7565
G1 X167.823 Y113.05 E1.7619
G1 X168.297 Y113.275 E1.76576
G1 X168.634 Y113.451 E1.76856
G1 X169.267 Y113.826 E1.77397
G1 X169.854 Y114.268 E1.77938
G1 X170.391 Y114.771 E1.78479
G1 X170.869 Y115.329 E1.79019
G1 X171.168 Y115.752 E1.794
G1 X171.376 Y116.071 E1.7968
G1 X171.744 Y116.707 E1.80221
G1 X172.04 Y117.38 E1.80761
G1 X172.261 Y118.082 E1.81303
G1 X172.405 Y118.803 E1.81843
G1 X172.474 Y119.764 E1.82552
G1 X172.474 Y120.236 E1.82899
G1 X172.434 Y120.97 E1.8344
G1 X172.315 Y121.696 E1.83981
G1 X172.117 Y122.404 E1.84522
G1 X171.844 Y123.086 E1.85062
G1 X171.376 Y123.929 E1.85771
G1 X171.168 Y124.248 E1.86051
M204 S625
M205 X6 Y6
G0 F7200 X170.937 Y124.098
M204 S500
M205 X5 Y5
G1 F1800 X170.511 Y124.678 E1.8658
G1 X170.023 Y125.208 E1.8711
G1 X169.479 Y125.68 E1.8764
G1 X168.887 Y126.089 E1.88169
G1 X168.507 Y126.304 E1.8849
G1 X168.17 Y126.48 E1.8877
G1 X167.514 Y126.778 E1.893
G1 X166.829 Y127 E1.8983
G1 X166.124 Y127.146 E1.90359
G1 X165.407 Y127.213 E1.90889
G1 X164.963 Y127.214 E1.91215
G1 X164.582 Y127.202 E1.91496
G1 X163.864 Y127.139 E1.92026
G1 X163.159 Y126.997 E1.92555
G1 X162.473 Y126.778 E1.93084
G1 X161.815 Y126.485 E1.93614
G1 X161.424 Y126.266 E1.93944
G1 X161.099 Y126.069 E1.94223
G1 X160.505 Y125.662 E1.94753
G1 X159.959 Y125.192 E1.95283
G1 X159.47 Y124.664 E1.95812
G1 X159.041 Y124.085 E1.96342
G1 X158.803 Y123.692 E1.9668
G1 X158.617 Y123.36 E1.9696
G1 X158.3 Y122.713 E1.9749
G1 X158.057 Y122.036 E1.98019
G1 X157.891 Y121.335 E1.98549
G1 X157.803 Y120.62 E1.99078
G1 X157.789 Y120.19 E1.99395
G1 X157.789 Y119.81 E1.99674
G1 X157.829 Y119.091 E2.00204
G1 X157.948 Y118.381 E2.00734
G1 X158.146 Y117.688 E2.01264
G1 X158.419 Y117.022 E2.01793
G1 X158.617 Y116.64 E2.02109
G1 X158.803 Y116.308 E2.02389
G1 X159.189 Y115.7 E2.02919
G1 X159.64 Y115.139 E2.03448
G1 X160.151 Y114.631 E2.03978
G1 X160.714 Y114.184 E2.04507
G1 X161.099 Y113.931 E2.04846
G1 X161.424 Y113.734 E2.05125
G1 X162.059 Y113.396 E2.05655
G1 X162.729 Y113.13 E2.06185
G1 X163.423 Y112.94 E2.06714
G1 X164.134 Y112.828 E2.07243
G1 X164.582 Y112.798 E2.07574
G1 X164.963 Y112.786 E2.07854
G1 X165.683 Y112.804 E2.08384
G1 X166.396 Y112.901 E2.08913
G1 X167.094 Y113.076 E2.09442
G1 X167.769 Y113.328 E2.09972
G1 X168.17 Y113.52 E2.10299
G1 X168.507 Y113.696 E2.10579
G1 X169.125 Y114.064 E2.11108
G1 X169.699 Y114.499 E2.11637
G1 X170.222 Y114.994 E2.12167
G1 X170.686 Y115.545 E2.12697
G1 X170.937 Y115.902 E2.13018
G1 X171.145 Y116.221 E2.13298
G1 X171.504 Y116.845 E2.13827
G1 X171.792 Y117.506 E2.14358
G1 X172.005 Y118.193 E2.14887
G1 X172.14 Y118.901 E2.15417
G1 X172.198 Y119.764 E2.16053
G1 X172.198 Y120.236 E2.164
G1 X172.158 Y120.955 E2.1693
G1 X172.039 Y121.665 E2.17459
G1 X171.841 Y122.358 E2.17989
G1 X171.568 Y123.024 E2.18519
G1 X171.145 Y123.779 E2.19155
G1 X170.937 Y124.098 E2.19435
M204 S625
M205 X6 Y6
G0 F7200 X170.706 Y123.947
M204 S500
M205 X5 Y5
G1 F1800 X170.288 Y124.514 E2.19954
G1 X169.809 Y125.031 E2.20472
G1 X169.274 Y125.489 E2.2099
G1 X168.691 Y125.885 E2.21508
G1 X168.379 Y126.06 E2.21771
G1 X168.042 Y126.236 E2.22051
G1 X167.4 Y126.526 E2.22569
G1 X166.729 Y126.741 E2.23087
G1 X166.038 Y126.88 E2.23606
G1 X165.336 Y126.939 E2.24124
G1 X164.972 Y126.938 E2.24392
G1 X164.591 Y126.926 E2.24672
G1 X163.889 Y126.864 E2.2519
G1 X163.198 Y126.723 E2.25709
G1 X162.529 Y126.504 E2.26227
G1 X161.888 Y126.211 E2.26745
G1 X161.567 Y126.03 E2.27016
G1 X161.242 Y125.833 E2.27296
G1 X160.661 Y125.434 E2.27814
G1 X160.129 Y124.972 E2.28332
G1 X159.653 Y124.452 E2.28851
G1 X159.239 Y123.883 E2.29368
G1 X159.043 Y123.557 E2.29648
G1 X158.857 Y123.225 E2.29928
G1 X158.548 Y122.592 E2.30446
G1 X158.313 Y121.928 E2.30964
G1 X158.155 Y121.241 E2.31483
G1 X158.065 Y120.19 E2.32258
G1 X158.065 Y119.81 E2.32538
G1 X158.105 Y119.107 E2.33056
G1 X158.224 Y118.412 E2.33574
G1 X158.422 Y117.736 E2.34092
G1 X158.857 Y116.775 E2.34868
G1 X159.043 Y116.443 E2.35148
G1 X159.422 Y115.849 E2.35666
G1 X159.866 Y115.301 E2.36185
G1 X160.368 Y114.808 E2.36703
G1 X160.924 Y114.374 E2.37221
G1 X161.242 Y114.167 E2.375
G1 X161.567 Y113.97 E2.3778
G1 X162.189 Y113.64 E2.38298
G1 X162.845 Y113.382 E2.38816
G1 X163.526 Y113.2 E2.39335
G1 X164.222 Y113.097 E2.39852
G1 X164.591 Y113.074 E2.40124
G1 X164.972 Y113.062 E2.40405
G1 X165.676 Y113.08 E2.40923
G1 X166.374 Y113.177 E2.41441
G1 X167.056 Y113.353 E2.41959
G1 X167.714 Y113.605 E2.42477
G1 X168.042 Y113.764 E2.42745
G1 X168.379 Y113.94 E2.43025
G1 X168.984 Y114.302 E2.43543
G1 X169.544 Y114.729 E2.44061
G1 X170.052 Y115.217 E2.44579
G1 X170.502 Y115.759 E2.45098
G1 X170.706 Y116.053 E2.45361
G1 X170.914 Y116.372 E2.45641
G1 X171.265 Y116.983 E2.46159
G1 X171.544 Y117.63 E2.46677
G1 X171.748 Y118.304 E2.47195
G1 X171.875 Y118.998 E2.47714
G1 X171.922 Y119.764 E2.48279
G1 X171.922 Y120.236 E2.48626
G1 X171.882 Y120.939 E2.49144
G1 X171.763 Y121.634 E2.49662
G1 X171.565 Y122.31 E2.5018
G1 X171.293 Y122.96 E2.50699
G1 X170.914 Y123.628 E2.51263
G1 X170.706 Y123.947 E2.51544
M204 S625
M205 X6 Y6
G0 F7200 X170.475 Y123.796
M204 S500
M205 X5 Y5
G1 F1800 X170.066 Y124.35 E2.5205
G1 X169.595 Y124.853 E2.52557
G1 X169.07 Y125.298 E2.53063
G1 X168.251 Y125.815 E2.53775
G1 X167.914 Y125.991 E2.54055
G1 X167.286 Y126.274 E2.54562
G1 X166.63 Y126.482 E2.55068
G1 X165.953 Y126.613 E2.55575
G1 X164.98 Y126.662 E2.56291
G1 X164.599 Y126.65 E2.56572
G1 X163.913 Y126.588 E2.57078
G1 X163.239 Y126.448 E2.57585
G1 X162.586 Y126.23 E2.58091
G1 X161.71 Y125.794 E2.58811
G1 X161.385 Y125.597 E2.5909
G1 X160.818 Y125.206 E2.59597
G1 X160.3 Y124.752 E2.60103
G1 X159.838 Y124.242 E2.6061
G1 X159.284 Y123.422 E2.61337
G1 X159.098 Y123.09 E2.61617
G1 X158.797 Y122.471 E2.62124
G1 X158.57 Y121.821 E2.6263
G1 X158.419 Y121.149 E2.63136
G1 X158.341 Y120.19 E2.63844
G1 X158.341 Y119.81 E2.64124
G1 X158.381 Y119.122 E2.64631
G1 X158.5 Y118.444 E2.65137
G1 X158.697 Y117.784 E2.65643
G1 X159.098 Y116.91 E2.66351
G1 X159.284 Y116.578 E2.66631
G1 X159.655 Y115.997 E2.67138
G1 X160.091 Y115.464 E2.67644
G1 X160.585 Y114.985 E2.6815
G1 X161.385 Y114.403 E2.68878
G1 X161.71 Y114.206 E2.69157
G1 X162.319 Y113.884 E2.69664
G1 X162.961 Y113.635 E2.7017
G1 X163.627 Y113.461 E2.70677
G1 X164.599 Y113.35 E2.71396
G1 X164.98 Y113.338 E2.71677
G1 X165.669 Y113.356 E2.72183
G1 X166.35 Y113.454 E2.7269
G1 X167.016 Y113.63 E2.73196
G1 X167.914 Y114.009 E2.73913
G1 X168.251 Y114.185 E2.74193
G1 X168.842 Y114.539 E2.74699
G1 X169.388 Y114.959 E2.75206
G1 X169.882 Y115.439 E2.75713
G1 X170.475 Y116.204 E2.76425
G1 X170.683 Y116.523 E2.76705
G1 X171.025 Y117.121 E2.77211
G1 X171.295 Y117.754 E2.77717
G1 X171.491 Y118.414 E2.78224
G1 X171.608 Y119.093 E2.78731
G1 X171.646 Y119.764 E2.79225
G1 X171.646 Y120.236 E2.79572
G1 X171.606 Y120.924 E2.80079
G1 X171.487 Y121.602 E2.80585
G1 X171.29 Y122.262 E2.81092
G1 X171.017 Y122.894 E2.81598
G1 X170.683 Y123.477 E2.82092
G1 X170.475 Y123.796 E2.82372
M204 S625
M205 X6 Y6
G0 F7200 X170.243 Y123.645
M204 S500
M205 X5 Y5
G1 F1800 X169.843 Y124.186 E2.82867
G1 X169.382 Y124.675 E2.83362
G1 X168.866 Y125.106 E2.83856
G1 X168.123 Y125.57 E2.845
G1 X167.786 Y125.746 E2.8478
G1 X167.173 Y126.022 E2.85274
G1 X166.531 Y126.222 E2.85769
G1 X165.87 Y126.345 E2.86263
G1 X164.989 Y126.386 E2.86912
G1 X164.608 Y126.374 E2.87192
G1 X163.938 Y126.313 E2.87687
G1 X163.28 Y126.173 E2.88182
G1 X162.644 Y125.956 E2.88676
G1 X161.853 Y125.558 E2.89328
G1 X161.528 Y125.361 E2.89607
G1 X160.975 Y124.978 E2.90102
G1 X160.471 Y124.533 E2.90596
G1 X160.023 Y124.031 E2.91091
G1 X159.525 Y123.287 E2.9175
G1 X159.339 Y122.955 E2.9203
G1 X159.046 Y122.35 E2.92524
G1 X158.826 Y121.715 E2.93018
G1 X158.684 Y121.057 E2.93513
G1 X158.617 Y120.19 E2.94153
G1 X158.617 Y119.81 E2.94432
G1 X158.657 Y119.139 E2.94927
G1 X158.776 Y118.477 E2.95422
G1 X158.973 Y117.834 E2.95916
G1 X159.339 Y117.045 E2.96556
G1 X159.525 Y116.713 E2.96836
G1 X159.888 Y116.146 E2.97331
G1 X160.315 Y115.627 E2.97825
G1 X160.802 Y115.163 E2.9832
G1 X161.528 Y114.639 E2.98978
G1 X161.853 Y114.442 E2.99258
G1 X162.448 Y114.129 E2.99752
G1 X163.076 Y113.888 E3.00247
G1 X163.728 Y113.723 E3.00742
G1 X164.608 Y113.626 E3.01393
G1 X164.989 Y113.614 E3.01673
G1 X165.661 Y113.633 E3.02168
G1 X166.326 Y113.731 E3.02662
G1 X166.975 Y113.908 E3.03157
G1 X167.786 Y114.254 E3.03806
G1 X168.123 Y114.43 E3.04085
G1 X168.7 Y114.776 E3.0458
G1 X169.231 Y115.188 E3.05074
G1 X169.71 Y115.66 E3.05569
G1 X170.243 Y116.355 E3.06213
G1 X170.451 Y116.674 E3.06493
G1 X170.785 Y117.258 E3.06988
G1 X171.046 Y117.877 E3.07482
G1 X171.232 Y118.524 E3.07977
G1 X171.341 Y119.187 E3.08471
G1 X171.37 Y119.764 E3.08896
G1 X171.37 Y120.236 E3.09243
G1 X171.33 Y120.907 E3.09738
G1 X171.211 Y121.569 E3.10233
G1 X171.014 Y122.212 E3.10727
G1 X170.742 Y122.827 E3.11222
G1 X170.451 Y123.326 E3.11647
G1 X170.243 Y123.645 E3.11927
M204 S625
M205 X6 Y6
G0 F7200 X170.012 Y123.495
M204 S500
M205 X5 Y5
G1 F1800 X169.621 Y124.021 E3.12409
G1 X169.169 Y124.496 E3.12891
G1 X168.662 Y124.913 E3.13374
G1 X167.995 Y125.326 E3.13951
G1 X167.658 Y125.502 E3.1423
G1 X167.06 Y125.769 E3.14712
G1 X166.433 Y125.962 E3.15195
G1 X165.787 Y126.077 E3.15677
G1 X164.998 Y126.11 E3.16258
G1 X164.617 Y126.098 E3.16538
G1 X163.964 Y126.038 E3.17021
G1 X163.323 Y125.898 E3.17503
G1 X162.704 Y125.682 E3.17985
G1 X161.996 Y125.321 E3.1857
G1 X161.671 Y125.124 E3.18849
G1 X161.132 Y124.751 E3.19332
G1 X160.642 Y124.315 E3.19814
G1 X160.209 Y123.822 E3.20297
G1 X159.766 Y123.153 E3.20887
G1 X159.58 Y122.821 E3.21167
G1 X159.295 Y122.23 E3.21649
G1 X159.083 Y121.609 E3.22132
G1 X158.949 Y120.967 E3.22614
G1 X158.893 Y120.19 E3.23187
G1 X158.893 Y119.81 E3.23467
G1 X158.933 Y119.155 E3.23949
G1 X159.052 Y118.51 E3.24432
G1 X159.249 Y117.885 E3.24914
G1 X159.58 Y117.179 E3.25487
G1 X159.766 Y116.847 E3.25767
G1 X160.12 Y116.296 E3.26249
G1 X160.54 Y115.792 E3.26731
G1 X161.017 Y115.342 E3.27214
G1 X161.671 Y114.876 E3.27804
G1 X161.996 Y114.679 E3.28084
G1 X162.577 Y114.373 E3.28567
G1 X163.19 Y114.141 E3.29049
G1 X163.827 Y113.985 E3.29531
G1 X164.617 Y113.902 E3.30115
G1 X164.998 Y113.89 E3.30396
G1 X165.653 Y113.909 E3.30878
G1 X166.302 Y114.008 E3.31361
G1 X166.933 Y114.185 E3.31843
G1 X167.658 Y114.498 E3.32423
G1 X167.995 Y114.674 E3.32703
G1 X168.557 Y115.013 E3.33186
G1 X169.074 Y115.417 E3.33668
G1 X169.537 Y115.881 E3.3415
G1 X170.012 Y116.505 E3.34727
G1 X170.22 Y116.824 E3.35007
G1 X170.544 Y117.395 E3.3549
G1 X170.797 Y118 E3.35972
G1 X170.974 Y118.632 E3.36455
G1 X171.072 Y119.28 E3.36937
G1 X171.094 Y119.764 E3.37293
G1 X171.094 Y120.236 E3.37641
G1 X171.054 Y120.891 E3.38123
G1 X170.935 Y121.536 E3.38606
G1 X170.738 Y122.161 E3.39088
G1 X170.466 Y122.758 E3.3957
G1 X170.22 Y123.176 E3.39927
G1 X170.012 Y123.495 E3.40207
M204 S625
M205 X6 Y6
G0 F7200 X169.781 Y123.344
M204 S500
M205 X5 Y5
G1 F1800 X169.399 Y123.856 E3.40677
G1 X168.957 Y124.317 E3.41147
G1 X168.46 Y124.718 E3.41616
G1 X167.868 Y125.081 E3.42127
G1 X167.531 Y125.257 E3.42407
G1 X166.947 Y125.517 E3.42877
G1 X166.336 Y125.701 E3.43346
G1 X165.706 Y125.808 E3.43816
G1 X165.006 Y125.834 E3.44331
G1 X164.625 Y125.822 E3.44612
G1 X163.989 Y125.762 E3.45082
G1 X163.366 Y125.624 E3.45551
G1 X162.764 Y125.408 E3.46021
G1 X162.139 Y125.085 E3.46539
G1 X161.814 Y124.888 E3.46818
G1 X161.29 Y124.524 E3.47287
G1 X160.815 Y124.097 E3.47757
G1 X160.397 Y123.613 E3.48228
G1 X160.006 Y123.018 E3.48751
G1 X159.82 Y122.686 E3.49031
G1 X159.544 Y122.11 E3.49501
G1 X159.341 Y121.504 E3.49971
G1 X159.216 Y120.878 E3.5044
G1 X159.169 Y120.19 E3.50948
G1 X159.169 Y119.81 E3.51227
G1 X159.209 Y119.172 E3.51697
G1 X159.328 Y118.545 E3.52167
G1 X159.525 Y117.937 E3.52637
G1 X159.82 Y117.314 E3.53144
G1 X160.006 Y116.982 E3.53424
G1 X160.353 Y116.446 E3.53893
G1 X160.764 Y115.956 E3.54364
G1 X161.232 Y115.522 E3.54833
G1 X161.814 Y115.112 E3.55357
G1 X162.139 Y114.915 E3.55636
G1 X162.705 Y114.618 E3.56106
G1 X163.304 Y114.395 E3.56576
G1 X163.925 Y114.248 E3.57046
G1 X164.625 Y114.178 E3.57563
G1 X165.006 Y114.166 E3.57844
G1 X165.645 Y114.185 E3.58314
G1 X166.276 Y114.285 E3.58784
G1 X166.889 Y114.462 E3.59253
G1 X167.531 Y114.743 E3.59768
G1 X167.868 Y114.919 E3.60048
G1 X168.414 Y115.25 E3.60518
G1 X168.915 Y115.646 E3.60987
G1 X169.363 Y116.102 E3.61457
G1 X169.781 Y116.656 E3.61968
G1 X169.989 Y116.975 E3.62248
G1 X170.304 Y117.531 E3.62718
G1 X170.547 Y118.122 E3.63188
G1 X170.714 Y118.738 E3.63657
G1 X170.803 Y119.371 E3.64128
G1 X170.818 Y119.764 E3.64417
G1 X170.818 Y120.236 E3.64764
G1 X170.778 Y120.874 E3.65234
G1 X170.659 Y121.501 E3.65704
G1 X170.462 Y122.109 E3.66174
G1 X170.191 Y122.687 E3.66643
G1 X169.989 Y123.025 E3.66933
G1 X169.781 Y123.344 E3.67213
M204 S625
M205 X6 Y6
G0 F7200 X169.55 Y123.193
M204 S500
M205 X5 Y5
G1 F1800 X169.178 Y123.691 E3.6767
G1 X168.745 Y124.136 E3.68127
G1 X168.258 Y124.523 E3.68584
G1 X167.74 Y124.836 E3.69029
G1 X167.403 Y125.012 E3.69309
G1 X166.835 Y125.264 E3.69766
G1 X166.239 Y125.44 E3.70223
G1 X165.626 Y125.539 E3.7068
G1 X165.015 Y125.559 E3.71129
G1 X164.634 Y125.547 E3.7141
G1 X164.016 Y125.487 E3.71866
G1 X163.41 Y125.349 E3.72323
G1 X162.827 Y125.134 E3.72781
G1 X162.282 Y124.849 E3.73233
G1 X161.957 Y124.652 E3.73512
G1 X161.448 Y124.297 E3.73969
G1 X160.988 Y123.879 E3.74426
G1 X160.586 Y123.405 E3.74883
G1 X160.247 Y122.883 E3.75341
G1 X160.061 Y122.551 E3.75621
G1 X159.793 Y121.99 E3.76078
G1 X159.599 Y121.4 E3.76535
G1 X159.482 Y120.79 E3.76992
G1 X159.445 Y120.19 E3.77434
G1 X159.445 Y119.81 E3.77713
G1 X159.485 Y119.19 E3.7817
G1 X159.604 Y118.58 E3.78627
G1 X159.801 Y117.991 E3.79084
G1 X160.061 Y117.449 E3.79526
G1 X160.247 Y117.117 E3.79806
G1 X160.585 Y116.596 E3.80263
G1 X160.987 Y116.122 E3.8072
G1 X161.447 Y115.704 E3.81177
G1 X161.957 Y115.348 E3.81635
G1 X162.282 Y115.151 E3.81914
G1 X162.833 Y114.863 E3.82371
G1 X163.416 Y114.649 E3.82828
G1 X164.022 Y114.512 E3.83285
G1 X164.634 Y114.453 E3.83737
G1 X165.015 Y114.441 E3.84018
G1 X165.636 Y114.462 E3.84475
G1 X166.249 Y114.562 E3.84932
G1 X166.844 Y114.74 E3.85388
G1 X167.403 Y114.988 E3.85838
G1 X167.74 Y115.164 E3.86118
G1 X168.271 Y115.486 E3.86574
G1 X168.756 Y115.874 E3.87031
G1 X169.188 Y116.321 E3.87488
G1 X169.55 Y116.807 E3.87934
G1 X169.758 Y117.126 E3.88214
G1 X170.063 Y117.667 E3.88671
G1 X170.296 Y118.243 E3.89128
G1 X170.454 Y118.844 E3.89585
G1 X170.542 Y119.764 E3.90265
G1 X170.542 Y120.236 E3.90612
G1 X170.502 Y120.856 E3.91069
G1 X170.383 Y121.466 E3.91526
G1 X170.186 Y122.055 E3.91983
G1 X169.758 Y122.874 E3.92663
G1 X169.55 Y123.193 E3.92943
M204 S625
M205 X6 Y6
G0 F7200 X169.319 Y123.042
M204 S500
M205 X5 Y5
G1 F1800 X168.956 Y123.525 E3.93387
G1 X168.534 Y123.955 E3.9383
G1 X168.058 Y124.326 E3.94274
G1 X167.612 Y124.592 E3.94656
G1 X167.275 Y124.768 E3.94936
G1 X166.723 Y125.011 E3.95379
G1 X166.144 Y125.179 E3.95823
G1 X165.547 Y125.269 E3.96267
G1 X165.024 Y125.283 E3.96651
G1 X164.643 Y125.271 E3.96932
G1 X164.042 Y125.212 E3.97376
G1 X163.455 Y125.074 E3.97819
G1 X162.891 Y124.86 E3.98263
G1 X162.425 Y124.613 E3.98651
G1 X162.1 Y124.416 E3.98931
G1 X161.606 Y124.07 E3.99374
G1 X161.162 Y123.662 E3.99818
G1 X160.776 Y123.198 E4.00262
G1 X160.488 Y122.748 E4.00655
G1 X160.302 Y122.416 E4.00934
G1 X160.043 Y121.871 E4.01378
G1 X159.858 Y121.297 E4.01822
G1 X159.75 Y120.703 E4.02266
G1 X159.721 Y120.19 E4.02644
G1 X159.721 Y119.81 E4.02923
G1 X159.761 Y119.208 E4.03367
G1 X159.88 Y118.617 E4.0381
G1 X160.076 Y118.046 E4.04254
G1 X160.302 Y117.584 E4.04633
G1 X160.488 Y117.252 E4.04913
G1 X160.817 Y116.747 E4.05356
G1 X161.21 Y116.289 E4.058
G1 X161.66 Y115.887 E4.06244
G1 X162.1 Y115.584 E4.06636
G1 X162.425 Y115.387 E4.06916
G1 X162.961 Y115.109 E4.0736
G1 X163.528 Y114.904 E4.07803
G1 X164.118 Y114.776 E4.08248
G1 X164.643 Y114.729 E4.08635
G1 X165.024 Y114.717 E4.08916
G1 X165.627 Y114.738 E4.09359
G1 X166.221 Y114.839 E4.09802
G1 X166.798 Y115.017 E4.10247
G1 X167.275 Y115.232 E4.10631
G1 X167.612 Y115.408 E4.10911
G1 X168.127 Y115.722 E4.11355
G1 X168.596 Y116.102 E4.11799
G1 X169.011 Y116.54 E4.12242
G1 X169.319 Y116.958 E4.12624
G1 X169.527 Y117.277 E4.12904
G1 X169.822 Y117.803 E4.13348
G1 X170.045 Y118.363 E4.13791
G1 X170.192 Y118.948 E4.14235
G1 X170.266 Y119.764 E4.14838
G1 X170.266 Y120.236 E4.15185
G1 X170.226 Y120.838 E4.15628
G1 X170.107 Y121.429 E4.16072
G1 X169.911 Y122 E4.16516
G1 X169.527 Y122.723 E4.17118
G1 X169.319 Y123.042 E4.17398
M204 S625
M205 X6 Y6
G0 F7200 X169.088 Y122.892
M204 S500
M205 X5 Y5
G1 F1800 X168.735 Y123.358 E4.17828
G1 X168.323 Y123.773 E4.18258
G1 X167.858 Y124.127 E4.18688
G1 X167.484 Y124.347 E4.19007
G1 X167.147 Y124.523 E4.19287
G1 X166.612 Y124.758 E4.19717
G1 X166.049 Y124.917 E4.20147
G1 X165.47 Y124.998 E4.20577
G1 X165.032 Y125.007 E4.20899
G1 X164.651 Y124.995 E4.21179
G1 X164.07 Y124.937 E4.21609
G1 X163.501 Y124.8 E4.22039
G1 X162.957 Y124.586 E4.22469
G1 X162.568 Y124.377 E4.22794
G1 X162.243 Y124.18 E4.23074
G1 X161.765 Y123.844 E4.23503
G1 X161.338 Y123.445 E4.23933
G1 X160.968 Y122.992 E4.24363
G1 X160.729 Y122.613 E4.24693
G1 X160.543 Y122.281 E4.24973
G1 X160.293 Y121.753 E4.25402
G1 X160.117 Y121.195 E4.25833
G1 X160.019 Y120.619 E4.26262
G1 X159.997 Y120.19 E4.26578
G1 X159.997 Y119.81 E4.26858
G1 X160.037 Y119.227 E4.27288
G1 X160.156 Y118.654 E4.27718
G1 X160.352 Y118.103 E4.28148
G1 X160.543 Y117.719 E4.28464
G1 X160.729 Y117.387 E4.28744
G1 X161.049 Y116.898 E4.29173
G1 X161.432 Y116.457 E4.29603
G1 X161.873 Y116.072 E4.30034
G1 X162.243 Y115.82 E4.30363
G1 X162.568 Y115.623 E4.30642
G1 X163.088 Y115.354 E4.31073
G1 X163.639 Y115.16 E4.31503
G1 X164.212 Y115.042 E4.31933
G1 X164.651 Y115.005 E4.32257
G1 X165.032 Y114.993 E4.32537
G1 X165.617 Y115.015 E4.32968
G1 X166.192 Y115.116 E4.33397
G1 X166.749 Y115.294 E4.33827
G1 X167.147 Y115.477 E4.34149
G1 X167.484 Y115.653 E4.34429
G1 X167.983 Y115.958 E4.34859
G1 X168.435 Y116.329 E4.35289
G1 X168.833 Y116.758 E4.3572
G1 X169.088 Y117.108 E4.36038
G1 X169.296 Y117.427 E4.36318
G1 X169.581 Y117.938 E4.36749
G1 X169.794 Y118.482 E4.37178
G1 X169.93 Y119.051 E4.37609
G1 X169.99 Y119.764 E4.38135
G1 X169.99 Y120.236 E4.38482
G1 X169.95 Y120.819 E4.38912
G1 X169.831 Y121.392 E4.39342
G1 X169.635 Y121.943 E4.39772
G1 X169.296 Y122.573 E4.40299
G1 X169.088 Y122.892 E4.40579
M204 S625
M205 X6 Y6
G0 F7200 X168.856 Y122.741
M204 S500
M205 X5 Y5
G1 F1800 X168.515 Y123.192 E4.40995
G1 X168.113 Y123.59 E4.41411
G1 X167.659 Y123.927 E4.41826
G1 X167.357 Y124.102 E4.42083
G1 X167.02 Y124.278 E4.42363
G1 X166.501 Y124.504 E4.42779
G1 X165.956 Y124.654 E4.43195
G1 X165.395 Y124.726 E4.43611
G1 X165.041 Y124.731 E4.43871
G1 X164.66 Y124.719 E4.44152
G1 X164.097 Y124.661 E4.44568
G1 X163.549 Y124.525 E4.44983
G1 X163.025 Y124.313 E4.45399
G1 X162.712 Y124.141 E4.45662
G1 X162.387 Y123.944 E4.45941
G1 X161.925 Y123.618 E4.46357
G1 X161.514 Y123.229 E4.46773
G1 X161.162 Y122.787 E4.47189
G1 X160.97 Y122.478 E4.47456
G1 X160.784 Y122.146 E4.47736
G1 X160.543 Y121.634 E4.48152
G1 X160.376 Y121.094 E4.48568
G1 X160.288 Y120.535 E4.48984
G1 X160.273 Y120.19 E4.49238
G1 X160.273 Y119.81 E4.49518
G1 X160.313 Y119.246 E4.49934
G1 X160.432 Y118.693 E4.5035
G1 X160.628 Y118.163 E4.50765
G1 X160.784 Y117.854 E4.5102
G1 X160.97 Y117.522 E4.513
G1 X161.28 Y117.049 E4.51716
G1 X161.654 Y116.625 E4.52132
G1 X162.084 Y116.258 E4.52547
G1 X162.387 Y116.056 E4.52815
G1 X162.712 Y115.859 E4.53095
G1 X163.215 Y115.6 E4.53511
G1 X163.749 Y115.416 E4.53926
G1 X164.304 Y115.308 E4.54342
G1 X164.66 Y115.281 E4.54605
G1 X165.041 Y115.269 E4.54885
G1 X165.606 Y115.291 E4.55301
G1 X166.162 Y115.393 E4.55717
G1 X166.699 Y115.572 E4.56133
G1 X167.02 Y115.722 E4.56394
G1 X167.357 Y115.898 E4.56673
G1 X167.838 Y116.194 E4.57089
G1 X168.273 Y116.556 E4.57505
G1 X168.653 Y116.975 E4.57921
G1 X168.856 Y117.259 E4.58178
G1 X169.064 Y117.578 E4.58458
G1 X169.339 Y118.072 E4.58874
G1 X169.541 Y118.601 E4.5929
G1 X169.667 Y119.152 E4.59706
G1 X169.714 Y119.764 E4.60157
G1 X169.714 Y120.236 E4.60504
G1 X169.674 Y120.8 E4.6092
G1 X169.555 Y121.353 E4.61336
G1 X169.359 Y121.883 E4.61752
G1 X169.064 Y122.422 E4.62204
G1 X168.856 Y122.741 E4.62484
M204 S625
M205 X6 Y6
G0 F7200 X168.625 Y122.59
M204 S500
M205 X5 Y5
G1 F1800 X168.294 Y123.024 E4.62885
G1 X167.904 Y123.405 E4.63286
G1 X167.229 Y123.858 E4.63884
G1 X166.892 Y124.034 E4.64164
G1 X166.391 Y124.25 E4.64565
G1 X165.864 Y124.391 E4.64966
G1 X165.05 Y124.455 E4.65567
G1 X164.669 Y124.443 E4.65847
G1 X164.126 Y124.386 E4.66249
G1 X163.598 Y124.25 E4.6665
G1 X163.095 Y124.039 E4.67051
G1 X162.855 Y123.905 E4.67253
G1 X162.53 Y123.708 E4.67533
G1 X162.085 Y123.392 E4.67934
G1 X161.691 Y123.014 E4.68336
G1 X161.357 Y122.583 E4.68737
G1 X161.21 Y122.343 E4.68944
G1 X161.024 Y122.011 E4.69224
G1 X160.793 Y121.517 E4.69625
G1 X160.637 Y120.994 E4.70026
G1 X160.549 Y120.19 E4.70621
G1 X160.549 Y119.81 E4.70901
G1 X160.589 Y119.266 E4.71302
G1 X160.708 Y118.733 E4.71703
G1 X161.024 Y117.989 E4.72298
G1 X161.21 Y117.657 E4.72578
G1 X161.511 Y117.202 E4.72979
G1 X161.875 Y116.795 E4.73381
G1 X162.295 Y116.446 E4.73782
G1 X162.53 Y116.292 E4.73989
G1 X162.855 Y116.095 E4.74268
G1 X163.341 Y115.847 E4.7467
G1 X163.858 Y115.673 E4.75071
G1 X164.395 Y115.576 E4.75472
G1 X164.669 Y115.557 E4.75674
G1 X165.05 Y115.545 E4.75955
G1 X165.595 Y115.568 E4.76356
G1 X166.131 Y115.67 E4.76757
G1 X166.892 Y115.966 E4.77358
G1 X167.229 Y116.142 E4.77637
G1 X167.693 Y116.43 E4.78039
G1 X168.11 Y116.782 E4.7844
G1 X168.625 Y117.41 E4.79038
G1 X168.833 Y117.729 E4.79318
G1 X169.097 Y118.207 E4.79719
G1 X169.288 Y118.718 E4.80121
G1 X169.403 Y119.251 E4.80522
G1 X169.438 Y119.764 E4.809
G1 X169.438 Y120.236 E4.81247
G1 X169.398 Y120.78 E4.81648
G1 X169.279 Y121.313 E4.8205
G1 X169.084 Y121.822 E4.82451
G1 X168.833 Y122.271 E4.82829
G1 X168.625 Y122.59 E4.83109
M204 S625
M205 X6 Y6
G0 F7200 X168.394 Y122.439
M204 S500
M205 X5 Y5
G1 F1800 X168.075 Y122.856 E4.83495
G1 X167.696 Y123.219 E4.83881
G1 X167.101 Y123.613 E4.84406
G1 X166.764 Y123.789 E4.84686
G1 X166.282 Y123.996 E4.85072
G1 X165.773 Y124.127 E4.85458
G1 X165.058 Y124.179 E4.85986
G1 X164.677 Y124.167 E4.86266
G1 X164.155 Y124.111 E4.86652
G1 X163.648 Y123.976 E4.87038
G1 X162.998 Y123.669 E4.87567
G1 X162.673 Y123.472 E4.87846
G1 X162.246 Y123.167 E4.88232
G1 X161.87 Y122.8 E4.88619
G1 X161.451 Y122.208 E4.89152
G1 X161.265 Y121.876 E4.89432
G1 X161.044 Y121.4 E4.89818
G1 X160.898 Y120.896 E4.90204
G1 X160.825 Y120.19 E4.90726
G1 X160.825 Y119.81 E4.91005
G1 X160.865 Y119.287 E4.91391
G1 X160.984 Y118.775 E4.91778
G1 X161.265 Y118.124 E4.92299
G1 X161.451 Y117.792 E4.92579
G1 X161.742 Y117.355 E4.92965
G1 X162.096 Y116.967 E4.93352
G1 X162.673 Y116.528 E4.93885
G1 X162.998 Y116.331 E4.94164
G1 X163.466 Y116.094 E4.9455
G1 X163.965 Y115.93 E4.94936
G1 X164.677 Y115.833 E4.95465
G1 X165.058 Y115.821 E4.95745
G1 X165.583 Y115.844 E4.96132
G1 X166.098 Y115.947 E4.96518
G1 X166.764 Y116.211 E4.97045
G1 X167.101 Y116.387 E4.97325
G1 X167.547 Y116.665 E4.97711
G1 X167.945 Y117.007 E4.98097
G1 X168.394 Y117.561 E4.98622
G1 X168.602 Y117.88 E4.98902
G1 X168.854 Y118.34 E4.99287
G1 X169.034 Y118.833 E4.99674
G1 X169.137 Y119.348 E5.0006
G1 X169.162 Y119.764 E5.00366
G1 X169.162 Y120.236 E5.00713
G1 X169.122 Y120.759 E5.01099
G1 X169.003 Y121.271 E5.01486
G1 X168.808 Y121.758 E5.01872
G1 X168.602 Y122.12 E5.02178
G1 X168.394 Y122.439 E5.02458
M204 S625
M205 X6 Y6
G0 F7200 X168.163 Y122.289
M204 S500
M205 X5 Y5
G1 F1800 X167.855 Y122.687 E5.02828
G1 X167.488 Y123.032 E5.03199
G1 X166.973 Y123.368 E5.03651
G1 X166.636 Y123.544 E5.03931
G1 X166.173 Y123.741 E5.04301
G1 X165.684 Y123.863 E5.04671
G1 X165.067 Y123.903 E5.05126
G1 X164.686 Y123.891 E5.05406
G1 X164.186 Y123.836 E5.05776
G1 X163.7 Y123.702 E5.06147
G1 X163.141 Y123.433 E5.06604
G1 X162.816 Y123.236 E5.06883
G1 X162.407 Y122.942 E5.07254
G1 X162.05 Y122.587 E5.07624
G1 X161.692 Y122.073 E5.08084
G1 X161.506 Y121.741 E5.08364
G1 X161.295 Y121.284 E5.08735
G1 X161.16 Y120.799 E5.09105
G1 X161.101 Y120.19 E5.09555
G1 X161.101 Y119.81 E5.09834
G1 X161.141 Y119.308 E5.10205
G1 X161.26 Y118.819 E5.10575
G1 X161.506 Y118.259 E5.11025
G1 X161.692 Y117.927 E5.11305
G1 X161.972 Y117.508 E5.11675
G1 X162.315 Y117.14 E5.12045
G1 X162.816 Y116.764 E5.12506
G1 X163.141 Y116.567 E5.12786
G1 X163.591 Y116.341 E5.13156
G1 X164.071 Y116.189 E5.13526
G1 X164.686 Y116.109 E5.13982
G1 X165.067 Y116.097 E5.14263
G1 X165.57 Y116.121 E5.14633
G1 X166.063 Y116.224 E5.15004
G1 X166.636 Y116.456 E5.15458
G1 X166.973 Y116.632 E5.15738
G1 X167.4 Y116.899 E5.16108
G1 X167.778 Y117.231 E5.16478
G1 X168.163 Y117.711 E5.16931
G1 X168.371 Y118.03 E5.17211
G1 X168.611 Y118.473 E5.17581
G1 X168.779 Y118.947 E5.17951
G1 X168.87 Y119.443 E5.18322
G1 X168.886 Y119.764 E5.18559
G1 X168.886 Y120.236 E5.18906
G1 X168.846 Y120.738 E5.19276
G1 X168.727 Y121.227 E5.19646
G1 X168.533 Y121.692 E5.20017
G1 X168.371 Y121.97 E5.20254
G1 X168.163 Y122.289 E5.20534
M204 S625
M205 X6 Y6
G0 F7200 X167.932 Y122.138
M204 S500
M205 X5 Y5
G1 F1800 X167.636 Y122.518 E5.20888
G1 X167.282 Y122.843 E5.21241
G1 X166.846 Y123.124 E5.21623
G1 X166.509 Y123.3 E5.21903
G1 X166.065 Y123.486 E5.22257
G1 X165.597 Y123.597 E5.2261
G1 X165.076 Y123.628 E5.22994
G1 X164.695 Y123.616 E5.23275
G1 X164.217 Y123.561 E5.23628
G1 X163.755 Y123.427 E5.23982
G1 X163.284 Y123.197 E5.24368
G1 X162.959 Y123 E5.24647
G1 X162.57 Y122.718 E5.25001
G1 X162.232 Y122.374 E5.25355
G1 X161.933 Y121.938 E5.25744
G1 X161.747 Y121.606 E5.26024
G1 X161.547 Y121.169 E5.26378
G1 X161.423 Y120.704 E5.26732
G1 X161.377 Y120.19 E5.27111
G1 X161.377 Y119.81 E5.27391
G1 X161.417 Y119.331 E5.27744
G1 X161.536 Y118.864 E5.28099
G1 X161.747 Y118.394 E5.28477
G1 X161.933 Y118.062 E5.28757
G1 X162.202 Y117.663 E5.29111
G1 X162.533 Y117.314 E5.29465
G1 X162.959 Y117 E5.29854
G1 X163.284 Y116.803 E5.30134
G1 X163.714 Y116.588 E5.30487
G1 X164.175 Y116.448 E5.30842
G1 X164.695 Y116.384 E5.31227
G1 X165.076 Y116.372 E5.31507
G1 X165.556 Y116.397 E5.31861
G1 X166.026 Y116.501 E5.32215
G1 X166.509 Y116.7 E5.32599
G1 X166.846 Y116.876 E5.32879
G1 X167.252 Y117.134 E5.33233
G1 X167.61 Y117.455 E5.33586
G1 X167.932 Y117.862 E5.33968
G1 X168.14 Y118.181 E5.34248
G1 X168.368 Y118.605 E5.34602
G1 X168.523 Y119.06 E5.34956
G1 X168.61 Y119.764 E5.35477
G1 X168.61 Y120.236 E5.35825
G1 X168.57 Y120.715 E5.36178
G1 X168.451 Y121.182 E5.36533
G1 X168.14 Y121.819 E5.37054
G1 X167.932 Y122.138 E5.37334
M204 S625
M205 X6 Y6
G0 F7200 X167.7 Y121.987
M204 S500
M205 X5 Y5
G1 F1800 X167.418 Y122.347 E5.3767
G1 X167.077 Y122.653 E5.38007
G1 X166.718 Y122.879 E5.38319
G1 X166.381 Y123.055 E5.38599
G1 X165.958 Y123.231 E5.38936
G1 X165.512 Y123.33 E5.39272
G1 X165.084 Y123.352 E5.39587
G1 X164.703 Y123.34 E5.39868
G1 X164.249 Y123.285 E5.40204
G1 X163.811 Y123.153 E5.4054
G1 X163.427 Y122.961 E5.40856
G1 X163.102 Y122.764 E5.41136
G1 X162.733 Y122.494 E5.41472
G1 X162.416 Y122.163 E5.41809
G1 X162.174 Y121.804 E5.42127
G1 X161.988 Y121.472 E5.42407
G1 X161.8 Y121.054 E5.42744
G1 X161.687 Y120.611 E5.43081
G1 X161.653 Y120.19 E5.43391
G1 X161.653 Y119.81 E5.43671
G1 X161.693 Y119.354 E5.44007
G1 X161.811 Y118.912 E5.44344
G1 X161.988 Y118.528 E5.44655
G1 X162.174 Y118.196 E5.44935
G1 X162.431 Y117.818 E5.45271
G1 X162.751 Y117.491 E5.45608
G1 X163.102 Y117.236 E5.45927
G1 X163.427 Y117.039 E5.46206
G1 X163.837 Y116.837 E5.46542
G1 X164.277 Y116.709 E5.46879
G1 X164.703 Y116.66 E5.47195
G1 X165.084 Y116.648 E5.47475
G1 X165.541 Y116.674 E5.47812
G1 X165.987 Y116.778 E5.48149
G1 X166.381 Y116.945 E5.48463
G1 X166.718 Y117.121 E5.48743
G1 X167.103 Y117.367 E5.49079
G1 X167.44 Y117.677 E5.49416
G1 X167.7 Y118.013 E5.49728
G1 X167.908 Y118.332 E5.50008
G1 X168.124 Y118.736 E5.50345
G1 X168.266 Y119.17 E5.50681
G1 X168.334 Y119.764 E5.51121
G1 X168.334 Y120.236 E5.51468
G1 X168.294 Y120.692 E5.51805
G1 X168.176 Y121.134 E5.52141
G1 X167.908 Y121.668 E5.52581
G1 X167.7 Y121.987 E5.52861
M204 S625
M205 X6 Y6
G0 F7200 X167.469 Y121.836
M204 S500
M205 X5 Y5
G1 F1800 X167.2 Y122.176 E5.5318
G1 X166.874 Y122.46 E5.53498
G1 X166.59 Y122.634 E5.53743
G1 X166.253 Y122.81 E5.54022
G1 X165.853 Y122.975 E5.5434
G1 X165.429 Y123.062 E5.54659
G1 X165.093 Y123.076 E5.54906
G1 X164.712 Y123.064 E5.55186
G1 X164.283 Y123.01 E5.55504
G1 X163.87 Y122.879 E5.55823
G1 X163.57 Y122.725 E5.56071
G1 X163.245 Y122.528 E5.56351
G1 X162.897 Y122.271 E5.56669
G1 X162.603 Y121.954 E5.56987
G1 X162.414 Y121.669 E5.57238
G1 X162.228 Y121.337 E5.57518
G1 X162.053 Y120.941 E5.57837
G1 X161.952 Y120.52 E5.58155
G1 X161.929 Y120.19 E5.58398
G1 X161.929 Y119.81 E5.58678
G1 X161.969 Y119.379 E5.58996
G1 X162.087 Y118.963 E5.59314
G1 X162.228 Y118.663 E5.59558
G1 X162.414 Y118.331 E5.59838
G1 X162.66 Y117.975 E5.60156
G1 X162.966 Y117.67 E5.60474
G1 X163.245 Y117.472 E5.60726
G1 X163.57 Y117.275 E5.61005
G1 X163.959 Y117.086 E5.61323
G1 X164.376 Y116.971 E5.61641
G1 X164.712 Y116.936 E5.6189
G1 X165.093 Y116.924 E5.6217
G1 X165.525 Y116.95 E5.62489
G1 X165.945 Y117.056 E5.62807
G1 X166.253 Y117.19 E5.63054
G1 X166.59 Y117.366 E5.63334
G1 X166.954 Y117.6 E5.63652
G1 X167.268 Y117.898 E5.6397
G1 X167.469 Y118.164 E5.64216
G1 X167.677 Y118.483 E5.64496
G1 X167.879 Y118.865 E5.64814
G1 X168.007 Y119.279 E5.65132
G1 X168.058 Y119.764 E5.65491
G1 X168.058 Y120.236 E5.65838
G1 X168.018 Y120.667 E5.66157
G1 X167.9 Y121.083 E5.66475
G1 X167.677 Y121.517 E5.66833
G1 X167.469 Y121.836 E5.67114
M204 S625
M205 X6 Y6
G0 F7200 X167.238 Y121.686
M204 S500
M205 X5 Y5
G1 F1800 X166.984 Y122.003 E5.67412
G1 X166.672 Y122.264 E5.67711
G1 X166.462 Y122.39 E5.67892
G1 X166.125 Y122.566 E5.68171
G1 X165.748 Y122.718 E5.6847
G1 X165.349 Y122.793 E5.68769
G1 X165.102 Y122.8 E5.68951
G1 X164.721 Y122.788 E5.69231
G1 X164.318 Y122.735 E5.6953
G1 X163.933 Y122.605 E5.69829
G1 X163.713 Y122.489 E5.70012
G1 X163.388 Y122.292 E5.70291
G1 X163.063 Y122.048 E5.7059
G1 X162.791 Y121.746 E5.70889
G1 X162.655 Y121.534 E5.71074
G1 X162.469 Y121.202 E5.71354
G1 X162.306 Y120.829 E5.71654
G1 X162.219 Y120.432 E5.71952
G1 X162.205 Y120.19 E5.72131
G1 X162.205 Y119.81 E5.7241
G1 X162.245 Y119.406 E5.72709
G1 X162.363 Y119.017 E5.73008
G1 X162.469 Y118.798 E5.73187
G1 X162.655 Y118.466 E5.73467
G1 X162.888 Y118.133 E5.73766
G1 X163.181 Y117.851 E5.74065
G1 X163.388 Y117.708 E5.7425
G1 X163.713 Y117.511 E5.74529
G1 X164.08 Y117.335 E5.74829
G1 X164.473 Y117.235 E5.75127
G1 X164.721 Y117.212 E5.7531
G1 X165.102 Y117.2 E5.7559
G1 X165.507 Y117.227 E5.75889
G1 X165.9 Y117.333 E5.76188
G1 X166.125 Y117.434 E5.7637
G1 X166.462 Y117.61 E5.76649
G1 X166.802 Y117.833 E5.76948
G1 X167.092 Y118.118 E5.77247
G1 X167.238 Y118.314 E5.77427
G1 X167.446 Y118.633 E5.77707
G1 X167.633 Y118.994 E5.78006
G1 X167.747 Y119.384 E5.78305
G1 X167.782 Y119.764 E5.78586
G1 X167.782 Y120.236 E5.78933
G1 X167.742 Y120.64 E5.79232
G1 X167.624 Y121.029 E5.79531
G1 X167.446 Y121.367 E5.79811
G1 X167.238 Y121.686 E5.80092
M204 S625
M205 X6 Y6
G0 F7200 X167.007 Y121.535
M204 S500
M205 X5 Y5
G1 F1800 X166.768 Y121.828 E5.8037
G1 X166.334 Y122.145 E5.80765
G1 X165.997 Y122.321 E5.81045
G1 X165.646 Y122.46 E5.81322
G1 X165.111 Y122.524 E5.81719
G1 X164.73 Y122.512 E5.81999
G1 X164.355 Y122.46 E5.82277
G1 X163.856 Y122.253 E5.82675
G1 X163.531 Y122.056 E5.82954
G1 X163.23 Y121.827 E5.83232
G1 X162.896 Y121.399 E5.83632
G1 X162.71 Y121.067 E5.83912
G1 X162.561 Y120.719 E5.8419
G1 X162.481 Y120.19 E5.84583
G1 X162.481 Y119.81 E5.84863
G1 X162.521 Y119.434 E5.85141
G1 X162.71 Y118.933 E5.85535
G1 X162.896 Y118.601 E5.85815
G1 X163.115 Y118.292 E5.86093
G1 X163.531 Y117.944 E5.86492
G1 X163.856 Y117.747 E5.86772
G1 X164.198 Y117.586 E5.8705
G1 X164.73 Y117.488 E5.87448
G1 X165.111 Y117.476 E5.87728
G1 X165.488 Y117.504 E5.88006
G1 X165.997 Y117.679 E5.88402
G1 X166.334 Y117.855 E5.88682
G1 X166.649 Y118.064 E5.8896
G1 X167.007 Y118.465 E5.89355
G1 X167.215 Y118.784 E5.89635
G1 X167.387 Y119.121 E5.89913
G1 X167.484 Y119.487 E5.90192
G1 X167.506 Y119.764 E5.90396
G1 X167.506 Y120.236 E5.90743
G1 X167.466 Y120.612 E5.91021
G1 X167.348 Y120.972 E5.913
G1 X167.215 Y121.216 E5.91505
G1 X167.007 Y121.535 E5.91785
M204 S625
M205 X6 Y6
G0 F7200 X166.776 Y121.384
M204 S500
M205 X5 Y5
G1 F1800 X166.553 Y121.652 E5.92041
G1 X166.207 Y121.901 E5.92355
G1 X165.87 Y122.077 E5.92634
G1 X165.545 Y122.201 E5.9289
G1 X165.119 Y122.248 E5.93205
G1 X164.738 Y122.236 E5.93486
G1 X164.394 Y122.186 E5.93741
G1 X163.999 Y122.017 E5.94057
G1 X163.674 Y121.82 E5.94337
G1 X163.399 Y121.607 E5.94593
G1 X163.137 Y121.264 E5.9491
G1 X162.951 Y120.932 E5.9519
G1 X162.817 Y120.611 E5.95446
G1 X162.757 Y120.19 E5.95759
G1 X162.757 Y119.81 E5.96038
G1 X162.797 Y119.464 E5.96294
G1 X162.951 Y119.068 E5.96607
G1 X163.137 Y118.736 E5.96887
G1 X163.34 Y118.454 E5.97142
G1 X163.674 Y118.18 E5.9746
G1 X163.999 Y117.983 E5.97739
G1 X164.315 Y117.838 E5.97995
G1 X164.738 Y117.764 E5.98311
G1 X165.119 Y117.752 E5.98591
G1 X165.466 Y117.781 E5.98847
G1 X165.87 Y117.923 E5.99162
G1 X166.207 Y118.099 E5.99442
G1 X166.495 Y118.295 E5.99698
G1 X166.776 Y118.616 E6.00012
G1 X166.984 Y118.935 E6.00292
G1 X167.139 Y119.246 E6.00548
G1 X167.219 Y119.585 E6.00804
G1 X167.23 Y119.764 E6.00936
G1 X167.23 Y120.236 E6.01283
G1 X167.19 Y120.582 E6.01539
G1 X167.073 Y120.909 E6.01795
G1 X166.984 Y121.065 E6.01927
G1 X166.776 Y121.384 E6.02207
M204 S625
M205 X6 Y6
G0 F7200 X166.544 Y121.233
M204 S500
M205 X5 Y5
G1 F1800 X166.341 Y121.473 E6.02438
G1 X166.079 Y121.656 E6.02673
G1 X165.742 Y121.832 E6.02953
G1 X165.447 Y121.941 E6.03184
G1 X165.128 Y121.972 E6.0342
G1 X164.747 Y121.96 E6.037
G1 X164.436 Y121.911 E6.03932
G1 X164.142 Y121.781 E6.04168
G1 X163.817 Y121.584 E6.04448
G1 X163.571 Y121.388 E6.04679
G1 X163.377 Y121.129 E6.04917
G1 X163.191 Y120.797 E6.05197
G1 X163.074 Y120.505 E6.05428
G1 X163.033 Y120.19 E6.05662
G1 X163.033 Y119.81 E6.05941
G1 X163.073 Y119.498 E6.06173
G1 X163.191 Y119.203 E6.06406
G1 X163.377 Y118.871 E6.06686
G1 X163.565 Y118.618 E6.06918
G1 X163.817 Y118.416 E6.07156
G1 X164.142 Y118.219 E6.07435
G1 X164.43 Y118.091 E6.07667
G1 X164.747 Y118.04 E6.07903
G1 X165.128 Y118.028 E6.08183
G1 X165.441 Y118.058 E6.08415
G1 X165.742 Y118.168 E6.0865
G1 X166.079 Y118.344 E6.0893
G1 X166.337 Y118.524 E6.09161
G1 X166.544 Y118.767 E6.09396
G1 X166.752 Y119.086 E6.09676
G1 X166.889 Y119.369 E6.09907
G1 X166.954 Y119.764 E6.10202
G1 X166.954 Y120.236 E6.10549
G1 X166.914 Y120.548 E6.1078
G1 X166.752 Y120.914 E6.11075
G1 X166.544 Y121.233 E6.11355
M204 S625
M205 X6 Y6
G0 F7200 X166.313 Y121.083
M204 S500
M205 X5 Y5
G1 F1800 X166.13 Y121.291 E6.11559
G1 X165.951 Y121.411 E6.11717
G1 X165.614 Y121.587 E6.11997
G1 X165.353 Y121.679 E6.122
G1 X165.137 Y121.697 E6.1236
G1 X164.756 Y121.685 E6.1264
G1 X164.483 Y121.636 E6.12844
G1 X164.285 Y121.545 E6.13004
G1 X163.96 Y121.348 E6.13284
G1 X163.746 Y121.172 E6.13488
G1 X163.618 Y120.994 E6.13649
G1 X163.432 Y120.662 E6.13929
G1 X163.333 Y120.403 E6.14133
G1 X163.309 Y120.19 E6.1429
G1 X163.309 Y119.81 E6.1457
G1 X163.349 Y119.536 E6.14774
G1 X163.432 Y119.338 E6.14931
G1 X163.618 Y119.006 E6.15211
G1 X163.787 Y118.786 E6.15415
G1 X163.96 Y118.652 E6.15576
G1 X164.285 Y118.455 E6.15856
G1 X164.541 Y118.347 E6.1606
G1 X164.756 Y118.315 E6.1622
G1 X165.137 Y118.303 E6.165
G1 X165.412 Y118.335 E6.16704
G1 X165.614 Y118.413 E6.16863
G1 X165.951 Y118.589 E6.17143
G1 X166.176 Y118.751 E6.17347
G1 X166.313 Y118.917 E6.17505
G1 X166.521 Y119.236 E6.17785
G1 X166.638 Y119.488 E6.1799
G1 X166.678 Y119.764 E6.18195
G1 X166.678 Y120.236 E6.18542
G1 X166.638 Y120.51 E6.18746
G1 X166.521 Y120.764 E6.18951
G1 X166.313 Y121.083 E6.19231
M204 S625
M205 X6 Y6
G0 F7200 X166.082 Y120.932
M204 S500
M205 X5 Y5
G1 F1800 X165.923 Y121.103 E6.19403
G1 X165.823 Y121.167 E6.1949
G1 X165.486 Y121.343 E6.1977
G1 X165.264 Y121.414 E6.19941
G1 X165.145 Y121.421 E6.20029
G1 X164.764 Y121.409 E6.20309
G1 X164.535 Y121.362 E6.20481
G1 X164.428 Y121.309 E6.20569
G1 X164.103 Y121.112 E6.20849
G1 X163.927 Y120.959 E6.2102
G1 X163.859 Y120.859 E6.21109
G1 X163.673 Y120.527 E6.21389
G1 X163.585 Y120.19 E6.21645
G1 X163.585 Y119.81 E6.21925
G1 X163.673 Y119.473 E6.22181
G1 X163.859 Y119.141 E6.22461
G1 X164.006 Y118.959 E6.22633
G1 X164.103 Y118.888 E6.22721
G1 X164.428 Y118.691 E6.23001
G1 X164.646 Y118.605 E6.23173
G1 X164.764 Y118.591 E6.23261
G1 X165.145 Y118.579 E6.23541
G1 X165.377 Y118.612 E6.23713
G1 X165.486 Y118.657 E6.238
G1 X165.823 Y118.833 E6.2408
G1 X166.01 Y118.975 E6.24252
G1 X166.082 Y119.068 E6.24339
G1 X166.29 Y119.387 E6.24619
G1 X166.383 Y119.602 E6.24791
G1 X166.402 Y119.764 E6.24911
G1 X166.402 Y120.236 E6.25258
G1 X166.362 Y120.467 E6.25431
G1 X166.29 Y120.613 E6.25551
G1 X166.082 Y120.932 E6.25831
M204 S625
M205 X6 Y6
G0 F7200 X165.851 Y120.781
M204 S500
M205 X5 Y5
G1 F1800 X165.696 Y120.922 E6.25985
G1 X165.359 Y121.098 E6.26264
G1 X165.154 Y121.145 E6.26419
G1 X164.773 Y121.133 E6.26699
G1 X164.571 Y121.073 E6.26854
G1 X164.246 Y120.876 E6.27134
G1 X164.1 Y120.724 E6.27289
G1 X163.914 Y120.392 E6.27569
G1 X163.861 Y120.19 E6.27722
G1 X163.861 Y119.81 E6.28002
G1 X163.914 Y119.608 E6.28156
G1 X164.1 Y119.276 E6.28435
G1 X164.246 Y119.124 E6.2859
G1 X164.571 Y118.927 E6.2887
G1 X164.773 Y118.867 E6.29025
G1 X165.154 Y118.855 E6.29305
G1 X165.359 Y118.902 E6.2946
G1 X165.696 Y119.078 E6.2974
G1 X165.851 Y119.219 E6.29894
G1 X166.059 Y119.538 E6.30174
G1 X166.126 Y119.764 E6.30347
G1 X166.126 Y120.236 E6.30694
G1 X166.059 Y120.462 E6.30868
G1 X165.851 Y120.781 E6.31148
M204 S625
M205 X6 Y6
G0 F7200 X165.62 Y120.63
M204 S500
M205 X5 Y5
G1 F1800 X165.568 Y120.677 E6.31199
G1 X165.231 Y120.853 E6.31479
G1 X165.163 Y120.869 E6.3153
G1 X164.782 Y120.857 E6.31811
G1 X164.714 Y120.837 E6.31863
G1 X164.389 Y120.64 E6.32142
G1 X164.341 Y120.589 E6.32194
G1 X164.155 Y120.257 E6.32474
G1 X164.137 Y120.19 E6.32525
G1 X164.137 Y119.81 E6.32804
G1 X164.155 Y119.743 E6.32855
G1 X164.341 Y119.411 E6.33135
G1 X164.389 Y119.36 E6.33187
G1 X164.714 Y119.163 E6.33466
G1 X164.782 Y119.143 E6.33518
G1 X165.163 Y119.131 E6.33799
G1 X165.231 Y119.147 E6.3385
G1 X165.568 Y119.323 E6.3413
G1 X165.62 Y119.37 E6.34181
G1 X165.828 Y119.689 E6.34461
G1 X165.85 Y119.764 E6.34519
G1 X165.85 Y120.236 E6.34866
G1 X165.828 Y120.311 E6.34923
G1 X165.62 Y120.63 E6.35204
M204 S625
M205 X6 Y6
G1 F1500 E-0.14796
;MESH:Para1.STL
G0 F7200 X165.21 Y120.233
G0 X165.05 Y119.773
G0 X165.13 Y119.419
M204 S500
M205 X5 Y5
;TYPE:WALL-OUTER
G1 F1500 E6.35204
G1 F1800 X165.277 Y119.473 E6.35319
G1 X165.4 Y119.558 E6.35429
G1 X165.5 Y119.676 E6.35542
G1 X165.566 Y119.813 E6.35654
G1 X165.593 Y119.956 E6.35761
G1 X165.563 Y120.193 E6.35937
G1 X165.5 Y120.324 E6.36044
G1 X165.4 Y120.442 E6.36158
G1 X165.277 Y120.527 E6.36268
G1 X165.13 Y120.581 E6.36383
G1 X164.982 Y120.596 E6.36492
G1 X164.831 Y120.571 E6.36605
G1 X164.691 Y120.509 E6.36717
G1 X164.572 Y120.415 E6.36829
G1 X164.482 Y120.293 E6.36941
G1 X164.425 Y120.152 E6.37052
G1 X164.405 Y120 E6.37165
G1 X164.425 Y119.848 E6.37278
G1 X164.482 Y119.707 E6.3739
G1 X164.572 Y119.585 E6.37501
G1 X164.691 Y119.491 E6.37613
G1 X164.831 Y119.429 E6.37725
G1 X164.982 Y119.404 E6.37838
G1 X165.13 Y119.419 E6.37947
M204 S625
M205 X6 Y6
G0 F7200 X165.277 Y119.473
G0 X165.354 Y119.526
G0 X165.181 Y119.776
G0 X165.072 Y119.676
M204 S500
M205 X5 Y5
;TYPE:WALL-INNER
G1 F1800 X165.156 Y119.707 E6.38013
G1 X165.223 Y119.753 E6.38073
G1 X165.28 Y119.82 E6.38138
G1 X165.317 Y119.896 E6.382
G1 X165.329 Y119.962 E6.38249
G1 X165.309 Y120.119 E6.38366
G1 X165.28 Y120.18 E6.38415
G1 X165.223 Y120.247 E6.3848
G1 X165.156 Y120.293 E6.3854
G1 X165.072 Y120.324 E6.38606
G1 X165.035 Y120.327 E6.38633
G1 X164.988 Y120.333 E6.38668
G1 X164.91 Y120.32 E6.38726
G1 X164.826 Y120.283 E6.38793
G1 X164.761 Y120.231 E6.38855
G1 X164.712 Y120.165 E6.38915
G1 X164.68 Y120.085 E6.38979
G1 X164.668 Y120 E6.39042
G1 X164.68 Y119.915 E6.39105
G1 X164.712 Y119.835 E6.39168
G1 X164.761 Y119.769 E6.39229
G1 X164.826 Y119.717 E6.3929
G1 X164.91 Y119.68 E6.39357
G1 X164.988 Y119.667 E6.39416
G1 X165.072 Y119.676 E6.39478
M204 S625
M205 X6 Y6
G0 F7200 X164.992 Y119.946
M204 S500
M205 X5 Y5
G1 F1800 X165.037 Y119.961 E6.39513
G1 X165.049 Y119.976 E6.39527
G1 X165.045 Y120.002 E6.39546
G1 X165.04 Y120.028 E6.39565
G1 X165.037 Y120.039 E6.39574
G1 X165.006 Y120.054 E6.39599
G1 X164.963 Y120.039 E6.39611
G1 X164.956 Y120.026 E6.39612
G1 X164.948 Y120.011 E6.39616
G1 X164.949 Y119.985 E6.39623
G1 X164.963 Y119.961 E6.3963
G1 X164.992 Y119.946 E6.39638
M204 S625
M205 X6 Y6
G0 F7200 X164.99 Y119.947
;MESH:NONMESH
G0 X165.035 Y119.833
;TIME_ELAPSED:35.935795
;LAYER:1
M140 S60
M106 S255
M204 S2812
M205 X18 Y18
;MESH:Para1.STL
G0 F8100 X165.035 Y119.833 Z0.27
M204 S750
M205 X7.5 Y7.5
;TYPE:WALL-INNER
G1 F660 X165.098 Y119.864 E6.39663
G1 X165.111 Y119.87 E6.39668
G1 X165.146 Y119.911 E6.39688
G1 X165.16 Y119.941 E6.397
G1 X165.166 Y119.974 E6.39712
G1 X165.166 Y119.978 E6.39713
G1 X165.155 Y120.063 E6.39744
G1 X165.155 Y120.069 E6.39746
G1 X165.147 Y120.081 E6.39752
G1 X165.118 Y120.119 E6.39769
G1 X165.11 Y120.13 E6.39774
G1 X165.083 Y120.149 E6.39786
G1 X165.035 Y120.167 E6.39804
G1 X164.956 Y120.164 E6.39833
G1 X164.951 Y120.162 E6.39834
G1 X164.924 Y120.15 E6.39845
G1 X164.91 Y120.144 E6.39851
G1 X164.899 Y120.136 E6.39856
G1 X164.873 Y120.115 E6.39868
G1 X164.856 Y120.092 E6.39878
G1 X164.835 Y120.04 E6.39898
G1 X164.83 Y119.997 E6.39914
G1 X164.835 Y119.96 E6.39927
G1 X164.842 Y119.946 E6.39933
G1 X164.874 Y119.884 E6.39958
G1 X164.91 Y119.856 E6.39974
G1 X164.956 Y119.836 E6.39992
G1 X164.992 Y119.83 E6.40006
G1 X164.996 Y119.83 E6.40007
G1 X165.035 Y119.833 E6.40021
M204 S2812
M205 X18 Y18
G0 F8100 X165.088 Y119.607
M204 S750
M205 X7.5 Y7.5
G1 F660 X165.188 Y119.644 E6.4006
G1 X165.268 Y119.7 E6.40095
G1 X165.339 Y119.782 E6.40134
G1 X165.381 Y119.872 E6.4017
G1 X165.399 Y119.964 E6.40204
G1 X165.378 Y120.137 E6.40266
G1 X165.339 Y120.217 E6.40298
G1 X165.268 Y120.3 E6.40338
G1 X165.188 Y120.356 E6.40373
G1 X165.088 Y120.393 E6.40412
G1 X165.056 Y120.395 E6.40423
G1 X164.987 Y120.402 E6.40448
G1 X164.889 Y120.386 E6.40484
G1 X164.791 Y120.343 E6.40522
G1 X164.708 Y120.278 E6.4056
G1 X164.672 Y120.228 E6.40583
G1 X164.653 Y120.203 E6.40594
G1 X164.611 Y120.1 E6.40634
G1 X164.608 Y120.069 E6.40645
G1 X164.598 Y119.997 E6.40672
G1 X164.611 Y119.9 E6.40707
G1 X164.653 Y119.797 E6.40747
G1 X164.708 Y119.722 E6.4078
G1 X164.791 Y119.657 E6.40818
G1 X164.889 Y119.614 E6.40857
G1 X164.987 Y119.598 E6.40893
G1 X165.088 Y119.607 E6.40929
M204 S2812
M205 X18 Y18
G0 F8100 X165.136 Y119.396
M204 S500
M205 X5 Y5
;TYPE:WALL-OUTER
G1 F600 X165.287 Y119.451 E6.40987
G1 X165.414 Y119.54 E6.41043
G1 X165.521 Y119.665 E6.41103
G1 X165.587 Y119.803 E6.41158
G1 X165.616 Y119.957 E6.41214
G1 X165.586 Y120.2 E6.41303
G1 X165.521 Y120.335 E6.41357
G1 X165.414 Y120.46 E6.41416
G1 X165.287 Y120.549 E6.41472
G1 X165.136 Y120.604 E6.4153
G1 X164.98 Y120.619 E6.41586
G1 X164.827 Y120.594 E6.41642
G1 X164.679 Y120.529 E6.417
G1 X164.553 Y120.429 E6.41758
G1 X164.464 Y120.308 E6.41813
G1 X164.402 Y120.155 E6.41872
G1 X164.381 Y120 E6.41928
G1 X164.402 Y119.845 E6.41985
G1 X164.464 Y119.692 E6.42044
G1 X164.553 Y119.571 E6.42099
G1 X164.679 Y119.471 E6.42157
G1 X164.827 Y119.406 E6.42215
G1 X164.98 Y119.381 E6.42271
G1 X165.136 Y119.396 E6.42327
M204 S2812
M205 X18 Y18
G0 F8100 X165.287 Y119.451
G0 X165.36 Y119.502
G0 X165.214 Y119.709
G0 X164.984 Y119.95
M204 S500
M205 X5 Y5
;TYPE:SKIN
G1 F840 X164.959 Y119.976 E6.42334
M204 S2812
M205 X18 Y18
;MESH:NONMESH
G0 F8100 X165.035 Y119.833
;TIME_ELAPSED:36.823160
;LAYER:2
M204 S5000
M205 X30 Y30
;MESH:Para1.STL
G0 F9000 X165.035 Y119.833 Z0.37
M204 S1000
M205 X10 Y10
;TYPE:WALL-INNER
G1 F750 X165.098 Y119.864 E6.42359
G1 X165.111 Y119.87 E6.42364
G1 X165.146 Y119.911 E6.42384
G1 X165.16 Y119.941 E6.42396
G1 X165.166 Y119.974 E6.42408
G1 X165.166 Y119.978 E6.42409
G1 X165.155 Y120.063 E6.4244
G1 X165.155 Y120.069 E6.42442
G1 X165.147 Y120.081 E6.42447
G1 X165.118 Y120.119 E6.42465
G1 X165.11 Y120.13 E6.42469
G1 X165.083 Y120.149 E6.42481
G1 X165.035 Y120.167 E6.425
G1 X164.956 Y120.164 E6.42528
G1 X164.951 Y120.162 E6.4253
G1 X164.924 Y120.15 E6.42541
G1 X164.91 Y120.144 E6.42546
G1 X164.899 Y120.136 E6.42551
G1 X164.873 Y120.115 E6.42563
G1 X164.856 Y120.092 E6.42574
G1 X164.835 Y120.04 E6.42594
G1 X164.83 Y119.997 E6.4261
G1 X164.835 Y119.96 E6.42623
G1 X164.842 Y119.946 E6.42629
G1 X164.874 Y119.884 E6.42654
G1 X164.91 Y119.856 E6.4267
G1 X164.956 Y119.836 E6.42688
G1 X164.992 Y119.83 E6.42701
G1 X164.996 Y119.83 E6.42703
G1 X165.035 Y119.833 E6.42717
M204 S5000
M205 X30 Y30
G0 F9000 X165.088 Y119.607
M204 S1000
M205 X10 Y10
G1 F750 X165.188 Y119.644 E6.42755
G1 X165.268 Y119.7 E6.42791
G1 X165.339 Y119.782 E6.4283
G1 X165.381 Y119.872 E6.42866
G1 X165.399 Y119.964 E6.42899
G1 X165.378 Y120.137 E6.42962
G1 X165.339 Y120.217 E6.42994
G1 X165.268 Y120.3 E6.43034
G1 X165.188 Y120.356 E6.43069
G1 X165.088 Y120.393 E6.43107
G1 X165.056 Y120.395 E6.43119
G1 X164.987 Y120.402 E6.43144
G1 X164.889 Y120.386 E6.4318
G1 X164.791 Y120.343 E6.43218
G1 X164.708 Y120.278 E6.43256
G1 X164.672 Y120.228 E6.43279
G1 X164.653 Y120.203 E6.4329
G1 X164.611 Y120.1 E6.4333
G1 X164.608 Y120.069 E6.43341
G1 X164.598 Y119.997 E6.43367
G1 X164.611 Y119.9 E6.43403
G1 X164.653 Y119.797 E6.43443
G1 X164.708 Y119.722 E6.43476
G1 X164.791 Y119.657 E6.43514
G1 X164.889 Y119.614 E6.43553
G1 X164.987 Y119.598 E6.43589
G1 X165.088 Y119.607 E6.43625
M204 S5000
M205 X30 Y30
G0 F9000 X165.136 Y119.396
M204 S500
M205 X5 Y5
;TYPE:WALL-OUTER
G1 F600 X165.287 Y119.451 E6.43683
G1 X165.414 Y119.54 E6.43739
G1 X165.521 Y119.665 E6.43798
G1 X165.587 Y119.803 E6.43854
G1 X165.616 Y119.957 E6.4391
G1 X165.586 Y120.2 E6.43998
G1 X165.521 Y120.335 E6.44052
G1 X165.414 Y120.46 E6.44112
G1 X165.287 Y120.549 E6.44168
G1 X165.136 Y120.604 E6.44226
G1 X164.98 Y120.619 E6.44282
G1 X164.827 Y120.594 E6.44338
G1 X164.679 Y120.529 E6.44396
G1 X164.553 Y120.429 E6.44454
G1 X164.464 Y120.308 E6.44508
G1 X164.402 Y120.155 E6.44568
G1 X164.381 Y120 E6.44624
G1 X164.402 Y119.845 E6.44681
G1 X164.464 Y119.692 E6.4474
G1 X164.553 Y119.571 E6.44794
G1 X164.679 Y119.471 E6.44852
G1 X164.827 Y119.406 E6.44911
G1 X164.98 Y119.381 E6.44967
G1 X165.136 Y119.396 E6.45023
M204 S5000
M205 X30 Y30
G0 F9000 X165.287 Y119.451
G0 X165.36 Y119.502
G0 X165.214 Y119.709
G0 X164.998 Y119.948
M204 S500
M205 X5 Y5
;TYPE:SKIN
G1 F1200 X165.045 Y119.995 E6.45035
M204 S5000
M205 X30 Y30
;MESH:NONMESH
G0 F9000 X165.035 Y119.833
;TIME_ELAPSED:37.653225
;LAYER:3
;MESH:Para1.STL
G0 X165.035 Y119.833 Z0.47
M204 S1000
M205 X10 Y10
;TYPE:WALL-INNER
G1 F750 X165.098 Y119.864 E6.4506
G1 X165.111 Y119.87 E6.45065
G1 X165.146 Y119.911 E6.45085
G1 X165.16 Y119.941 E6.45097
G1 X165.166 Y119.974 E6.45109
G1 X165.166 Y119.978 E6.4511
G1 X165.155 Y120.063 E6.45141
G1 X165.155 Y120.069 E6.45143
G1 X165.147 Y120.081 E6.45149
G1 X165.118 Y120.119 E6.45166
G1 X165.11 Y120.13 E6.45171
G1 X165.083 Y120.149 E6.45183
G1 X165.035 Y120.167 E6.45201
G1 X164.956 Y120.164 E6.4523
G1 X164.951 Y120.162 E6.45232
G1 X164.924 Y120.15 E6.45242
G1 X164.91 Y120.144 E6.45248
G1 X164.899 Y120.136 E6.45253
G1 X164.873 Y120.115 E6.45265
G1 X164.856 Y120.092 E6.45275
G1 X164.835 Y120.04 E6.45295
G1 X164.83 Y119.997 E6.45311
G1 X164.835 Y119.96 E6.45324
G1 X164.842 Y119.946 E6.4533
G1 X164.874 Y119.884 E6.45355
G1 X164.91 Y119.856 E6.45372
G1 X164.956 Y119.836 E6.4539
G1 X164.992 Y119.83 E6.45403
G1 X164.996 Y119.83 E6.45404
G1 X165.035 Y119.833 E6.45418
M204 S5000
M205 X30 Y30
G0 F9000 X165.088 Y119.607
M204 S1000
M205 X10 Y10
G1 F750 X165.188 Y119.644 E6.45457
G1 X165.268 Y119.7 E6.45492
G1 X165.339 Y119.782 E6.45531
G1 X165.381 Y119.872 E6.45567
G1 X165.399 Y119.964 E6.45601
G1 X165.378 Y120.137 E6.45664
G1 X165.339 Y120.217 E6.45696
G1 X165.268 Y120.3 E6.45735
G1 X165.188 Y120.356 E6.4577
G1 X165.088 Y120.393 E6.45809
G1 X165.056 Y120.395 E6.4582
G1 X164.987 Y120.402 E6.45845
G1 X164.889 Y120.386 E6.45881
G1 X164.791 Y120.343 E6.4592
G1 X164.708 Y120.278 E6.45958
G1 X164.672 Y120.228 E6.4598
G1 X164.653 Y120.203 E6.45991
G1 X164.611 Y120.1 E6.46031
G1 X164.608 Y120.069 E6.46042
G1 X164.598 Y119.997 E6.46069
G1 X164.611 Y119.9 E6.46104
G1 X164.653 Y119.797 E6.46144
G1 X164.708 Y119.722 E6.46178
G1 X164.791 Y119.657 E6.46216
G1 X164.889 Y119.614 E6.46254
G1 X164.987 Y119.598 E6.4629
G1 X165.088 Y119.607 E6.46327
M204 S5000
M205 X30 Y30
G0 F9000 X165.136 Y119.396
M204 S500
M205 X5 Y5
;TYPE:WALL-OUTER
G1 F600 X165.287 Y119.451 E6.46384
G1 X165.414 Y119.54 E6.4644
G1 X165.521 Y119.665 E6.465
G1 X165.587 Y119.803 E6.46555
G1 X165.616 Y119.957 E6.46611
G1 X165.586 Y120.2 E6.467
G1 X165.521 Y120.335 E6.46754
G1 X165.414 Y120.46 E6.46813
G1 X165.287 Y120.549 E6.46869
G1 X165.136 Y120.604 E6.46927
G1 X164.98 Y120.619 E6.46983
G1 X164.827 Y120.594 E6.47039
G1 X164.679 Y120.529 E6.47098
G1 X164.553 Y120.429 E6.47156
G1 X164.464 Y120.308 E6.4721
G1 X164.402 Y120.155 E6.47269
G1 X164.381 Y120 E6.47326
G1 X164.402 Y119.845 E6.47382
G1 X164.464 Y119.692 E6.47441
G1 X164.553 Y119.571 E6.47496
G1 X164.679 Y119.471 E6.47554
G1 X164.827 Y119.406 E6.47612
G1 X164.98 Y119.381 E6.47668
G1 X165.136 Y119.396 E6.47724
M204 S5000
M205 X30 Y30
G0 F9000 X165.287 Y119.451
G0 X165.36 Y119.502
G0 X165.214 Y119.709
G0 X164.984 Y119.95
M204 S500
M205 X5 Y5
;TYPE:SKIN
G1 F1200 X164.959 Y119.976 E6.47731
M204 S5000
M205 X30 Y30
;MESH:NONMESH
G0 F9000 X165.035 Y119.833
;TIME_ELAPSED:38.479316
;LAYER:4
;MESH:Para1.STL
G0 X165.035 Y119.833 Z0.57
M204 S1000
M205 X10 Y10
;TYPE:WALL-INNER
G1 F750 X165.098 Y119.864 E6.47756
G1 X165.111 Y119.87 E6.47761
G1 X165.146 Y119.911 E6.47781
G1 X165.16 Y119.941 E6.47793
G1 X165.166 Y119.974 E6.47805
G1 X165.166 Y119.978 E6.47806
G1 X165.155 Y120.063 E6.47837
G1 X165.155 Y120.069 E6.47839
G1 X165.147 Y120.081 E6.47844
G1 X165.118 Y120.119 E6.47862
G1 X165.11 Y120.13 E6.47867
G1 X165.083 Y120.149 E6.47879
G1 X165.035 Y120.167 E6.47897
G1 X164.956 Y120.164 E6.47925
G1 X164.951 Y120.162 E6.47927
G1 X164.924 Y120.15 E6.47938
G1 X164.91 Y120.144 E6.47944
G1 X164.899 Y120.136 E6.47948
G1 X164.873 Y120.115 E6.47961
G1 X164.856 Y120.092 E6.47971
G1 X164.835 Y120.04 E6.47991
G1 X164.83 Y119.997 E6.48007
G1 X164.835 Y119.96 E6.4802
G1 X164.842 Y119.946 E6.48026
G1 X164.874 Y119.884 E6.48051
G1 X164.91 Y119.856 E6.48067
G1 X164.956 Y119.836 E6.48085
G1 X164.992 Y119.83 E6.48099
G1 X164.996 Y119.83 E6.481
G1 X165.035 Y119.833 E6.48114
M204 S5000
M205 X30 Y30
G0 F9000 X165.088 Y119.607
M204 S1000
M205 X10 Y10
G1 F750 X165.188 Y119.644 E6.48153
G1 X165.268 Y119.7 E6.48188
G1 X165.339 Y119.782 E6.48227
G1 X165.381 Y119.872 E6.48263
G1 X165.399 Y119.964 E6.48297
G1 X165.378 Y120.137 E6.48359
G1 X165.339 Y120.217 E6.48391
G1 X165.268 Y120.3 E6.48431
G1 X165.188 Y120.356 E6.48466
G1 X165.088 Y120.393 E6.48504
G1 X165.056 Y120.395 E6.48516
G1 X164.987 Y120.402 E6.48541
G1 X164.889 Y120.386 E6.48577
G1 X164.791 Y120.343 E6.48615
G1 X164.708 Y120.278 E6.48653
G1 X164.672 Y120.228 E6.48676
G1 X164.653 Y120.203 E6.48687
G1 X164.611 Y120.1 E6.48727
G1 X164.608 Y120.069 E6.48738
G1 X164.598 Y119.997 E6.48765
G1 X164.611 Y119.9 E6.488
G1 X164.653 Y119.797 E6.4884
G1 X164.708 Y119.722 E6.48873
G1 X164.791 Y119.657 E6.48911
G1 X164.889 Y119.614 E6.4895
G1 X164.987 Y119.598 E6.48986
G1 X165.088 Y119.607 E6.49022
M204 S5000
M205 X30 Y30
G0 F9000 X165.136 Y119.396
M204 S500
M205 X5 Y5
;TYPE:WALL-OUTER
G1 F600 X165.287 Y119.451 E6.4908
G1 X165.414 Y119.54 E6.49136
G1 X165.521 Y119.665 E6.49196
G1 X165.587 Y119.803 E6.49251
G1 X165.616 Y119.957 E6.49307
G1 X165.586 Y120.2 E6.49395
G1 X165.521 Y120.335 E6.49449
G1 X165.414 Y120.46 E6.49509
G1 X165.287 Y120.549 E6.49565
G1 X165.136 Y120.604 E6.49623
G1 X164.98 Y120.619 E6.49679
G1 X164.827 Y120.594 E6.49735
G1 X164.679 Y120.529 E6.49793
G1 X164.553 Y120.429 E6.49851
G1 X164.464 Y120.308 E6.49905
G1 X164.402 Y120.155 E6.49965
G1 X164.381 Y120 E6.50021
G1 X164.402 Y119.845 E6.50078
G1 X164.464 Y119.692 E6.50137
G1 X164.553 Y119.571 E6.50191
G1 X164.679 Y119.471 E6.50249
G1 X164.827 Y119.406 E6.50308
G1 X164.98 Y119.381 E6.50364
G1 X165.136 Y119.396 E6.5042
M204 S5000
M205 X30 Y30
G0 F9000 X165.287 Y119.451
G0 X165.36 Y119.502
G0 X165.214 Y119.709
G0 X164.998 Y119.948
M204 S500
M205 X5 Y5
;TYPE:SKIN
G1 F1200 X165.045 Y119.995 E6.50432
M204 S5000
M205 X30 Y30
;MESH:NONMESH
G0 F9000 X165.035 Y119.833
;TIME_ELAPSED:39.309381
;LAYER:5
;MESH:Para1.STL
G0 X165.035 Y119.833 Z0.67
M204 S1000
M205 X10 Y10
;TYPE:WALL-INNER
G1 F750 X165.098 Y119.864 E6.50457
G1 X165.111 Y119.87 E6.50463
G1 X165.146 Y119.911 E6.50482
G1 X165.16 Y119.941 E6.50494
G1 X165.166 Y119.974 E6.50506
G1 X165.166 Y119.978 E6.50508
G1 X165.155 Y120.063 E6.50538
G1 X165.155 Y120.069 E6.50541
G1 X165.147 Y120.081 E6.50546
G1 X165.118 Y120.119 E6.50563
G1 X165.11 Y120.13 E6.50568
G1 X165.083 Y120.149 E6.5058
G1 X165.035 Y120.167 E6.50598
G1 X164.956 Y120.164 E6.50627
G1 X164.951 Y120.162 E6.50629
G1 X164.924 Y120.15 E6.50639
G1 X164.91 Y120.144 E6.50645
G1 X164.899 Y120.136 E6.5065
G1 X164.873 Y120.115 E6.50662
G1 X164.856 Y120.092 E6.50672
G1 X164.835 Y120.04 E6.50692
G1 X164.83 Y119.997 E6.50708
G1 X164.835 Y119.96 E6.50721
G1 X164.842 Y119.946 E6.50727
G1 X164.874 Y119.884 E6.50752
G1 X164.91 Y119.856 E6.50769
G1 X164.956 Y119.836 E6.50787
G1 X164.992 Y119.83 E6.508
G1 X164.996 Y119.83 E6.50801
G1 X165.035 Y119.833 E6.50815
M204 S5000
M205 X30 Y30
G0 F9000 X165.088 Y119.607
M204 S1000
M205 X10 Y10
G1 F750 X165.188 Y119.644 E6.50854
G1 X165.268 Y119.7 E6.50889
G1 X165.339 Y119.782 E6.50928
G1 X165.381 Y119.872 E6.50964
G1 X165.399 Y119.964 E6.50998
G1 X165.378 Y120.137 E6.51061
G1 X165.339 Y120.217 E6.51093
G1 X165.268 Y120.3 E6.51132
G1 X165.188 Y120.356 E6.51167
G1 X165.088 Y120.393 E6.51206
G1 X165.056 Y120.395 E6.51217
G1 X164.987 Y120.402 E6.51242
G1 X164.889 Y120.386 E6.51278
G1 X164.791 Y120.343 E6.51317
G1 X164.708 Y120.278 E6.51355
G1 X164.672 Y120.228 E6.51377
G1 X164.653 Y120.203 E6.51388
G1 X164.611 Y120.1 E6.51428
G1 X164.608 Y120.069 E6.5144
G1 X164.598 Y119.997 E6.51466
G1 X164.611 Y119.9 E6.51501
G1 X164.653 Y119.797 E6.51541
G1 X164.708 Y119.722 E6.51575
G1 X164.791 Y119.657 E6.51613
G1 X164.889 Y119.614 E6.51651
G1 X164.987 Y119.598 E6.51687
G1 X165.088 Y119.607 E6.51724
M204 S5000
M205 X30 Y30
G0 F9000 X165.136 Y119.396
M204 S500
M205 X5 Y5
;TYPE:WALL-OUTER
G1 F600 X165.287 Y119.451 E6.51782
G1 X165.414 Y119.54 E6.51838
G1 X165.521 Y119.665 E6.51897
G1 X165.587 Y119.803 E6.51952
G1 X165.616 Y119.957 E6.52009
G1 X165.586 Y120.2 E6.52097
G1 X165.521 Y120.335 E6.52151
G1 X165.414 Y120.46 E6.5221
G1 X165.287 Y120.549 E6.52266
G1 X165.136 Y120.604 E6.52324
G1 X164.98 Y120.619 E6.5238
G1 X164.827 Y120.594 E6.52436
G1 X164.679 Y120.529 E6.52495
G1 X164.553 Y120.429 E6.52553
G1 X164.464 Y120.308 E6.52607
G1 X164.402 Y120.155 E6.52666
G1 X164.381 Y120 E6.52723
G1 X164.402 Y119.845 E6.52779
G1 X164.464 Y119.692 E6.52839
G1 X164.553 Y119.571 E6.52893
G1 X164.679 Y119.471 E6.52951
G1 X164.827 Y119.406 E6.53009
G1 X164.98 Y119.381 E6.53065
G1 X165.136 Y119.396 E6.53121
M204 S5000
M205 X30 Y30
G0 F9000 X165.287 Y119.451
G0 X165.36 Y119.502
G0 X165.214 Y119.709
G0 X164.984 Y119.95
M204 S500
M205 X5 Y5
;TYPE:SKIN
G1 F1200 X164.959 Y119.976 E6.53128
M204 S5000
M205 X30 Y30
;MESH:NONMESH
G0 F9000 X165.035 Y119.833
;TIME_ELAPSED:40.135471
;LAYER:6
;MESH:Para1.STL
G0 X165.035 Y119.833 Z0.77
M204 S1000
M205 X10 Y10
;TYPE:WALL-INNER
G1 F750 X165.098 Y119.864 E6.53153
G1 X165.111 Y119.87 E6.53158
G1 X165.146 Y119.911 E6.53178
G1 X165.16 Y119.941 E6.5319
G1 X165.166 Y119.974 E6.53202
G1 X165.166 Y119.978 E6.53203
G1 X165.155 Y120.063 E6.53234
G1 X165.155 Y120.069 E6.53236
G1 X165.147 Y120.081 E6.53242
G1 X165.118 Y120.119 E6.53259
G1 X165.11 Y120.13 E6.53264
G1 X165.083 Y120.149 E6.53276
G1 X165.035 Y120.167 E6.53294
G1 X164.956 Y120.164 E6.53323
G1 X164.951 Y120.162 E6.53325
G1 X164.924 Y120.15 E6.53335
G1 X164.91 Y120.144 E6.53341
G1 X164.899 Y120.136 E6.53346
G1 X164.873 Y120.115 E6.53358
G1 X164.856 Y120.092 E6.53368
G1 X164.835 Y120.04 E6.53388
G1 X164.83 Y119.997 E6.53404
G1 X164.835 Y119.96 E6.53417
G1 X164.842 Y119.946 E6.53423
G1 X164.874 Y119.884 E6.53448
G1 X164.91 Y119.856 E6.53465
G1 X164.956 Y119.836 E6.53483
G1 X164.992 Y119.83 E6.53496
G1 X164.996 Y119.83 E6.53497
G1 X165.035 Y119.833 E6.53511
M204 S5000
M205 X30 Y30
G0 F9000 X165.088 Y119.607
M204 S1000
M205 X10 Y10
G1 F750 X165.188 Y119.644 E6.5355
G1 X165.268 Y119.7 E6.53585
G1 X165.339 Y119.782 E6.53624
G1 X165.381 Y119.872 E6.5366
G1 X165.399 Y119.964 E6.53694
G1 X165.378 Y120.137 E6.53756
G1 X165.339 Y120.217 E6.53789
G1 X165.268 Y120.3 E6.53828
G1 X165.188 Y120.356 E6.53863
G1 X165.088 Y120.393 E6.53902
G1 X165.056 Y120.395 E6.53913
G1 X164.987 Y120.402 E6.53938
G1 X164.889 Y120.386 E6.53974
G1 X164.791 Y120.343 E6.54013
G1 X164.708 Y120.278 E6.54051
G1 X164.672 Y120.228 E6.54073
G1 X164.653 Y120.203 E6.54084
G1 X164.611 Y120.1 E6.54124
G1 X164.608 Y120.069 E6.54135
G1 X164.598 Y119.997 E6.54162
G1 X164.611 Y119.9 E6.54197
G1 X164.653 Y119.797 E6.54237
G1 X164.708 Y119.722 E6.54271
G1 X164.791 Y119.657 E6.54309
G1 X164.889 Y119.614 E6.54347
G1 X164.987 Y119.598 E6.54383
G1 X165.088 Y119.607 E6.5442
M204 S5000
M205 X30 Y30
G0 F9000 X165.136 Y119.396
M204 S500
M205 X5 Y5
;TYPE:WALL-OUTER
G1 F600 X165.287 Y119.451 E6.54477
G1 X165.414 Y119.54 E6.54533
G1 X165.521 Y119.665 E6.54593
G1 X165.587 Y119.803 E6.54648
G1 X165.616 Y119.957 E6.54704
G1 X165.586 Y120.2 E6.54793
G1 X165.521 Y120.335 E6.54847
G1 X165.414 Y120.46 E6.54906
G1 X165.287 Y120.549 E6.54962
G1 X165.136 Y120.604 E6.5502
G1 X164.98 Y120.619 E6.55076
G1 X164.827 Y120.594 E6.55132
G1 X164.679 Y120.529 E6.5519
G1 X164.553 Y120.429 E6.55248
G1 X164.464 Y120.308 E6.55303
G1 X164.402 Y120.155 E6.55362
G1 X164.381 Y120 E6.55419
G1 X164.402 Y119.845 E6.55475
G1 X164.464 Y119.692 E6.55534
G1 X164.553 Y119.571 E6.55589
G1 X164.679 Y119.471 E6.55647
G1 X164.827 Y119.406 E6.55705
G1 X164.98 Y119.381 E6.55761
G1 X165.136 Y119.396 E6.55817
M204 S5000
M205 X30 Y30
G0 F9000 X165.287 Y119.451
G0 X165.36 Y119.502
G0 X165.214 Y119.709
G0 X164.998 Y119.948
M204 S500
M205 X5 Y5
;TYPE:SKIN
G1 F1200 X165.045 Y119.995 E6.55829
M204 S5000
M205 X30 Y30
;MESH:NONMESH
G0 F9000 X165.035 Y119.833
;TIME_ELAPSED:40.965536
;LAYER:7
;MESH:Para1.STL
G0 X165.035 Y119.833 Z0.87
M204 S1000
M205 X10 Y10
;TYPE:WALL-INNER
G1 F750 X165.098 Y119.864 E6.55855
G1 X165.111 Y119.87 E6.5586
G1 X165.146 Y119.911 E6.55879
G1 X165.16 Y119.941 E6.55891
G1 X165.166 Y119.974 E6.55903
G1 X165.166 Y119.978 E6.55905
G1 X165.155 Y120.063 E6.55936
G1 X165.155 Y120.069 E6.55938
G1 X165.147 Y120.081 E6.55943
G1 X165.118 Y120.119 E6.5596
G1 X165.11 Y120.13 E6.55965
G1 X165.083 Y120.149 E6.55977
G1 X165.035 Y120.167 E6.55995
G1 X164.956 Y120.164 E6.56024
G1 X164.951 Y120.162 E6.56026
G1 X164.924 Y120.15 E6.56037
G1 X164.91 Y120.144 E6.56042
G1 X164.899 Y120.136 E6.56047
G1 X164.873 Y120.115 E6.56059
G1 X164.856 Y120.092 E6.56069
G1 X164.835 Y120.04 E6.5609
G1 X164.83 Y119.997 E6.56105
G1 X164.835 Y119.96 E6.56119
G1 X164.842 Y119.946 E6.56124
G1 X164.874 Y119.884 E6.56149
G1 X164.91 Y119.856 E6.56166
G1 X164.956 Y119.836 E6.56184
G1 X164.992 Y119.83 E6.56197
G1 X164.996 Y119.83 E6.56198
G1 X165.035 Y119.833 E6.56213
M204 S5000
M205 X30 Y30
G0 F9000 X165.088 Y119.607
M204 S1000
M205 X10 Y10
G1 F750 X165.188 Y119.644 E6.56251
G1 X165.268 Y119.7 E6.56286
G1 X165.339 Y119.782 E6.56325
G1 X165.381 Y119.872 E6.56361
G1 X165.399 Y119.964 E6.56395
G1 X165.378 Y120.137 E6.56458
G1 X165.339 Y120.217 E6.5649
G1 X165.268 Y120.3 E6.56529
G1 X165.188 Y120.356 E6.56564
G1 X165.088 Y120.393 E6.56603
G1 X165.056 Y120.395 E6.56614
G1 X164.987 Y120.402 E6.56639
G1 X164.889 Y120.386 E6.56675
G1 X164.791 Y120.343 E6.56714
G1 X164.708 Y120.278 E6.56752
G1 X164.672 Y120.228 E6.56774
G1 X164.653 Y120.203 E6.56785
G1 X164.611 Y120.1 E6.56826
G1 X164.608 Y120.069 E6.56837
G1 X164.598 Y119.997 E6.56863
G1 X164.611 Y119.9 E6.56898
G1 X164.653 Y119.797 E6.56938
G1 X164.708 Y119.722 E6.56972
G1 X164.791 Y119.657 E6.5701
G1 X164.889 Y119.614 E6.57048
G1 X164.987 Y119.598 E6.57084
G1 X165.088 Y119.607 E6.57121
M204 S5000
M205 X30 Y30
G0 F9000 X165.136 Y119.396
M204 S500
M205 X5 Y5
;TYPE:WALL-OUTER
G1 F600 X165.287 Y119.451 E6.57179
G1 X165.414 Y119.54 E6.57235
G1 X165.521 Y119.665 E6.57294
G1 X165.587 Y119.803 E6.57349
G1 X165.616 Y119.957 E6.57406
G1 X165.586 Y120.2 E6.57494
G1 X165.521 Y120.335 E6.57548
G1 X165.414 Y120.46 E6.57607
G1 X165.287 Y120.549 E6.57663
G1 X165.136 Y120.604 E6.57721
G1 X164.98 Y120.619 E6.57778
G1 X164.827 Y120.594 E6.57834
G1 X164.679 Y120.529 E6.57892
G1 X164.553 Y120.429 E6.5795
G1 X164.464 Y120.308 E6.58004
G1 X164.402 Y120.155 E6.58063
G1 X164.381 Y120 E6.5812
G1 X164.402 Y119.845 E6.58176
G1 X164.464 Y119.692 E6.58236
G1 X164.553 Y119.571 E6.5829
G1 X164.679 Y119.471 E6.58348
G1 X164.827 Y119.406 E6.58406
G1 X164.98 Y119.381 E6.58462
G1 X165.136 Y119.396 E6.58519
M204 S5000
M205 X30 Y30
G0 F9000 X165.287 Y119.451
G0 X165.36 Y119.502
G0 X165.214 Y119.709
G0 X164.984 Y119.95
M204 S500
M205 X5 Y5
;TYPE:SKIN
G1 F1200 X164.959 Y119.976 E6.58525
M204 S5000
M205 X30 Y30
;MESH:NONMESH
G0 F9000 X165.035 Y119.833
;TIME_ELAPSED:41.791626
;LAYER:8
;MESH:Para1.STL
G0 X165.035 Y119.833 Z0.97
M204 S1000
M205 X10 Y10
;TYPE:WALL-INNER
G1 F750 X165.098 Y119.864 E6.5855
G1 X165.111 Y119.87 E6.58556
G1 X165.146 Y119.911 E6.58575
G1 X165.16 Y119.941 E6.58587
G1 X165.166 Y119.974 E6.58599
G1 X165.166 Y119.978 E6.586
G1 X165.155 Y120.063 E6.58631
G1 X165.155 Y120.069 E6.58634
G1 X165.147 Y120.081 E6.58639
G1 X165.118 Y120.119 E6.58656
G1 X165.11 Y120.13 E6.58661
G1 X165.083 Y120.149 E6.58673
G1 X165.035 Y120.167 E6.58691
G1 X164.956 Y120.164 E6.5872
G1 X164.951 Y120.162 E6.58722
G1 X164.924 Y120.15 E6.58732
G1 X164.91 Y120.144 E6.58738
G1 X164.899 Y120.136 E6.58743
G1 X164.873 Y120.115 E6.58755
G1 X164.856 Y120.092 E6.58765
G1 X164.835 Y120.04 E6.58785
G1 X164.83 Y119.997 E6.58801
G1 X164.835 Y119.96 E6.58814
G1 X164.842 Y119.946 E6.5882
G1 X164.874 Y119.884 E6.58845
G1 X164.91 Y119.856 E6.58862
G1 X164.956 Y119.836 E6.5888
G1 X164.992 Y119.83 E6.58893
G1 X164.996 Y119.83 E6.58894
G1 X165.035 Y119.833 E6.58908
M204 S5000
M205 X30 Y30
G0 F9000 X165.088 Y119.607
M204 S1000
M205 X10 Y10
G1 F750 X165.188 Y119.644 E6.58947
G1 X165.268 Y119.7 E6.58982
G1 X165.339 Y119.782 E6.59021
G1 X165.381 Y119.872 E6.59057
G1 X165.399 Y119.964 E6.59091
G1 X165.378 Y120.137 E6.59154
G1 X165.339 Y120.217 E6.59186
G1 X165.268 Y120.3 E6.59225
G1 X165.188 Y120.356 E6.5926
G1 X165.088 Y120.393 E6.59299
G1 X165.056 Y120.395 E6.5931
G1 X164.987 Y120.402 E6.59335
G1 X164.889 Y120.386 E6.59371
G1 X164.791 Y120.343 E6.5941
G1 X164.708 Y120.278 E6.59448
G1 X164.672 Y120.228 E6.5947
G1 X164.653 Y120.203 E6.59481
G1 X164.611 Y120.1 E6.59521
G1 X164.608 Y120.069 E6.59533
G1 X164.598 Y119.997 E6.59559
G1 X164.611 Y119.9 E6.59594
G1 X164.653 Y119.797 E6.59634
G1 X164.708 Y119.722 E6.59668
G1 X164.791 Y119.657 E6.59706
G1 X164.889 Y119.614 E6.59744
G1 X164.987 Y119.598 E6.5978
G1 X165.088 Y119.607 E6.59817
M204 S5000
M205 X30 Y30
G0 F9000 X165.136 Y119.396
M204 S500
M205 X5 Y5
;TYPE:WALL-OUTER
G1 F600 X165.287 Y119.451 E6.59875
G1 X165.414 Y119.54 E6.5993
G1 X165.521 Y119.665 E6.5999
G1 X165.587 Y119.803 E6.60045
G1 X165.616 Y119.957 E6.60101
G1 X165.586 Y120.2 E6.6019
G1 X165.521 Y120.335 E6.60244
G1 X165.414 Y120.46 E6.60303
G1 X165.287 Y120.549 E6.60359
G1 X165.136 Y120.604 E6.60417
G1 X164.98 Y120.619 E6.60473
G1 X164.827 Y120.594 E6.60529
G1 X164.679 Y120.529 E6.60588
G1 X164.553 Y120.429 E6.60646
G1 X164.464 Y120.308 E6.607
G1 X164.402 Y120.155 E6.60759
G1 X164.381 Y120 E6.60816
G1 X164.402 Y119.845 E6.60872
G1 X164.464 Y119.692 E6.60932
G1 X164.553 Y119.571 E6.60986
G1 X164.679 Y119.471 E6.61044
G1 X164.827 Y119.406 E6.61102
G1 X164.98 Y119.381 E6.61158
G1 X165.136 Y119.396 E6.61214
M204 S5000
M205 X30 Y30
G0 F9000 X165.287 Y119.451
G0 X165.36 Y119.502
G0 X165.214 Y119.709
G0 X164.998 Y119.948
M204 S500
M205 X5 Y5
;TYPE:SKIN
G1 F1200 X165.045 Y119.995 E6.61226
M204 S5000
M205 X30 Y30
;MESH:NONMESH
G0 F9000 X165.035 Y119.833
;TIME_ELAPSED:42.621691
;LAYER:9
;MESH:Para1.STL
G0 X165.035 Y119.833 Z1.07
M204 S1000
M205 X10 Y10
;TYPE:WALL-INNER
G1 F750 X165.098 Y119.864 E6.61252
G1 X165.111 Y119.87 E6.61257
G1 X165.146 Y119.911 E6.61276
G1 X165.16 Y119.941 E6.61288
G1 X165.166 Y119.974 E6.613
G1 X165.166 Y119.978 E6.61302
G1 X165.155 Y120.063 E6.61333
G1 X165.155 Y120.069 E6.61335
G1 X165.147 Y120.081 E6.6134
G1 X165.118 Y120.119 E6.61357
G1 X165.11 Y120.13 E6.61362
G1 X165.083 Y120.149 E6.61374
G1 X165.035 Y120.167 E6.61393
G1 X164.956 Y120.164 E6.61421
G1 X164.951 Y120.162 E6.61423
G1 X164.924 Y120.15 E6.61434
G1 X164.91 Y120.144 E6.61439
G1 X164.899 Y120.136 E6.61444
G1 X164.873 Y120.115 E6.61456
G1 X164.856 Y120.092 E6.61466
G1 X164.835 Y120.04 E6.61487
G1 X164.83 Y119.997 E6.61502
G1 X164.835 Y119.96 E6.61516
G1 X164.842 Y119.946 E6.61521
G1 X164.874 Y119.884 E6.61547
G1 X164.91 Y119.856 E6.61563
G1 X164.956 Y119.836 E6.61581
G1 X164.992 Y119.83 E6.61594
G1 X164.996 Y119.83 E6.61596
G1 X165.035 Y119.833 E6.6161
M204 S5000
M205 X30 Y30
G0 F9000 X165.088 Y119.607
M204 S1000
M205 X10 Y10
G1 F750 X165.188 Y119.644 E6.61648
G1 X165.268 Y119.7 E6.61683
G1 X165.339 Y119.782 E6.61722
G1 X165.381 Y119.872 E6.61758
G1 X165.399 Y119.964 E6.61792
G1 X165.378 Y120.137 E6.61855
G1 X165.339 Y120.217 E6.61887
G1 X165.268 Y120.3 E6.61926
G1 X165.188 Y120.356 E6.61962
G1 X165.088 Y120.393 E6.62
G1 X165.056 Y120.395 E6.62012
G1 X164.987 Y120.402 E6.62037
G1 X164.889 Y120.386 E6.62072
G1 X164.791 Y120.343 E6.62111
G1 X164.708 Y120.278 E6.62149
G1 X164.672 Y120.228 E6.62171
G1 X164.653 Y120.203 E6.62183
G1 X164.611 Y120.1 E6.62223
G1 X164.608 Y120.069 E6.62234
G1 X164.598 Y119.997 E6.6226
G1 X164.611 Y119.9 E6.62295
G1 X164.653 Y119.797 E6.62335
G1 X164.708 Y119.722 E6.62369
G1 X164.791 Y119.657 E6.62407
G1 X164.889 Y119.614 E6.62446
G1 X164.987 Y119.598 E6.62481
G1 X165.088 Y119.607 E6.62518
M204 S5000
M205 X30 Y30
G0 F9000 X165.136 Y119.396
M204 S500
M205 X5 Y5
;TYPE:WALL-OUTER
G1 F600 X165.287 Y119.451 E6.62576
G1 X165.414 Y119.54 E6.62632
G1 X165.521 Y119.665 E6.62691
G1 X165.587 Y119.803 E6.62746
G1 X165.616 Y119.957 E6.62803
G1 X165.586 Y120.2 E6.62891
G1 X165.521 Y120.335 E6.62945
G1 X165.414 Y120.46 E6.63004
G1 X165.287 Y120.549 E6.6306
G1 X165.136 Y120.604 E6.63118
G1 X164.98 Y120.619 E6.63175
G1 X164.827 Y120.594 E6.63231
G1 X164.679 Y120.529 E6.63289
G1 X164.553 Y120.429 E6.63347
G1 X164.464 Y120.308 E6.63401
G1 X164.402 Y120.155 E6.63461
G1 X164.381 Y120 E6.63517
G1 X164.402 Y119.845 E6.63573
G1 X164.464 Y119.692 E6.63633
G1 X164.553 Y119.571 E6.63687
G1 X164.679 Y119.471 E6.63745
G1 X164.827 Y119.406 E6.63803
G1 X164.98 Y119.381 E6.63859
G1 X165.136 Y119.396 E6.63916
M204 S5000
M205 X30 Y30
G0 F9000 X165.287 Y119.451
G0 X165.36 Y119.502
G0 X165.214 Y119.709
G0 X164.984 Y119.95
M204 S500
M205 X5 Y5
;TYPE:SKIN
G1 F1200 X164.959 Y119.976 E6.63922
M204 S5000
M205 X30 Y30
;MESH:NONMESH
G0 F9000 X165.035 Y119.833
;TIME_ELAPSED:43.447781
;LAYER:10
;MESH:Para1.STL
G0 X165.035 Y119.833 Z1.17
M204 S1000
M205 X10 Y10
;TYPE:WALL-INNER
G1 F750 X165.098 Y119.864 E6.63948
G1 X165.111 Y119.87 E6.63953
G1 X165.146 Y119.911 E6.63972
G1 X165.16 Y119.941 E6.63984
G1 X165.166 Y119.974 E6.63996
G1 X165.166 Y119.978 E6.63998
G1 X165.155 Y120.063 E6.64029
G1 X165.155 Y120.069 E6.64031
G1 X165.147 Y120.081 E6.64036
G1 X165.118 Y120.119 E6.64053
G1 X165.11 Y120.13 E6.64058
G1 X165.083 Y120.149 E6.6407
G1 X165.035 Y120.167 E6.64088
G1 X164.956 Y120.164 E6.64117
G1 X164.951 Y120.162 E6.64119
G1 X164.924 Y120.15 E6.64129
G1 X164.91 Y120.144 E6.64135
G1 X164.899 Y120.136 E6.6414
G1 X164.873 Y120.115 E6.64152
G1 X164.856 Y120.092 E6.64162
G1 X164.835 Y120.04 E6.64182
G1 X164.83 Y119.997 E6.64198
G1 X164.835 Y119.96 E6.64212
G1 X164.842 Y119.946 E6.64217
G1 X164.874 Y119.884 E6.64242
G1 X164.91 Y119.856 E6.64259
G1 X164.956 Y119.836 E6.64277
G1 X164.992 Y119.83 E6.6429
G1 X164.996 Y119.83 E6.64291
G1 X165.035 Y119.833 E6.64306
M204 S5000
M205 X30 Y30
G0 F9000 X165.088 Y119.607
M204 S1000
M205 X10 Y10
G1 F750 X165.188 Y119.644 E6.64344
G1 X165.268 Y119.7 E6.64379
G1 X165.339 Y119.782 E6.64418
G1 X165.381 Y119.872 E6.64454
G1 X165.399 Y119.964 E6.64488
G1 X165.378 Y120.137 E6.64551
G1 X165.339 Y120.217 E6.64583
G1 X165.268 Y120.3 E6.64622
G1 X165.188 Y120.356 E6.64657
G1 X165.088 Y120.393 E6.64696
G1 X165.056 Y120.395 E6.64707
G1 X164.987 Y120.402 E6.64732
G1 X164.889 Y120.386 E6.64768
G1 X164.791 Y120.343 E6.64807
G1 X164.708 Y120.278 E6.64845
G1 X164.672 Y120.228 E6.64867
G1 X164.653 Y120.203 E6.64878
G1 X164.611 Y120.1 E6.64918
G1 X164.608 Y120.069 E6.6493
G1 X164.598 Y119.997 E6.64956
G1 X164.611 Y119.9 E6.64991
G1 X164.653 Y119.797 E6.65031
G1 X164.708 Y119.722 E6.65065
G1 X164.791 Y119.657 E6.65103
G1 X164.889 Y119.614 E6.65141
G1 X164.987 Y119.598 E6.65177
G1 X165.088 Y119.607 E6.65214
M204 S5000
M205 X30 Y30
G0 F9000 X165.136 Y119.396
M204 S500
M205 X5 Y5
;TYPE:WALL-OUTER
G1 F600 X165.287 Y119.451 E6.65272
G1 X165.414 Y119.54 E6.65328
G1 X165.521 Y119.665 E6.65387
G1 X165.587 Y119.803 E6.65442
G1 X165.616 Y119.957 E6.65499
G1 X165.586 Y120.2 E6.65587
G1 X165.521 Y120.335 E6.65641
G1 X165.414 Y120.46 E6.657
G1 X165.287 Y120.549 E6.65756
G1 X165.136 Y120.604 E6.65814
G1 X164.98 Y120.619 E6.65871
G1 X164.827 Y120.594 E6.65926
G1 X164.679 Y120.529 E6.65985
G1 X164.553 Y120.429 E6.66043
G1 X164.464 Y120.308 E6.66097
G1 X164.402 Y120.155 E6.66156
G1 X164.381 Y120 E6.66213
G1 X164.402 Y119.845 E6.66269
G1 X164.464 Y119.692 E6.66329
G1 X164.553 Y119.571 E6.66383
G1 X164.679 Y119.471 E6.66441
G1 X164.827 Y119.406 E6.66499
G1 X164.98 Y119.381 E6.66555
G1 X165.136 Y119.396 E6.66612
M204 S5000
M205 X30 Y30
G0 F9000 X165.287 Y119.451
G0 X165.36 Y119.502
G0 X165.214 Y119.709
G0 X164.998 Y119.948
M204 S500
M205 X5 Y5
;TYPE:SKIN
G1 F1200 X165.045 Y119.995 E6.66624
M204 S5000
M205 X30 Y30
;MESH:NONMESH
G0 F9000 X165.035 Y119.833
;TIME_ELAPSED:44.277846
;LAYER:11
;MESH:Para1.STL
G0 X165.035 Y119.833 Z1.27
M204 S1000
M205 X10 Y10
;TYPE:WALL-INNER
G1 F750 X165.098 Y119.864 E6.66649
G1 X165.111 Y119.87 E6.66654
G1 X165.146 Y119.911 E6.66673
G1 X165.16 Y119.941 E6.66685
G1 X165.166 Y119.974 E6.66697
G1 X165.166 Y119.978 E6.66699
G1 X165.155 Y120.063 E6.6673
G1 X165.155 Y120.069 E6.66732
G1 X165.147 Y120.081 E6.66737
G1 X165.118 Y120.119 E6.66754
G1 X165.11 Y120.13 E6.66759
G1 X165.083 Y120.149 E6.66771
G1 X165.035 Y120.167 E6.6679
G1 X164.956 Y120.164 E6.66818
G1 X164.951 Y120.162 E6.6682
G1 X164.924 Y120.15 E6.66831
G1 X164.91 Y120.144 E6.66836
G1 X164.899 Y120.136 E6.66841
G1 X164.873 Y120.115 E6.66853
G1 X164.856 Y120.092 E6.66864
G1 X164.835 Y120.04 E6.66884
G1 X164.83 Y119.997 E6.66899
G1 X164.835 Y119.96 E6.66913
G1 X164.842 Y119.946 E6.66918
G1 X164.874 Y119.884 E6.66944
G1 X164.91 Y119.856 E6.6696
G1 X164.956 Y119.836 E6.66978
G1 X164.992 Y119.83 E6.66991
G1 X164.996 Y119.83 E6.66993
G1 X165.035 Y119.833 E6.67007
M204 S5000
M205 X30 Y30
G0 F9000 X165.088 Y119.607
M204 S1000
M205 X10 Y10
G1 F750 X165.188 Y119.644 E6.67045
G1 X165.268 Y119.7 E6.67081
G1 X165.339 Y119.782 E6.6712
G1 X165.381 Y119.872 E6.67155
G1 X165.399 Y119.964 E6.67189
G1 X165.378 Y120.137 E6.67252
G1 X165.339 Y120.217 E6.67284
G1 X165.268 Y120.3 E6.67324
G1 X165.188 Y120.356 E6.67359
G1 X165.088 Y120.393 E6.67397
G1 X165.056 Y120.395 E6.67409
G1 X164.987 Y120.402 E6.67434
G1 X164.889 Y120.386 E6.6747
G1 X164.791 Y120.343 E6.67508
G1 X164.708 Y120.278 E6.67546
G1 X164.672 Y120.228 E6.67568
G1 X164.653 Y120.203 E6.6758
G1 X164.611 Y120.1 E6.6762
G1 X164.608 Y120.069 E6.67631
G1 X164.598 Y119.997 E6.67657
G1 X164.611 Y119.9 E6.67692
G1 X164.653 Y119.797 E6.67733
G1 X164.708 Y119.722 E6.67766
G1 X164.791 Y119.657 E6.67804
G1 X164.889 Y119.614 E6.67843
G1 X164.987 Y119.598 E6.67879
G1 X165.088 Y119.607 E6.67915
M204 S5000
M205 X30 Y30
G0 F9000 X165.136 Y119.396
M204 S500
M205 X5 Y5
;TYPE:WALL-OUTER
G1 F600 X165.287 Y119.451 E6.67973
G1 X165.414 Y119.54 E6.68029
G1 X165.521 Y119.665 E6.68088
G1 X165.587 Y119.803 E6.68143
G1 X165.616 Y119.957 E6.682
G1 X165.586 Y120.2 E6.68288
G1 X165.521 Y120.335 E6.68342
G1 X165.414 Y120.46 E6.68402
G1 X165.287 Y120.549 E6.68457
G1 X165.136 Y120.604 E6.68515
G1 X164.98 Y120.619 E6.68572
G1 X164.827 Y120.594 E6.68628
G1 X164.679 Y120.529 E6.68686
G1 X164.553 Y120.429 E6.68744
G1 X164.464 Y120.308 E6.68798
G1 X164.402 Y120.155 E6.68858
G1 X164.381 Y120 E6.68914
G1 X164.402 Y119.845 E6.68971
G1 X164.464 Y119.692 E6.6903
G1 X164.553 Y119.571 E6.69084
G1 X164.679 Y119.471 E6.69142
G1 X164.827 Y119.406 E6.692
G1 X164.98 Y119.381 E6.69256
G1 X165.136 Y119.396 E6.69313
M204 S5000
M205 X30 Y30
G0 F9000 X165.287 Y119.451
G0 X165.36 Y119.502
G0 X165.214 Y119.709
G0 X164.984 Y119.95
M204 S500
M205 X5 Y5
;TYPE:SKIN
G1 F1200 X164.959 Y119.976 E6.69319
M204 S5000
M205 X30 Y30
;MESH:NONMESH
G0 F9000 X165.035 Y119.833
;TIME_ELAPSED:45.103937
;LAYER:12
;MESH:Para1.STL
G0 X165.035 Y119.833 Z1.37
M204 S1000
M205 X10 Y10
;TYPE:WALL-INNER
G1 F750 X165.098 Y119.864 E6.69345
G1 X165.111 Y119.87 E6.6935
G1 X165.146 Y119.911 E6.69369
G1 X165.16 Y119.941 E6.69381
G1 X165.166 Y119.974 E6.69393
G1 X165.166 Y119.978 E6.69395
G1 X165.155 Y120.063 E6.69426
G1 X165.155 Y120.069 E6.69428
G1 X165.147 Y120.081 E6.69433
G1 X165.118 Y120.119 E6.6945
G1 X165.11 Y120.13 E6.69455
G1 X165.083 Y120.149 E6.69467
G1 X165.035 Y120.167 E6.69486
G1 X164.956 Y120.164 E6.69514
G1 X164.951 Y120.162 E6.69516
G1 X164.924 Y120.15 E6.69527
G1 X164.91 Y120.144 E6.69532
G1 X164.899 Y120.136 E6.69537
G1 X164.873 Y120.115 E6.69549
G1 X164.856 Y120.092 E6.69559
G1 X164.835 Y120.04 E6.6958
G1 X164.83 Y119.997 E6.69595
G1 X164.835 Y119.96 E6.69609
G1 X164.842 Y119.946 E6.69614
G1 X164.874 Y119.884 E6.69639
G1 X164.91 Y119.856 E6.69656
G1 X164.956 Y119.836 E6.69674
G1 X164.992 Y119.83 E6.69687
G1 X164.996 Y119.83 E6.69689
G1 X165.035 Y119.833 E6.69703
M204 S5000
M205 X30 Y30
G0 F9000 X165.088 Y119.607
M204 S1000
M205 X10 Y10
G1 F750 X165.188 Y119.644 E6.69741
G1 X165.268 Y119.7 E6.69776
G1 X165.339 Y119.782 E6.69815
G1 X165.381 Y119.872 E6.69851
G1 X165.399 Y119.964 E6.69885
G1 X165.378 Y120.137 E6.69948
G1 X165.339 Y120.217 E6.6998
G1 X165.268 Y120.3 E6.70019
G1 X165.188 Y120.356 E6.70055
G1 X165.088 Y120.393 E6.70093
G1 X165.056 Y120.395 E6.70105
G1 X164.987 Y120.402 E6.7013
G1 X164.889 Y120.386 E6.70165
G1 X164.791 Y120.343 E6.70204
G1 X164.708 Y120.278 E6.70242
G1 X164.672 Y120.228 E6.70264
G1 X164.653 Y120.203 E6.70275
G1 X164.611 Y120.1 E6.70316
G1 X164.608 Y120.069 E6.70327
G1 X164.598 Y119.997 E6.70353
G1 X164.611 Y119.9 E6.70388
G1 X164.653 Y119.797 E6.70428
G1 X164.708 Y119.722 E6.70462
G1 X164.791 Y119.657 E6.705
G1 X164.889 Y119.614 E6.70539
G1 X164.987 Y119.598 E6.70574
G1 X165.088 Y119.607 E6.70611
M204 S5000
M205 X30 Y30
G0 F9000 X165.136 Y119.396
M204 S500
M205 X5 Y5
;TYPE:WALL-OUTER
G1 F600 X165.287 Y119.451 E6.70669
G1 X165.414 Y119.54 E6.70725
G1 X165.521 Y119.665 E6.70784
G1 X165.587 Y119.803 E6.70839
G1 X165.616 Y119.957 E6.70896
G1 X165.586 Y120.2 E6.70984
G1 X165.521 Y120.335 E6.71038
G1 X165.414 Y120.46 E6.71097
G1 X165.287 Y120.549 E6.71153
G1 X165.136 Y120.604 E6.71211
G1 X164.98 Y120.619 E6.71268
G1 X164.827 Y120.594 E6.71324
G1 X164.679 Y120.529 E6.71382
G1 X164.553 Y120.429 E6.7144
G1 X164.464 Y120.308 E6.71494
G1 X164.402 Y120.155 E6.71554
G1 X164.381 Y120 E6.7161
G1 X164.402 Y119.845 E6.71666
G1 X164.464 Y119.692 E6.71726
G1 X164.553 Y119.571 E6.7178
G1 X164.679 Y119.471 E6.71838
G1 X164.827 Y119.406 E6.71896
G1 X164.98 Y119.381 E6.71952
G1 X165.136 Y119.396 E6.72009
M204 S5000
M205 X30 Y30
G0 F9000 X165.287 Y119.451
G0 X165.36 Y119.502
G0 X165.214 Y119.709
G0 X164.998 Y119.948
M204 S500
M205 X5 Y5
;TYPE:SKIN
G1 F1200 X165.045 Y119.995 E6.72021
M204 S5000
M205 X30 Y30
;MESH:NONMESH
G0 F9000 X165.035 Y119.833
;TIME_ELAPSED:45.934001
;LAYER:13
;MESH:Para1.STL
G0 X165.035 Y119.833 Z1.47
M204 S1000
M205 X10 Y10
;TYPE:WALL-INNER
G1 F750 X165.098 Y119.864 E6.72046
G1 X165.111 Y119.87 E6.72051
G1 X165.146 Y119.911 E6.72071
G1 X165.16 Y119.941 E6.72083
G1 X165.166 Y119.974 E6.72095
G1 X165.166 Y119.978 E6.72096
G1 X165.155 Y120.063 E6.72127
G1 X165.155 Y120.069 E6.72129
G1 X165.147 Y120.081 E6.72134
G1 X165.118 Y120.119 E6.72152
G1 X165.11 Y120.13 E6.72156
G1 X165.083 Y120.149 E6.72168
G1 X165.035 Y120.167 E6.72187
G1 X164.956 Y120.164 E6.72215
G1 X164.951 Y120.162 E6.72217
G1 X164.924 Y120.15 E6.72228
G1 X164.91 Y120.144 E6.72233
G1 X164.899 Y120.136 E6.72238
G1 X164.873 Y120.115 E6.7225
G1 X164.856 Y120.092 E6.72261
G1 X164.835 Y120.04 E6.72281
G1 X164.83 Y119.997 E6.72297
G1 X164.835 Y119.96 E6.7231
G1 X164.842 Y119.946 E6.72316
G1 X164.874 Y119.884 E6.72341
G1 X164.91 Y119.856 E6.72357
G1 X164.956 Y119.836 E6.72375
G1 X164.992 Y119.83 E6.72388
G1 X164.996 Y119.83 E6.7239
G1 X165.035 Y119.833 E6.72404
M204 S5000
M205 X30 Y30
G0 F9000 X165.088 Y119.607
M204 S1000
M205 X10 Y10
G1 F750 X165.188 Y119.644 E6.72442
G1 X165.268 Y119.7 E6.72478
G1 X165.339 Y119.782 E6.72517
G1 X165.381 Y119.872 E6.72553
G1 X165.399 Y119.964 E6.72586
G1 X165.378 Y120.137 E6.72649
G1 X165.339 Y120.217 E6.72681
G1 X165.268 Y120.3 E6.72721
G1 X165.188 Y120.356 E6.72756
G1 X165.088 Y120.393 E6.72794
G1 X165.056 Y120.395 E6.72806
G1 X164.987 Y120.402 E6.72831
G1 X164.889 Y120.386 E6.72867
G1 X164.791 Y120.343 E6.72905
G1 X164.708 Y120.278 E6.72943
G1 X164.672 Y120.228 E6.72965
G1 X164.653 Y120.203 E6.72977
G1 X164.611 Y120.1 E6.73017
G1 X164.608 Y120.069 E6.73028
G1 X164.598 Y119.997 E6.73054
G1 X164.611 Y119.9 E6.7309
G1 X164.653 Y119.797 E6.7313
G1 X164.708 Y119.722 E6.73163
G1 X164.791 Y119.657 E6.73201
G1 X164.889 Y119.614 E6.7324
G1 X164.987 Y119.598 E6.73276
G1 X165.088 Y119.607 E6.73312
M204 S5000
M205 X30 Y30
G0 F9000 X165.136 Y119.396
M204 S500
M205 X5 Y5
;TYPE:WALL-OUTER
G1 F600 X165.287 Y119.451 E6.7337
G1 X165.414 Y119.54 E6.73426
G1 X165.521 Y119.665 E6.73485
G1 X165.587 Y119.803 E6.73541
G1 X165.616 Y119.957 E6.73597
G1 X165.586 Y120.2 E6.73685
G1 X165.521 Y120.335 E6.73739
G1 X165.414 Y120.46 E6.73799
G1 X165.287 Y120.549 E6.73855
G1 X165.136 Y120.604 E6.73913
G1 X164.98 Y120.619 E6.73969
G1 X164.827 Y120.594 E6.74025
G1 X164.679 Y120.529 E6.74083
G1 X164.553 Y120.429 E6.74141
G1 X164.464 Y120.308 E6.74195
G1 X164.402 Y120.155 E6.74255
G1 X164.381 Y120 E6.74311
G1 X164.402 Y119.845 E6.74368
G1 X164.464 Y119.692 E6.74427
G1 X164.553 Y119.571 E6.74481
G1 X164.679 Y119.471 E6.74539
G1 X164.827 Y119.406 E6.74598
G1 X164.98 Y119.381 E6.74653
G1 X165.136 Y119.396 E6.7471
M204 S5000
M205 X30 Y30
G0 F9000 X165.287 Y119.451
G0 X165.36 Y119.502
G0 X165.214 Y119.709
G0 X164.984 Y119.95
M204 S500
M205 X5 Y5
;TYPE:SKIN
G1 F1200 X164.959 Y119.976 E6.74716
M204 S5000
M205 X30 Y30
;MESH:NONMESH
G0 F9000 X165.035 Y119.833
;TIME_ELAPSED:46.760092
;LAYER:14
;MESH:Para1.STL
G0 X165.035 Y119.833 Z1.57
M204 S1000
M205 X10 Y10
;TYPE:WALL-INNER
G1 F750 X165.098 Y119.864 E6.74742
G1 X165.111 Y119.87 E6.74747
G1 X165.146 Y119.911 E6.74766
G1 X165.16 Y119.941 E6.74778
G1 X165.166 Y119.974 E6.7479
G1 X165.166 Y119.978 E6.74792
G1 X165.155 Y120.063 E6.74823
G1 X165.155 Y120.069 E6.74825
G1 X165.147 Y120.081 E6.7483
G1 X165.118 Y120.119 E6.74847
G1 X165.11 Y120.13 E6.74852
G1 X165.083 Y120.149 E6.74864
G1 X165.035 Y120.167 E6.74883
G1 X164.956 Y120.164 E6.74911
G1 X164.951 Y120.162 E6.74913
G1 X164.924 Y120.15 E6.74924
G1 X164.91 Y120.144 E6.74929
G1 X164.899 Y120.136 E6.74934
G1 X164.873 Y120.115 E6.74946
G1 X164.856 Y120.092 E6.74957
G1 X164.835 Y120.04 E6.74977
G1 X164.83 Y119.997 E6.74992
G1 X164.835 Y119.96 E6.75006
G1 X164.842 Y119.946 E6.75011
G1 X164.874 Y119.884 E6.75037
G1 X164.91 Y119.856 E6.75053
G1 X164.956 Y119.836 E6.75071
G1 X164.992 Y119.83 E6.75084
G1 X164.996 Y119.83 E6.75086
G1 X165.035 Y119.833 E6.751
M204 S5000
M205 X30 Y30
G0 F9000 X165.088 Y119.607
M204 S1000
M205 X10 Y10
G1 F750 X165.188 Y119.644 E6.75138
G1 X165.268 Y119.7 E6.75173
G1 X165.339 Y119.782 E6.75213
G1 X165.381 Y119.872 E6.75248
G1 X165.399 Y119.964 E6.75282
G1 X165.378 Y120.137 E6.75345
G1 X165.339 Y120.217 E6.75377
G1 X165.268 Y120.3 E6.75416
G1 X165.188 Y120.356 E6.75452
G1 X165.088 Y120.393 E6.7549
G1 X165.056 Y120.395 E6.75502
G1 X164.987 Y120.402 E6.75527
G1 X164.889 Y120.386 E6.75562
G1 X164.791 Y120.343 E6.75601
G1 X164.708 Y120.278 E6.75639
G1 X164.672 Y120.228 E6.75661
G1 X164.653 Y120.203 E6.75673
G1 X164.611 Y120.1 E6.75713
G1 X164.608 Y120.069 E6.75724
G1 X164.598 Y119.997 E6.7575
G1 X164.611 Y119.9 E6.75785
G1 X164.653 Y119.797 E6.75826
G1 X164.708 Y119.722 E6.75859
G1 X164.791 Y119.657 E6.75897
G1 X164.889 Y119.614 E6.75936
G1 X164.987 Y119.598 E6.75971
G1 X165.088 Y119.607 E6.76008
M204 S5000
M205 X30 Y30
G0 F9000 X165.136 Y119.396
M204 S500
M205 X5 Y5
;TYPE:WALL-OUTER
G1 F600 X165.287 Y119.451 E6.76066
G1 X165.414 Y119.54 E6.76122
G1 X165.521 Y119.665 E6.76181
G1 X165.587 Y119.803 E6.76236
G1 X165.616 Y119.957 E6.76293
G1 X165.586 Y120.2 E6.76381
G1 X165.521 Y120.335 E6.76435
G1 X165.414 Y120.46 E6.76494
G1 X165.287 Y120.549 E6.7655
G1 X165.136 Y120.604 E6.76608
G1 X164.98 Y120.619 E6.76665
G1 X164.827 Y120.594 E6.76721
G1 X164.679 Y120.529 E6.76779
G1 X164.553 Y120.429 E6.76837
G1 X164.464 Y120.308 E6.76891
G1 X164.402 Y120.155 E6.76951
G1 X164.381 Y120 E6.77007
G1 X164.402 Y119.845 E6.77063
G1 X164.464 Y119.692 E6.77123
G1 X164.553 Y119.571 E6.77177
G1 X164.679 Y119.471 E6.77235
G1 X164.827 Y119.406 E6.77293
G1 X164.98 Y119.381 E6.77349
G1 X165.136 Y119.396 E6.77406
M204 S5000
M205 X30 Y30
G0 F9000 X165.287 Y119.451
G0 X165.36 Y119.502
G0 X165.214 Y119.709
G0 X164.998 Y119.948
M204 S500
M205 X5 Y5
;TYPE:SKIN
G1 F1200 X165.045 Y119.995 E6.77418
M204 S5000
M205 X30 Y30
;MESH:NONMESH
G0 F9000 X165.035 Y119.833
;TIME_ELAPSED:47.590157
;LAYER:15
;MESH:Para1.STL
G0 X165.035 Y119.833 Z1.67
M204 S1000
M205 X10 Y10
;TYPE:WALL-INNER
G1 F750 X165.098 Y119.864 E6.77443
G1 X165.111 Y119.87 E6.77448
G1 X165.146 Y119.911 E6.77468
G1 X165.16 Y119.941 E6.7748
G1 X165.166 Y119.974 E6.77492
G1 X165.166 Y119.978 E6.77493
G1 X165.155 Y120.063 E6.77524
G1 X165.155 Y120.069 E6.77526
G1 X165.147 Y120.081 E6.77531
G1 X165.118 Y120.119 E6.77549
G1 X165.11 Y120.13 E6.77554
G1 X165.083 Y120.149 E6.77565
G1 X165.035 Y120.167 E6.77584
G1 X164.956 Y120.164 E6.77612
G1 X164.951 Y120.162 E6.77614
G1 X164.924 Y120.15 E6.77625
G1 X164.91 Y120.144 E6.77631
G1 X164.899 Y120.136 E6.77635
G1 X164.873 Y120.115 E6.77648
G1 X164.856 Y120.092 E6.77658
G1 X164.835 Y120.04 E6.77678
G1 X164.83 Y119.997 E6.77694
G1 X164.835 Y119.96 E6.77707
G1 X164.842 Y119.946 E6.77713
G1 X164.874 Y119.884 E6.77738
G1 X164.91 Y119.856 E6.77754
G1 X164.956 Y119.836 E6.77772
G1 X164.992 Y119.83 E6.77786
G1 X164.996 Y119.83 E6.77787
G1 X165.035 Y119.833 E6.77801
M204 S5000
M205 X30 Y30
G0 F9000 X165.088 Y119.607
M204 S1000
M205 X10 Y10
G1 F750 X165.188 Y119.644 E6.7784
G1 X165.268 Y119.7 E6.77875
G1 X165.339 Y119.782 E6.77914
G1 X165.381 Y119.872 E6.7795
G1 X165.399 Y119.964 E6.77983
G1 X165.378 Y120.137 E6.78046
G1 X165.339 Y120.217 E6.78078
G1 X165.268 Y120.3 E6.78118
G1 X165.188 Y120.356 E6.78153
G1 X165.088 Y120.393 E6.78191
G1 X165.056 Y120.395 E6.78203
G1 X164.987 Y120.402 E6.78228
G1 X164.889 Y120.386 E6.78264
G1 X164.791 Y120.343 E6.78302
G1 X164.708 Y120.278 E6.7834
G1 X164.672 Y120.228 E6.78363
G1 X164.653 Y120.203 E6.78374
G1 X164.611 Y120.1 E6.78414
G1 X164.608 Y120.069 E6.78425
G1 X164.598 Y119.997 E6.78451
G1 X164.611 Y119.9 E6.78487
G1 X164.653 Y119.797 E6.78527
G1 X164.708 Y119.722 E6.7856
G1 X164.791 Y119.657 E6.78598
G1 X164.889 Y119.614 E6.78637
G1 X164.987 Y119.598 E6.78673
G1 X165.088 Y119.607 E6.78709
M204 S5000
M205 X30 Y30
G0 F9000 X165.136 Y119.396
M204 S500
M205 X5 Y5
;TYPE:WALL-OUTER
G1 F600 X165.287 Y119.451 E6.78767
G1 X165.414 Y119.54 E6.78823
G1 X165.521 Y119.665 E6.78883
G1 X165.587 Y119.803 E6.78938
G1 X165.616 Y119.957 E6.78994
G1 X165.586 Y120.2 E6.79082
G1 X165.521 Y120.335 E6.79136
G1 X165.414 Y120.46 E6.79196
G1 X165.287 Y120.549 E6.79252
G1 X165.136 Y120.604 E6.7931
G1 X164.98 Y120.619 E6.79366
G1 X164.827 Y120.594 E6.79422
G1 X164.679 Y120.529 E6.7948
G1 X164.553 Y120.429 E6.79538
G1 X164.464 Y120.308 E6.79592
G1 X164.402 Y120.155 E6.79652
G1 X164.381 Y120 E6.79708
G1 X164.402 Y119.845 E6.79765
G1 X164.464 Y119.692 E6.79824
G1 X164.553 Y119.571 E6.79878
G1 X164.679 Y119.471 E6.79936
G1 X164.827 Y119.406 E6.79995
G1 X164.98 Y119.381 E6.80051
G1 X165.136 Y119.396 E6.80107
M204 S5000
M205 X30 Y30
G0 F9000 X165.287 Y119.451
G0 X165.36 Y119.502
G0 X165.214 Y119.709
G0 X164.984 Y119.95
M204 S500
M205 X5 Y5
;TYPE:SKIN
G1 F1200 X164.959 Y119.976 E6.80114
M204 S5000
M205 X30 Y30
;MESH:NONMESH
G0 F9000 X165.035 Y119.833
;TIME_ELAPSED:48.416247
;LAYER:16
;MESH:Para1.STL
G0 X165.035 Y119.833 Z1.77
M204 S1000
M205 X10 Y10
;TYPE:WALL-INNER
G1 F750 X165.098 Y119.864 E6.80139
G1 X165.111 Y119.87 E6.80144
G1 X165.146 Y119.911 E6.80164
G1 X165.16 Y119.941 E6.80175
G1 X165.166 Y119.974 E6.80188
G1 X165.166 Y119.978 E6.80189
G1 X165.155 Y120.063 E6.8022
G1 X165.155 Y120.069 E6.80222
G1 X165.147 Y120.081 E6.80227
G1 X165.118 Y120.119 E6.80244
G1 X165.11 Y120.13 E6.80249
G1 X165.083 Y120.149 E6.80261
