;Generated with Cura_SteamEngine 15.01
; Default start code
G28 ; Home extruder
G1 Z15 F4800
M107 ; Turn off fan
G90 ; Absolute positioning
M82 ; Extruder in absolute mode
M190 S50
; Activate all used extruder
M104 T0 S230
G92 E0 ; Reset extruder position
; Wait for all used extruders to reach temperature
M109 T0 S230
;Layer count: 450
;LAYER:0
M107
G0 F4800 X3.800 Y-4.350 Z0.300
;TYPE:SKIRT
G1 F1800 X-3.800 Y-4.350 E0.39812
G1 X-3.800 Y4.496 E0.86152
G1 X-3.863 Y5.307 E0.90413
G1 X-3.873 Y5.424 E0.91028
G1 X-4.092 Y6.342 E0.95972
G1 X-4.460 Y7.240 E1.01056
G1 X-4.965 Y8.072 E1.06154
G1 X-5.594 Y8.816 E1.11258
G1 X-6.333 Y9.451 E1.16362
G1 X-7.160 Y9.962 E1.21455
G1 X-8.056 Y10.339 E1.26547
G1 X-9.002 Y10.570 E1.31648
G1 X-9.878 Y10.643 E1.36253
G1 X-9.878 Y10.642 E1.36258
G1 X-9.994 Y10.653 E1.36868
G1 X-10.857 Y10.586 E1.41403
G1 X-10.974 Y10.576 E1.42018
G1 X-11.893 Y10.356 E1.46968
G1 X-12.790 Y9.988 E1.52047
G1 X-13.550 Y9.528 E1.56701
G1 X-13.652 Y9.464 E1.57332
G1 X-14.305 Y8.906 E1.61831
G1 X-14.392 Y8.829 E1.62440
G1 X-14.950 Y8.176 E1.66939
G1 X-15.025 Y8.086 E1.67553
G1 X-15.458 Y7.379 E1.71896
G1 X-15.525 Y7.273 E1.72553
G1 X-15.850 Y6.486 E1.77013
G1 X-15.896 Y6.385 E1.77595
G1 X-16.121 Y5.443 E1.82668
G1 X-16.197 Y4.519 E1.87525
G1 X-16.199 Y-10.649 E2.66982
G1 X16.200 Y-10.649 E4.36703
G1 X16.200 Y4.496 E5.16040
G1 X16.136 Y5.308 E5.20307
G1 X16.126 Y5.424 E5.20917
G1 X15.907 Y6.342 E5.25860
G1 X15.539 Y7.240 E5.30944
G1 X15.034 Y8.072 E5.36043
G1 X14.405 Y8.816 E5.41146
G1 X13.666 Y9.451 E5.46250
G1 X12.839 Y9.962 E5.51343
G1 X11.943 Y10.339 E5.56435
G1 X10.997 Y10.570 E5.61536
G1 X10.123 Y10.643 E5.66131
G1 X10.123 Y10.642 E5.66136
G1 X10.006 Y10.653 E5.66751
G1 X9.142 Y10.586 E5.71291
G1 X9.025 Y10.576 E5.71906
G1 X8.106 Y10.356 E5.76856
G1 X7.287 Y10.019 E5.81496
G1 X7.178 Y9.973 E5.82115
G1 X6.375 Y9.483 E5.87043
G1 X5.696 Y8.908 E5.91704
G1 X5.607 Y8.829 E5.92328
G1 X5.049 Y8.176 E5.96827
G1 X4.974 Y8.086 E5.97441
G1 X4.541 Y7.379 E6.01784
G1 X4.474 Y7.273 E6.02441
G1 X4.149 Y6.486 E6.06901
G1 X4.103 Y6.385 E6.07483
G1 X3.878 Y5.443 E6.12556
G1 X3.802 Y4.519 E6.17413
G1 X3.800 Y-4.350 E6.63873
G0 F4800 X3.800 Y-6.050
G0 X5.600 Y-6.150
;TYPE:WALL-INNER
G1 F1800 X-5.600 Y-6.150 E7.22544
G1 X-5.600 Y4.429 E7.77961
G1 X-5.655 Y5.134 E7.81666
G1 X-5.812 Y5.793 E7.85214
G1 X-6.071 Y6.426 E7.88797
G1 X-6.429 Y7.015 E7.92408
G1 X-6.878 Y7.546 E7.96051
G1 X-7.402 Y7.996 E7.99669
G1 X-7.983 Y8.355 E8.03247
G1 X-8.622 Y8.624 E8.06879
G1 X-9.291 Y8.788 E8.10487
G1 X-10.004 Y8.847 E8.14235
G1 X-10.684 Y8.794 E8.17808
G1 X-11.340 Y8.638 E8.21340
G1 X-11.978 Y8.375 E8.24955
G1 X-12.583 Y8.009 E8.28659
G1 X-13.108 Y7.561 E8.32274
G1 X-13.556 Y7.037 E8.35886
G1 X-13.922 Y6.439 E8.39559
G1 X-14.185 Y5.802 E8.43169
G1 X-14.339 Y5.157 E8.46642
G1 X-14.397 Y4.445 E8.50385
G1 X-14.399 Y-8.849 E9.20025
G1 X14.400 Y-8.849 E10.70888
G1 X14.400 Y4.421 E11.40402
G1 X14.344 Y5.134 E11.44149
G1 X14.187 Y5.793 E11.47697
G1 X13.928 Y6.426 E11.51280
G1 X13.570 Y7.015 E11.54891
G1 X13.121 Y7.546 E11.58534
G1 X12.597 Y7.996 E11.62152
G1 X12.016 Y8.355 E11.65730
G1 X11.377 Y8.624 E11.69361
G1 X10.708 Y8.788 E11.72970
G1 X9.995 Y8.847 E11.76718
G1 X9.315 Y8.794 E11.80291
G1 X8.659 Y8.638 E11.83823
G1 X8.004 Y8.368 E11.87534
G1 X7.433 Y8.020 E11.91037
G1 X6.890 Y7.559 E11.94768
G1 X6.443 Y7.037 E11.98368
G1 X6.077 Y6.439 E12.02041
G1 X5.814 Y5.802 E12.05651
G1 X5.660 Y5.157 E12.09125
G1 X5.602 Y4.445 E12.12867
G1 X5.600 Y-6.150 E12.68369
G0 F4800 X5.200 Y-5.750
;TYPE:WALL-OUTER
G1 F1800 X-5.200 Y-5.750 E13.22849
G1 X-5.200 Y4.449 E13.76276
G1 X-5.258 Y5.192 E13.80180
G1 X-5.430 Y5.913 E13.84063
G1 X-5.714 Y6.607 E13.87991
G1 X-6.105 Y7.252 E13.91942
G1 X-6.592 Y7.827 E13.95890
G1 X-7.163 Y8.319 E13.99838
G1 X-7.803 Y8.714 E14.03778
G1 X-8.497 Y9.006 E14.07722
G1 X-9.226 Y9.184 E14.11653
G1 X-10.001 Y9.249 E14.15727
G1 X-10.742 Y9.191 E14.19621
G1 X-11.463 Y9.019 E14.23504
G1 X-12.157 Y8.734 E14.27434
G1 X-12.815 Y8.336 E14.31462
G1 X-13.388 Y7.848 E14.35405
G1 X-13.879 Y7.275 E14.39358
G1 X-14.273 Y6.632 E14.43308
G1 X-14.562 Y5.936 E14.47256
G1 X-14.735 Y5.222 E14.51104
G1 X-14.797 Y4.470 E14.55057
G1 X-14.799 Y-9.249 E15.26924
G1 X14.800 Y-9.249 E16.81977
G1 X14.800 Y4.449 E17.53734
G1 X14.741 Y5.192 E17.57638
G1 X14.569 Y5.913 E17.61521
G1 X14.285 Y6.607 E17.65449
G1 X13.894 Y7.252 E17.69400
G1 X13.407 Y7.827 E17.73348
G1 X12.836 Y8.319 E17.77296
G1 X12.196 Y8.714 E17.81236
G1 X11.502 Y9.006 E17.85180
G1 X10.773 Y9.184 E17.89111
G1 X9.998 Y9.249 E17.93185
G1 X9.257 Y9.191 E17.97079
G1 X8.536 Y9.019 E18.00962
G1 X7.830 Y8.729 E18.04960
G1 X7.197 Y8.344 E18.08841
G1 X6.610 Y7.847 E18.12870
G1 X6.120 Y7.275 E18.16816
G1 X5.726 Y6.632 E18.20766
G1 X5.437 Y5.936 E18.24714
G1 X5.264 Y5.222 E18.28562
G1 X5.202 Y4.470 E18.32515
G1 X5.200 Y-5.750 E18.86052
G0 F4800 X5.307 Y-6.289
;TYPE:SKIN
G1 F1800 X2.887 Y-8.708 E19.03977
G0 F4800 X2.322 Y-8.708
G1 F1800 X4.741 Y-6.289 E19.21897
G0 F4800 X4.176 Y-6.289
G1 F1800 X1.756 Y-8.708 E19.39822
G0 F4800 X1.190 Y-8.708
G1 F1800 X3.610 Y-6.289 E19.57746
G0 F4800 X3.044 Y-6.289
G1 F1800 X0.625 Y-8.708 E19.75667
G0 F4800 X0.059 Y-8.708
G1 F1800 X2.479 Y-6.289 E19.93591
G0 F4800 X1.913 Y-6.289
G1 F1800 X-0.506 Y-8.708 E20.11512
G0 F4800 X-1.071 Y-8.708
G1 F1800 X1.347 Y-6.289 E20.29429
G0 F4800 X0.782 Y-6.289
G1 F1800 X-1.637 Y-8.708 E20.47350
G0 F4800 X-2.203 Y-8.708
G1 F1800 X0.216 Y-6.289 E20.65270
G0 F4800 X-0.349 Y-6.289
G1 F1800 X-2.769 Y-8.708 E20.83195
G0 F4800 X-3.334 Y-8.708
G1 F1800 X-0.914 Y-6.289 E21.01119
G0 F4800 X-1.480 Y-6.289
G1 F1800 X-3.900 Y-8.708 E21.19044
G0 F4800 X-4.466 Y-8.708
G1 F1800 X-2.046 Y-6.289 E21.36968
G0 F4800 X-2.612 Y-6.289
G1 F1800 X-5.031 Y-8.708 E21.54889
G0 F4800 X-5.597 Y-8.708
G1 F1800 X-3.177 Y-6.289 E21.72813
G0 F4800 X-3.743 Y-6.289
G1 F1800 X-6.163 Y-8.708 E21.90738
G0 F4800 X-6.728 Y-8.708
G1 F1800 X-4.309 Y-6.289 E22.08658
G0 F4800 X-4.874 Y-6.289
G1 F1800 X-7.294 Y-8.708 E22.26583
G0 F4800 X-7.860 Y-8.708
G1 F1800 X-5.440 Y-6.289 E22.44507
G0 F4800 X-5.739 Y-6.022
G1 F1800 X-8.425 Y-8.708 E22.64406
G0 F4800 X-8.991 Y-8.708
G1 F1800 X-5.739 Y-5.456 E22.88498
G0 F4800 X-5.739 Y-4.891
G1 F1800 X-9.557 Y-8.708 E23.16779
G0 F4800 X-10.122 Y-8.708
G1 F1800 X-5.739 Y-4.325 E23.49250
G0 F4800 X-5.739 Y-3.759
G1 F1800 X-10.688 Y-8.708 E23.85914
G0 F4800 X-11.254 Y-8.708
G1 F1800 X-5.739 Y-3.194 E24.26767
G0 F4800 X-5.739 Y-2.628
G1 F1800 X-11.819 Y-8.708 E24.71809
G0 F4800 X-12.385 Y-8.708
G1 F1800 X-5.739 Y-2.062 E25.21045
G0 F4800 X-5.739 Y-1.496
G1 F1800 X-12.951 Y-8.708 E25.74474
G0 F4800 X-13.517 Y-8.708
G1 F1800 X-5.739 Y-0.931 E26.32092
G0 F4800 X-5.738 Y-0.364
G1 F1800 X-14.082 Y-8.708 E26.93907
G0 F4800 X-14.258 Y-8.318
G1 F1800 X-5.738 Y0.200 E27.57018
G0 F4800 X-5.738 Y0.766
G1 F1800 X-14.258 Y-7.752 E28.20130
G0 F4800 X-14.258 Y-7.187
G1 F1800 X-5.738 Y1.332 E28.83245
G0 F4800 X-5.738 Y1.897
G1 F1800 X-14.258 Y-6.621 E29.46356
G0 F4800 X-14.258 Y-6.055
G1 F1800 X-5.738 Y2.463 E30.09468
G0 F4800 X-5.738 Y3.029
G1 F1800 X-14.258 Y-5.489 E30.72579
G0 F4800 X-14.258 Y-4.924
G1 F1800 X-5.738 Y3.594 E31.35691
G0 F4800 X-5.738 Y4.160
G1 F1800 X-14.258 Y-4.358 E31.98802
G0 F4800 X-14.257 Y-3.792
G1 F1800 X-5.760 Y4.705 E32.61751
G0 F4800 X-5.817 Y5.213
G1 F1800 X-14.257 Y-3.226 E33.24273
G0 F4800 X-14.257 Y-2.660
G1 F1800 X-5.926 Y5.670 E33.85988
G0 F4800 X-6.080 Y6.081
G1 F1800 X-14.257 Y-2.095 E34.46562
G0 F4800 X-14.257 Y-1.529
G1 F1800 X-6.260 Y6.467 E35.05803
G0 F4800 X-6.474 Y6.819
G1 F1800 X-14.257 Y-0.963 E35.63458
G0 F4800 X-14.257 Y-0.398
G1 F1800 X-6.718 Y7.140 E36.19306
G0 F4800 X-6.978 Y7.446
G1 F1800 X-14.256 Y0.168 E36.73223
G0 F4800 X-14.256 Y0.733
G1 F1800 X-7.282 Y7.708 E37.24893
G0 F4800 X-7.601 Y7.954
G1 F1800 X-14.256 Y1.299 E37.74195
G0 F4800 X-14.256 Y1.865
G1 F1800 X-7.952 Y8.169 E38.20897
G0 F4800 X-8.336 Y8.351
G1 F1800 X-14.256 Y2.431 E38.64754
G0 F4800 X-14.256 Y2.996
G1 F1800 X-8.743 Y8.510 E39.05600
G0 F4800 X-9.198 Y8.620
G1 F1800 X-14.256 Y3.562 E39.43071
G0 F4800 X-14.256 Y4.128
G1 F1800 X-9.703 Y8.681 E39.76802
G0 F4800 X-10.264 Y8.686
G1 F1800 X-14.234 Y4.716 E40.06213
G0 F4800 X-14.140 Y5.375
G1 F1800 X-10.924 Y8.592 E40.30041
G0 F4800 X-11.774 Y8.307
G1 F1800 X-13.859 Y6.222 E40.45488
G0 F4800 X-5.541 Y-6.091
G0 X5.541 Y-6.091
G0 X5.781 Y4.932
G1 F1800 X9.517 Y8.669 E40.73169
G0 F4800 X10.111 Y8.697
G1 F1800 X5.740 Y4.326 E41.05551
G0 F4800 X5.740 Y3.760
G1 F1800 X10.632 Y8.652 E41.41792
G0 F4800 X11.093 Y8.548
G1 F1800 X5.740 Y3.194 E41.81453
G0 F4800 X5.740 Y2.629
G1 F1800 X11.521 Y8.410 E42.24280
G0 F4800 X11.919 Y8.242
G1 F1800 X5.740 Y2.063 E42.70056
G0 F4800 X5.740 Y1.497
G1 F1800 X12.273 Y8.030 E43.18455
G0 F4800 X12.609 Y7.800
G1 F1800 X5.740 Y0.931 E43.69342
G0 F4800 X5.740 Y0.366
G1 F1800 X12.913 Y7.539 E44.22482
G0 F4800 X13.188 Y7.249
G1 F1800 X5.740 Y-0.199 E44.77659
G0 F4800 X5.740 Y-0.765
G1 F1800 X13.448 Y6.943 E45.34763
G0 F4800 X13.662 Y6.591
G1 F1800 X5.740 Y-1.330 E45.93448
G0 F4800 X5.740 Y-1.896
G1 F1800 X13.859 Y6.222 E46.53592
G0 F4800 X14.023 Y5.820
G1 F1800 X5.740 Y-2.462 E47.14951
G0 F4800 X5.740 Y-3.027
G1 F1800 X14.142 Y5.374 E47.77192
G0 F4800 X14.222 Y4.888
G1 F1800 X5.740 Y-3.593 E48.40026
G0 F4800 X5.740 Y-4.159
G1 F1800 X14.259 Y4.360 E49.03137
G0 F4800 X14.259 Y3.794
G1 F1800 X5.740 Y-4.724 E49.66245
G0 F4800 X5.740 Y-5.290
G1 F1800 X14.259 Y3.228 E50.29353
G0 F4800 X14.259 Y2.662
G1 F1800 X5.740 Y-5.856 E50.92461
G0 F4800 X5.716 Y-8.708
G1 F1800 X14.259 Y-0.165 E51.55750
G0 F4800 X14.259 Y0.400
G1 F1800 X5.150 Y-8.708 E52.23229
G0 F4800 X4.584 Y-8.708
G1 F1800 X14.259 Y0.965 E52.94897
G0 F4800 X14.259 Y1.531
G1 F1800 X4.019 Y-8.708 E53.70754
G0 F4800 X3.453 Y-8.708
G1 F1800 X14.259 Y2.097 E54.50805
G0 F4800 X14.259 Y-0.731
G1 F1800 X6.281 Y-8.708 E55.09905
G0 F4800 X6.847 Y-8.708
G1 F1800 X14.259 Y-1.296 E55.64815
G0 F4800 X14.259 Y-1.862
G1 F1800 X7.413 Y-8.708 E56.15532
G0 F4800 X7.978 Y-8.708
G1 F1800 X14.259 Y-2.428 E56.62060
G0 F4800 X14.259 Y-2.993
G1 F1800 X8.544 Y-8.708 E57.04399
G0 F4800 X9.110 Y-8.708
G1 F1800 X14.259 Y-3.559 E57.42544
G0 F4800 X14.259 Y-4.125
G1 F1800 X9.676 Y-8.708 E57.76497
G0 F4800 X10.241 Y-8.708
G1 F1800 X14.259 Y-4.690 E58.06263
G0 F4800 X14.259 Y-5.256
G1 F1800 X10.807 Y-8.708 E58.31837
G0 F4800 X11.373 Y-8.708
G1 F1800 X14.259 Y-5.822 E58.53217
G0 F4800 X14.259 Y-6.388
G1 F1800 X11.938 Y-8.708 E58.70408
G0 F4800 X12.504 Y-8.708
G1 F1800 X14.259 Y-6.953 E58.83410
G0 F4800 X14.259 Y-7.519
G1 F1800 X13.070 Y-8.708 E58.92218
G0 F4800 X13.635 Y-8.708
G1 F1800 X14.259 Y-8.085 E58.96837
G0 F4800 X14.259 Y-8.650
G1 F1800 X14.201 Y-8.708 E58.97267
G0 F4800 X5.918 Y5.635
G1 F1800 X8.812 Y8.529 E59.18707
G0 F4800 X7.790 Y8.073
G1 F1800 X6.375 Y6.658 E59.29189
;LAYER:1
M106 S63
G0 F4800 X6.078 Y6.441 Z0.500
;TYPE:WALL-INNER
G1 F2280 X5.815 Y5.805 E59.31593
G1 X5.655 Y5.140 E59.33982
G1 X5.604 Y4.469 E59.36332
G1 X5.600 Y3.943 E59.38169
G1 X5.600 Y-6.150 E59.73417
G1 X-5.600 Y-6.150 E60.12531
G1 X-5.600 Y4.429 E60.49476
G1 X-5.654 Y5.130 E60.51931
G1 X-5.817 Y5.810 E60.54373
G1 X-6.081 Y6.447 E60.56781
G1 X-6.419 Y7.000 E60.59045
G1 X-6.861 Y7.526 E60.61444
G1 X-7.388 Y7.985 E60.63885
G1 X-7.968 Y8.345 E60.66269
G1 X-8.604 Y8.617 E60.68684
G1 X-9.313 Y8.794 E60.71236
G1 X-10.005 Y8.847 E60.73660
G1 X-10.680 Y8.795 E60.76025
G1 X-11.358 Y8.633 E60.78459
G1 X-11.999 Y8.366 E60.80884
G1 X-12.581 Y8.011 E60.83265
G1 X-13.107 Y7.562 E60.85680
G1 X-13.559 Y7.033 E60.88110
G1 X-13.921 Y6.441 E60.90533
G1 X-14.184 Y5.805 E60.92937
G1 X-14.344 Y5.140 E60.95325
G1 X-14.395 Y4.469 E60.97676
G1 X-14.399 Y3.943 E60.99513
G1 X-14.399 Y-8.849 E61.44186
G1 X14.400 Y-8.849 E62.44761
G1 X14.400 Y4.427 E62.91125
G1 X14.345 Y5.131 E62.93591
G1 X14.182 Y5.810 E62.96030
G1 X13.918 Y6.447 E62.98438
G1 X13.580 Y7.000 E63.00702
G1 X13.138 Y7.526 E63.03101
G1 X12.611 Y7.985 E63.05542
G1 X12.031 Y8.345 E63.07926
G1 X11.395 Y8.617 E63.10341
G1 X10.686 Y8.794 E63.12893
G1 X9.995 Y8.847 E63.15314
G1 X9.319 Y8.795 E63.17682
G1 X8.638 Y8.632 E63.20127
G1 X8.005 Y8.369 E63.22521
G1 X7.411 Y8.005 E63.24954
G1 X6.892 Y7.562 E63.27337
G1 X6.440 Y7.033 E63.29767
G1 X6.078 Y6.441 E63.32190
G0 F4800 X5.737 Y6.651
;TYPE:WALL-OUTER
G1 F2040 X5.722 Y6.626 E63.32292
G1 X5.445 Y5.958 E63.34817
G1 X5.434 Y5.932 E63.34916
G1 X5.259 Y5.201 E63.37541
G1 X5.204 Y4.489 E63.40035
G1 X5.200 Y3.943 E63.41942
G1 X5.200 Y-5.750 E63.75793
G1 X-5.200 Y-5.750 E64.12113
G1 X-5.200 Y4.449 E64.47731
G1 X-5.256 Y5.169 E64.50253
G1 X-5.258 Y5.194 E64.50341
G1 X-5.428 Y5.904 E64.52890
G1 X-5.712 Y6.601 E64.55519
G1 X-6.093 Y7.233 E64.58096
G1 X-6.579 Y7.811 E64.60733
G1 X-7.144 Y8.303 E64.63350
G1 X-7.787 Y8.703 E64.65994
G1 X-8.476 Y8.997 E64.68610
G1 X-9.251 Y9.190 E64.71399
G1 X-9.972 Y9.246 E64.73925
G1 X-10.002 Y9.249 E64.74030
G1 X-10.719 Y9.193 E64.76542
G1 X-10.744 Y9.191 E64.76630
G1 X-11.454 Y9.021 E64.79179
G1 X-12.151 Y8.736 E64.81809
G1 X-12.796 Y8.348 E64.84438
G1 X-13.372 Y7.862 E64.87070
G1 X-13.882 Y7.271 E64.89796
G1 X-14.262 Y6.651 E64.92335
G1 X-14.277 Y6.626 E64.92437
G1 X-14.554 Y5.958 E64.94963
G1 X-14.565 Y5.932 E64.95061
G1 X-14.740 Y5.201 E64.97686
G1 X-14.795 Y4.489 E65.00180
G1 X-14.799 Y3.943 E65.02087
G1 X-14.799 Y-9.249 E65.48158
G1 X14.800 Y-9.249 E66.51527
G1 X14.800 Y4.449 E66.99364
G1 X14.743 Y5.169 E67.01887
G1 X14.741 Y5.194 E67.01974
G1 X14.571 Y5.904 E67.04524
G1 X14.287 Y6.601 E67.07152
G1 X13.906 Y7.233 E67.09730
G1 X13.420 Y7.811 E67.12367
G1 X12.855 Y8.303 E67.14983
G1 X12.212 Y8.703 E67.17628
G1 X11.523 Y8.997 E67.20244
G1 X10.748 Y9.190 E67.23033
G1 X10.028 Y9.246 E67.25555
G1 X9.998 Y9.249 E67.25661
G1 X9.280 Y9.193 E67.28176
G1 X9.255 Y9.191 E67.28263
G1 X8.545 Y9.021 E67.30813
G1 X7.820 Y8.724 E67.33549
G1 X7.178 Y8.332 E67.36176
G1 X6.627 Y7.862 E67.38705
G1 X6.117 Y7.271 E67.41431
G1 X5.737 Y6.651 E67.43971
G0 F4800 X6.259 Y6.468
;TYPE:SKIN
G1 F2040 X14.259 Y-1.531 E67.83479
G0 F4800 X14.259 Y-0.965
G1 F2040 X6.474 Y6.819 E68.21926
G0 F4800 X6.718 Y7.141
G1 F2040 X14.259 Y-0.400 E68.59170
G0 F4800 X14.259 Y0.165
G1 F2040 X6.978 Y7.446 E68.95130
G0 F4800 X7.281 Y7.709
G1 F2040 X14.259 Y0.731 E69.29594
G0 F4800 X14.259 Y1.296
G1 F2040 X7.599 Y7.956 E69.62487
G0 F4800 X7.950 Y8.171
G1 F2040 X14.259 Y1.862 E69.93646
G0 F4800 X14.259 Y2.428
G1 F2040 X8.333 Y8.353 E70.22911
G0 F4800 X8.741 Y8.512
G1 F2040 X14.259 Y2.993 E70.50167
G0 F4800 X14.259 Y3.559
G1 F2040 X9.197 Y8.621 E70.75167
G0 F4800 X9.700 Y8.684
G1 F2040 X14.259 Y4.125 E70.97683
G0 F4800 X14.236 Y4.714
G1 F2040 X10.263 Y8.686 E71.17303
G0 F4800 X10.926 Y8.589
G1 F2040 X14.141 Y5.374 E71.33182
G0 F4800 X13.857 Y6.224
G1 F2040 X11.782 Y8.299 E71.43430
G0 F4800 X6.080 Y6.081
G1 F2040 X14.259 Y-2.097 E71.83822
G0 F4800 X14.259 Y-2.662
G1 F2040 X5.925 Y5.670 E72.24978
G0 F4800 X5.816 Y5.214
G1 F2040 X14.259 Y-3.228 E72.66675
G0 F4800 X14.259 Y-3.794
G1 F2040 X5.761 Y4.703 E73.08643
G0 F4800 X5.743 Y4.156
G1 F2040 X14.259 Y-4.360 E73.50702
G0 F4800 X14.259 Y-4.925
G1 F2040 X5.743 Y3.590 E73.92759
G0 F4800 X5.743 Y3.025
G1 F2040 X14.259 Y-5.491 E74.34819
G0 F4800 X14.259 Y-6.057
G1 F2040 X5.743 Y2.459 E74.76878
G0 F4800 X5.743 Y1.893
G1 F2040 X14.259 Y-6.622 E75.18935
G0 F4800 X14.259 Y-7.188
G1 F2040 X5.742 Y1.328 E75.60997
G0 F4800 X5.742 Y0.762
G1 F2040 X14.259 Y-7.754 E76.03059
G0 F4800 X14.259 Y-8.319
G1 F2040 X5.742 Y0.197 E76.45121
G0 F4800 X5.742 Y-0.368
G1 F2040 X14.082 Y-8.708 E76.86311
G0 F4800 X13.517 Y-8.708
G1 F2040 X5.741 Y-0.933 E77.24714
