;Generated with Cura_SteamEngine 15.01
; Default start code
G28 ; Home extruder
G1 Z15 F4800
M107 ; Turn off fan
G90 ; Absolute positioning
M82 ; Extruder in absolute mode
M190 S50
; Activate all used extruder
M104 T0 S230
G92 E0 ; Reset extruder position
; Wait for all used extruders to reach temperature
M109 T0 S230
;Layer count: 75
;LAYER:0
M107
G0 F4800 X-3.748 Y-6.466 Z0.300
;TYPE:SKIRT
G1 F1800 X-2.523 Y-7.694 E0.09086
G1 X-2.724 Y-8.700 E0.14460
G1 X2.696 Y-8.700 E0.42853
G1 X2.517 Y-7.708 E0.48133
G1 X3.752 Y-6.466 E0.57309
G1 X4.976 Y-7.694 E0.66391
G1 X4.775 Y-8.700 E0.71765
G1 X8.700 Y-8.700 E0.92326
G1 X8.700 Y-4.803 E1.12741
G1 X7.708 Y-4.982 E1.18021
G1 X6.466 Y-3.748 E1.27193
G1 X7.694 Y-2.523 E1.36279
G1 X8.700 Y-2.724 E1.41653
G1 X8.700 Y2.696 E1.70046
G1 X7.708 Y2.517 E1.75326
G1 X6.466 Y3.752 E1.84501
G1 X7.694 Y4.976 E1.93584
G1 X8.700 Y4.775 E1.98958
G1 X8.700 Y8.700 E2.19519
G1 X4.803 Y8.700 E2.39933
G1 X4.982 Y7.708 E2.45214
G1 X3.748 Y6.466 E2.54385
G1 X2.523 Y7.694 E2.63472
G1 X2.724 Y8.700 E2.68846
G1 X-2.696 Y8.700 E2.97238
G1 X-2.517 Y7.708 E3.02519
G1 X-3.752 Y6.466 E3.11694
G1 X-4.976 Y7.694 E3.20776
G1 X-4.775 Y8.700 E3.26151
G1 X-8.700 Y8.700 E3.46712
G1 X-8.700 Y4.803 E3.67126
G1 X-7.708 Y4.982 E3.72406
G1 X-6.466 Y3.748 E3.81578
G1 X-7.694 Y2.523 E3.90664
G1 X-8.700 Y2.724 E3.96038
G1 X-8.700 Y-2.696 E4.24431
G1 X-7.708 Y-2.517 E4.29711
G1 X-6.466 Y-3.752 E4.38886
G1 X-7.694 Y-4.976 E4.47969
G1 X-8.700 Y-4.775 E4.53343
G1 X-8.700 Y-8.700 E4.73904
G1 X-4.803 Y-8.700 E4.94318
G1 X-4.982 Y-7.708 E4.99599
G1 X-3.748 Y-6.466 E5.08771
G0 F4800 X-2.547 Y-5.265
G0 X-3.751 Y-3.916
;TYPE:WALL-INNER
G1 F1800 X-0.772 Y-6.900 E5.30858
G1 X-0.414 Y-6.900 E5.32734
G1 X-3.583 Y-3.751 E5.56137
G1 X-0.787 Y-0.959 E5.76836
G1 X-0.398 Y-0.568 E5.79725
G1 X0.006 Y-0.649 E5.81883
G1 X0.394 Y-0.579 E5.83949
G1 X3.583 Y-3.749 E6.07504
G1 X0.785 Y-6.542 E6.28213
G1 X0.429 Y-6.900 E6.30858
G1 X0.783 Y-6.900 E6.32713
G1 X3.749 Y-3.916 E6.54753
G1 X6.727 Y-6.900 E6.76837
G1 X6.900 Y-6.900 E6.77743
G1 X6.900 Y-6.716 E6.78707
G1 X3.916 Y-3.751 E7.00743
G1 X6.900 Y-0.772 E7.22831
G1 X6.900 Y-0.414 E7.24706
G1 X3.751 Y-3.583 E7.48109
G1 X0.959 Y-0.787 E7.68808
G1 X0.568 Y-0.398 E7.71697
G1 X0.649 Y0.006 E7.73856
G1 X0.579 Y0.394 E7.75921
G1 X3.749 Y3.583 E7.99476
G1 X6.540 Y0.787 E8.20171
G1 X6.900 Y0.429 E8.22831
G1 X6.900 Y0.783 E8.24685
G1 X3.916 Y3.749 E8.46725
G1 X6.900 Y6.727 E8.68809
G1 X6.900 Y6.900 E8.69715
G1 X6.716 Y6.900 E8.70679
G1 X3.751 Y3.916 E8.92716
G1 X0.772 Y6.900 E9.14803
G1 X0.416 Y6.900 E9.16668
G1 X3.583 Y3.751 E9.40064
G1 X0.785 Y0.957 E9.60778
G1 X0.398 Y0.568 E9.63652
G1 X-0.006 Y0.649 E9.65810
G1 X-0.394 Y0.579 E9.67876
G1 X-3.583 Y3.749 E9.91431
G1 X-0.787 Y6.540 E10.12126
G1 X-0.429 Y6.900 E10.14785
G1 X-0.783 Y6.900 E10.16640
G1 X-3.749 Y3.916 E10.38680
G1 X-6.727 Y6.900 E10.60764
G1 X-6.900 Y6.900 E10.61670
G1 X-6.900 Y6.716 E10.62634
G1 X-3.916 Y3.751 E10.84670
G1 X-6.900 Y0.772 E11.06758
G1 X-6.900 Y0.414 E11.08633
G1 X-3.751 Y3.583 E11.32036
G1 X-0.959 Y0.787 E11.52735
G1 X-0.568 Y0.398 E11.55624
G1 X-0.649 Y-0.006 E11.57783
G1 X-0.579 Y-0.394 E11.59848
G1 X-3.749 Y-3.583 E11.83403
G1 X-6.540 Y-0.787 E12.04098
G1 X-6.900 Y-0.429 E12.06758
G1 X-6.900 Y-0.783 E12.08612
G1 X-3.916 Y-3.749 E12.30652
G1 X-6.900 Y-6.727 E12.52736
G1 X-6.900 Y-6.900 E12.53643
G1 X-6.716 Y-6.900 E12.54606
G1 X-3.751 Y-3.916 E12.76643
G0 F4800 X-0.386 Y-6.896
G0 X-0.006 Y-6.850
G1 F1800 X-0.284 Y-6.900 E12.78122
G1 X0.244 Y-6.900 E12.80888
G1 X-0.006 Y-6.850 E12.82224
G0 F4800 X-0.386 Y-6.896
G0 X-3.500 Y-3.751
G0 X-6.904 Y-0.389
G0 X-6.850 Y0.006
G1 F1800 X-6.900 Y0.284 E12.83703
G1 X-6.900 Y-0.244 E12.86469
G1 X-6.850 Y0.006 E12.87805
G0 F4800 X-6.896 Y0.386
G0 X-3.751 Y3.500
G0 X-0.389 Y6.904
G0 X0.004 Y6.850
G1 F1800 X0.275 Y6.900 E12.89248
G1 X-0.244 Y6.900 E12.91967
G1 X0.004 Y6.850 E12.93293
G0 F4800 X0.385 Y6.898
G0 X3.500 Y3.751
G0 X6.904 Y0.389
G0 X6.850 Y-0.006
G1 F1800 X6.900 Y-0.284 E12.94772
G1 X6.900 Y0.244 E12.97538
G1 X6.850 Y-0.006 E12.98874
G0 F4800 X6.443 Y-0.001
;TYPE:WALL-OUTER
G1 F1800 X6.489 Y-0.260 E13.00252
G1 X3.750 Y-3.016 E13.20606
G1 X1.003 Y-0.266 E13.40968
G1 X1.056 Y0.001 E13.42394
G1 X1.010 Y0.260 E13.43772
G1 X3.750 Y3.016 E13.64130
G1 X6.496 Y0.266 E13.84488
G1 X6.443 Y-0.001 E13.85914
G0 F4800 X7.239 Y1.010
G1 F1800 X4.483 Y3.750 E14.06272
G1 X7.234 Y6.496 E14.26634
G1 X7.300 Y6.483 E14.26986
G1 X7.300 Y7.300 E14.31266
G1 X6.478 Y7.300 E14.35572
G1 X6.489 Y7.239 E14.35897
G1 X3.750 Y4.483 E14.56251
G1 X1.003 Y7.234 E14.76617
G1 X1.016 Y7.300 E14.76969
G1 X-1.021 Y7.300 E14.87640
G1 X-1.010 Y7.239 E14.87965
G1 X-3.750 Y4.483 E15.08323
G1 X-6.496 Y7.234 E15.28685
G1 X-6.483 Y7.300 E15.29037
G1 X-7.300 Y7.300 E15.33317
G1 X-7.300 Y6.478 E15.37623
G1 X-7.239 Y6.489 E15.37947
G1 X-4.483 Y3.750 E15.58302
G1 X-7.234 Y1.003 E15.78667
G1 X-7.300 Y1.016 E15.79020
G1 X-7.300 Y-1.021 E15.89691
G1 X-7.239 Y-1.010 E15.90015
G1 X-4.483 Y-3.750 E16.10373
G1 X-7.234 Y-6.496 E16.30735
G1 X-7.300 Y-6.483 E16.31088
G1 X-7.300 Y-7.300 E16.35367
G1 X-6.478 Y-7.300 E16.39673
G1 X-6.489 Y-7.239 E16.39998
G1 X-3.750 Y-4.483 E16.60353
G1 X-1.003 Y-7.234 E16.80718
G1 X-1.016 Y-7.300 E16.81070
G1 X1.021 Y-7.300 E16.91741
G1 X1.010 Y-7.239 E16.92066
G1 X3.750 Y-4.483 E17.12424
G1 X6.496 Y-7.234 E17.32786
G1 X6.483 Y-7.300 E17.33138
G1 X7.300 Y-7.300 E17.37418
G1 X7.300 Y-6.478 E17.41724
G1 X7.239 Y-6.489 E17.42049
G1 X4.483 Y-3.750 E17.62403
G1 X7.234 Y-1.003 E17.82769
G1 X7.300 Y-1.016 E17.83121
G1 X7.300 Y1.021 E17.93792
G1 X7.239 Y1.010 E17.94116
G0 F4800 X7.023 Y0.803
G0 X6.896 Y-0.386
G0 X3.228 Y-3.961
G0 X3.016 Y-3.750
G1 F1800 X0.266 Y-6.496 E18.14474
G1 X-0.001 Y-6.443 E18.15900
G1 X-0.260 Y-6.489 E18.17278
G1 X-3.016 Y-3.750 E18.37633
G1 X-0.266 Y-1.003 E18.57995
G1 X0.001 Y-1.056 E18.59421
G1 X0.260 Y-1.010 E18.60799
G1 X3.016 Y-3.750 E18.81157
G0 F4800 X3.228 Y-3.961
G0 X3.500 Y-3.749
G0 X0.386 Y-0.604
G0 X-0.754 Y0.006
G0 X-1.056 Y-0.001
G1 F1800 X-1.010 Y-0.260 E18.82535
G1 X-3.750 Y-3.016 E19.02893
G1 X-6.496 Y-0.266 E19.23251
G1 X-6.443 Y0.001 E19.24677
G1 X-6.489 Y0.260 E19.26055
G1 X-3.750 Y3.016 E19.46409
G1 X-1.003 Y0.266 E19.66771
G1 X-1.056 Y-0.001 E19.68197
G0 F4800 X-0.001 Y1.056
G1 F1800 X-0.260 Y1.010 E19.69575
G1 X-3.016 Y3.750 E19.89933
G1 X-0.266 Y6.496 E20.10291
G1 X0.000 Y6.443 E20.11712
G1 X0.261 Y6.491 E20.13102
G1 X3.016 Y3.750 E20.33460
G1 X0.266 Y1.003 E20.53822
G1 X-0.001 Y1.056 E20.55248
G0 F4800 X0.184 Y0.467
;TYPE:SKIN
G1 F1800 X-0.473 Y-0.190 E20.60115
G0 F4800 X-0.184 Y-0.467
G1 F1800 X0.473 Y0.190 E20.64983
;LAYER:1
M106 S63
G0 F4800 X0.821 Y0.779 Z0.500
;TYPE:WALL-INNER
G1 F2280 X2.366 Y2.319 E20.72601
G1 X3.750 Y3.705 E20.79441
G1 X5.132 Y2.321 E20.86272
G1 X6.676 Y0.781 E20.93887
G1 X6.723 Y0.663 E20.94331
G1 X6.900 Y0.363 E20.95548
G1 X6.900 Y0.735 E20.96847
G1 X6.831 Y0.779 E20.97132
G1 X6.721 Y0.821 E20.97544
G1 X5.181 Y2.366 E21.05162
G1 X3.793 Y3.750 E21.12007
G1 X5.179 Y5.132 E21.18843
G1 X6.719 Y6.676 E21.26458
G1 X6.837 Y6.723 E21.26902
G1 X6.900 Y6.760 E21.27157
G1 X6.900 Y6.900 E21.27646
G1 X6.764 Y6.900 E21.28121
G1 X6.720 Y6.831 E21.28407
G1 X6.678 Y6.721 E21.28818
G1 X5.133 Y5.180 E21.36439
G1 X3.750 Y3.793 E21.43279
G1 X2.368 Y5.179 E21.50114
G1 X0.823 Y6.719 E21.57733
G1 X0.776 Y6.837 E21.58176
G1 X0.739 Y6.900 E21.58431
G1 X0.382 Y6.900 E21.59678
G1 X0.670 Y6.720 E21.60864
G1 X0.779 Y6.678 E21.61272
G1 X2.319 Y5.134 E21.68888
G1 X3.705 Y3.750 E21.75728
G1 X2.320 Y2.367 E21.82564
G1 X0.781 Y0.823 E21.90177
G1 X0.663 Y0.776 E21.90621
G1 X0.266 Y0.542 E21.92230
G1 X0.000 Y0.838 E21.93620
G1 X-0.277 Y0.534 E21.95056
G1 X-0.669 Y0.779 E21.96670
G1 X-0.779 Y0.821 E21.97082
G1 X-2.319 Y2.366 E22.04700
G1 X-3.705 Y3.750 E22.11540
G1 X-2.321 Y5.132 E22.18371
G1 X-0.781 Y6.676 E22.25986
G1 X-0.663 Y6.723 E22.26430
G1 X-0.363 Y6.900 E22.27646
G1 X-0.735 Y6.900 E22.28946
G1 X-0.779 Y6.831 E22.29231
G1 X-0.821 Y6.721 E22.29643
G1 X-2.367 Y5.180 E22.37266
G1 X-3.750 Y3.793 E22.44106
G1 X-5.132 Y5.179 E22.50941
G1 X-6.676 Y6.719 E22.58557
G1 X-6.723 Y6.837 E22.59001
G1 X-6.760 Y6.900 E22.59256
G1 X-6.900 Y6.900 E22.59745
G1 X-6.900 Y6.764 E22.60220
G1 X-6.831 Y6.720 E22.60506
G1 X-6.721 Y6.678 E22.60917
G1 X-5.181 Y5.134 E22.68533
G1 X-3.793 Y3.750 E22.75378
G1 X-5.180 Y2.367 E22.82218
G1 X-6.719 Y0.823 E22.89832
G1 X-6.837 Y0.776 E22.90275
G1 X-6.900 Y0.739 E22.90530
G1 X-6.900 Y0.381 E22.91781
G1 X-6.720 Y0.669 E22.92967
G1 X-6.678 Y0.779 E22.93378
G1 X-5.134 Y2.319 E23.00994
G1 X-3.750 Y3.705 E23.07834
G1 X-2.368 Y2.321 E23.14664
G1 X-0.823 Y0.781 E23.22283
G1 X-0.776 Y0.663 E23.22726
G1 X-0.555 Y0.288 E23.24246
G1 X-0.839 Y0.005 E23.25646
G1 X-0.582 Y-0.233 E23.26870
G1 X-0.833 Y-0.791 E23.29007
G1 X-2.367 Y-2.320 E23.36570
G1 X-3.750 Y-3.705 E23.43406
G1 X-5.132 Y-2.321 E23.50236
G1 X-6.666 Y-0.791 E23.57803
G1 X-6.900 Y-0.271 E23.59794
G1 X-6.900 Y-0.747 E23.61456
G1 X-6.709 Y-0.833 E23.62188
G1 X-5.181 Y-2.366 E23.69747
G1 X-3.793 Y-3.750 E23.76592
G1 X-5.180 Y-5.133 E23.83433
G1 X-6.709 Y-6.666 E23.90994
G1 X-6.900 Y-6.752 E23.91726
G1 X-6.900 Y-6.900 E23.92242
G1 X-6.764 Y-6.900 E23.92717
G1 X-6.720 Y-6.831 E23.93003
G1 X-6.678 Y-6.721 E23.93414
G1 X-5.134 Y-5.181 E24.01030
G1 X-3.750 Y-3.793 E24.07875
G1 X-2.368 Y-5.179 E24.14711
G1 X-0.823 Y-6.719 E24.22329
G1 X-0.776 Y-6.837 E24.22773
G1 X-0.739 Y-6.900 E24.23028
G1 X-0.381 Y-6.900 E24.24278
G1 X-0.668 Y-6.721 E24.25459
G1 X-0.779 Y-6.678 E24.25875
G1 X-2.319 Y-5.134 E24.33491
G1 X-3.705 Y-3.750 E24.40331
G1 X-2.321 Y-2.368 E24.47162
G1 X-0.781 Y-0.823 E24.54780
G1 X-0.663 Y-0.776 E24.55223
G1 X-0.288 Y-0.555 E24.56743
G1 X-0.005 Y-0.839 E24.58144
G1 X0.277 Y-0.534 E24.59594
G1 X0.669 Y-0.779 E24.61209
G1 X0.779 Y-0.821 E24.61620
G1 X2.319 Y-2.366 E24.69238
G1 X3.705 Y-3.750 E24.76078
G1 X2.320 Y-5.133 E24.82914
G1 X0.781 Y-6.676 E24.90525
G1 X0.663 Y-6.723 E24.90968
G1 X0.363 Y-6.900 E24.92185
G1 X0.735 Y-6.900 E24.93484
G1 X0.779 Y-6.831 E24.93770
G1 X0.821 Y-6.721 E24.94181
G1 X2.366 Y-5.181 E25.01799
G1 X3.750 Y-3.793 E25.08644
G1 X5.132 Y-5.179 E25.15480
G1 X6.676 Y-6.719 E25.23096
G1 X6.723 Y-6.837 E25.23539
G1 X6.760 Y-6.900 E25.23794
G1 X6.900 Y-6.900 E25.24283
G1 X6.900 Y-6.764 E25.24758
G1 X6.832 Y-6.721 E25.25039
G1 X6.721 Y-6.678 E25.25455
G1 X5.181 Y-5.134 E25.33071
G1 X3.793 Y-3.750 E25.39916
G1 X5.179 Y-2.368 E25.46751
G1 X6.719 Y-0.823 E25.54370
G1 X6.837 Y-0.776 E25.54813
G1 X6.900 Y-0.739 E25.55068
G1 X6.900 Y-0.381 E25.56319
G1 X6.720 Y-0.669 E25.57505
G1 X6.678 Y-0.779 E25.57916
G1 X5.133 Y-2.320 E25.65537
G1 X3.750 Y-3.705 E25.72372
G1 X2.368 Y-2.321 E25.79202
G1 X0.823 Y-0.781 E25.86821
G1 X0.776 Y-0.663 E25.87264
G1 X0.555 Y-0.288 E25.88784
G1 X0.839 Y-0.005 E25.90185
G1 X0.534 Y0.277 E25.91635
G1 X0.779 Y0.669 E25.93250
G1 X0.821 Y0.779 E25.93661
G0 F4800 X3.750 Y3.622
G0 X6.891 Y0.295
G0 X6.660 Y0.005
G1 F2280 X6.900 Y-0.218 E25.94805
G1 X6.900 Y0.244 E25.96418
G1 X6.660 Y0.005 E25.97601
G0 F4800 X6.891 Y0.295
G0 X3.750 Y3.622
G0 X0.283 Y6.906
G0 X-0.005 Y6.660
G1 F2280 X0.215 Y6.900 E25.98738
G1 X-0.244 Y6.900 E26.00341
G1 X-0.005 Y6.660 E26.01524
G0 F4800 X-0.295 Y6.891
G0 X-3.622 Y3.750
G0 X-6.905 Y0.286
G0 X-6.659 Y-0.002
G1 F2280 X-6.900 Y0.218 E26.02664
G1 X-6.900 Y-0.245 E26.04281
G1 X-6.659 Y-0.002 E26.05476
G0 F4800 X-6.865 Y-0.260
G0 X-6.663 Y-0.788
G0 X-3.750 Y-3.622
G0 X-0.286 Y-6.905
G0 X0.005 Y-6.660
G1 F2280 X-0.218 Y-6.900 E26.06620
G1 X0.244 Y-6.900 E26.08233
G1 X0.005 Y-6.660 E26.09416
G0 F4800 X0.006 Y-6.241
;TYPE:WALL-OUTER
G1 F2040 X-0.119 Y-6.264 E26.09860
G1 X-0.247 Y-6.338 E26.10376
G1 X-0.348 Y-6.449 E26.10901
G1 X-0.490 Y-6.361 E26.11484
G1 X-0.556 Y-6.335 E26.11732
G1 X-3.139 Y-3.750 E26.24494
G1 X-0.556 Y-1.164 E26.37258
G1 X-0.485 Y-1.136 E26.37525
G1 X-0.352 Y-1.057 E26.38065
G1 X-0.252 Y-1.158 E26.38561
G1 X-0.120 Y-1.235 E26.39095
G1 X-0.006 Y-1.258 E26.39501
G1 X0.119 Y-1.235 E26.39945
G1 X0.247 Y-1.161 E26.40461
G1 X0.348 Y-1.050 E26.40986
G1 X0.490 Y-1.138 E26.41569
G1 X0.556 Y-1.164 E26.41817
G1 X3.139 Y-3.750 E26.54581
G1 X0.556 Y-6.335 E26.67343
G1 X0.485 Y-6.363 E26.67610
G1 X0.352 Y-6.442 E26.68150
G1 X0.252 Y-6.341 E26.68646
G1 X0.120 Y-6.264 E26.69180
G1 X0.006 Y-6.241 E26.69586
G0 F4800 X1.164 Y-6.944
G1 F2040 X3.750 Y-4.360 E26.82353
G1 X6.335 Y-6.944 E26.95118
G1 X6.363 Y-7.015 E26.95384
G1 X6.442 Y-7.148 E26.95925
G1 X6.342 Y-7.247 E26.96416
G1 X6.311 Y-7.300 E26.96630
G1 X7.300 Y-7.300 E27.00084
G1 X7.300 Y-6.310 E27.03542
G1 X7.254 Y-6.337 E27.03728
G1 X7.152 Y-6.449 E27.04257
G1 X7.010 Y-6.361 E27.04840
G1 X6.944 Y-6.335 E27.05088
G1 X4.360 Y-3.750 E27.17853
G1 X6.944 Y-1.164 E27.30620
G1 X7.015 Y-1.136 E27.30886
G1 X7.148 Y-1.057 E27.31427
G1 X7.247 Y-1.157 E27.31918
G1 X7.300 Y-1.188 E27.32132
G1 X7.300 Y1.189 E27.40434
G1 X7.254 Y1.162 E27.40620
G1 X7.152 Y1.050 E27.41149
G1 X7.010 Y1.138 E27.41732
G1 X6.944 Y1.164 E27.41980
G1 X4.360 Y3.750 E27.54747
G1 X6.944 Y6.335 E27.67512
G1 X7.015 Y6.363 E27.67778
G1 X7.148 Y6.442 E27.68318
G1 X7.247 Y6.342 E27.68810
G1 X7.300 Y6.311 E27.69024
G1 X7.300 Y7.300 E27.72478
G1 X6.310 Y7.300 E27.75936
G1 X6.337 Y7.254 E27.76122
G1 X6.449 Y7.152 E27.76651
G1 X6.361 Y7.010 E27.77234
G1 X6.335 Y6.944 E27.77482
G1 X3.750 Y4.360 E27.90247
G1 X1.164 Y6.944 E28.03014
G1 X1.136 Y7.015 E28.03280
G1 X1.057 Y7.148 E28.03820
G1 X1.157 Y7.247 E28.04312
G1 X1.188 Y7.300 E28.04526
G1 X-1.189 Y7.300 E28.12827
G1 X-1.162 Y7.254 E28.13014
G1 X-1.050 Y7.152 E28.13543
G1 X-1.138 Y7.010 E28.14126
G1 X-1.164 Y6.944 E28.14374
G1 X-3.750 Y4.360 E28.27141
G1 X-6.335 Y6.944 E28.39905
G1 X-6.363 Y7.015 E28.40172
G1 X-6.442 Y7.148 E28.40712
G1 X-6.342 Y7.247 E28.41204
G1 X-6.311 Y7.300 E28.41418
G1 X-7.300 Y7.300 E28.44872
G1 X-7.300 Y6.310 E28.48329
G1 X-7.254 Y6.337 E28.48516
G1 X-7.152 Y6.449 E28.49045
G1 X-7.010 Y6.361 E28.49628
G1 X-6.944 Y6.335 E28.49876
G1 X-4.360 Y3.750 E28.62640
G1 X-6.944 Y1.164 E28.75407
G1 X-7.015 Y1.136 E28.75674
G1 X-7.148 Y1.057 E28.76214
G1 X-7.247 Y1.157 E28.76705
G1 X-7.300 Y1.188 E28.76920
G1 X-7.300 Y-1.189 E28.85221
G1 X-7.253 Y-1.161 E28.85412
G1 X-7.166 Y-1.066 E28.85862
G1 X-6.940 Y-1.168 E28.86728
G1 X-4.360 Y-3.750 E28.99475
G1 X-6.941 Y-6.331 E29.12222
G1 X-7.160 Y-6.430 E29.13062
G1 X-7.247 Y-6.342 E29.13494
G1 X-7.300 Y-6.311 E29.13708
G1 X-7.300 Y-7.300 E29.17162
G1 X-6.310 Y-7.300 E29.20620
G1 X-6.337 Y-7.254 E29.20806
G1 X-6.449 Y-7.152 E29.21335
G1 X-6.361 Y-7.010 E29.21918
G1 X-6.335 Y-6.944 E29.22166
G1 X-3.750 Y-4.360 E29.34931
G1 X-1.164 Y-6.944 E29.47698
G1 X-1.136 Y-7.015 E29.47964
G1 X-1.057 Y-7.148 E29.48504
G1 X-1.157 Y-7.247 E29.48996
G1 X-1.188 Y-7.300 E29.49210
G1 X1.189 Y-7.300 E29.57512
G1 X1.162 Y-7.254 E29.57698
G1 X1.050 Y-7.152 E29.58227
G1 X1.138 Y-7.010 E29.58810
G1 X1.164 Y-6.944 E29.59058
G0 F4800 X0.952 Y-6.733
G0 X3.962 Y-3.349
G0 X3.750 Y-3.139
G1 F2040 X1.164 Y-0.556 E29.71823
G1 X1.136 Y-0.485 E29.72089
G1 X1.057 Y-0.352 E29.72629
G1 X1.158 Y-0.252 E29.73126
G1 X1.235 Y-0.120 E29.73659
G1 X1.258 Y-0.006 E29.74065
G1 X1.235 Y0.119 E29.74509
G1 X1.161 Y0.247 E29.75026
G1 X1.050 Y0.348 E29.75550
G1 X1.138 Y0.490 E29.76133
G1 X1.164 Y0.556 E29.76381
G1 X3.750 Y3.139 E29.89145
G1 X6.335 Y0.556 E30.01908
G1 X6.363 Y0.485 E30.02174
G1 X6.442 Y0.352 E30.02714
G1 X6.341 Y0.252 E30.03211
G1 X6.264 Y0.120 E30.03744
G1 X6.241 Y0.006 E30.04151
G1 X6.264 Y-0.119 E30.04594
G1 X6.338 Y-0.247 E30.05111
G1 X6.449 Y-0.348 E30.05635
G1 X6.361 Y-0.490 E30.06218
